; generated by Slic3r 1.1.7 on 2015-01-21 at 17:42:13

; perimeters extrusion width = 0.40mm
; infill extrusion width = 0.67mm
; solid infill extrusion width = 0.67mm
; top infill extrusion width = 0.67mm

G21 ; set units to millimeters
M190 S60 ; wait for bed temperature to be reached
M104 S230 ; set temperature
G28; move extruder to 0
M106 S0; turn off fan
; G64 P0.10   ; blend tolerance
M109 S230 ; wait for temperature to be reached
G90 ; use absolute coordinates
G92 A0
G1 F3000.000 A-0.60000
G92 A0
G1 Z0.200 F4800.000
G1 X3.462 Y11.505 F4800.000
G1 A0.60000 F3000.000
G1 X0.489 Y12.399 A0.67882 F1920.000
G1 X-1.094 Y12.774 A0.72014
G1 X-2.713 Y12.947 A0.76146
G1 X-4.340 Y12.915 A0.80279
G1 X-5.950 Y12.680 A0.84411
G1 X-7.518 Y12.245 A0.88544
G1 X-8.923 Y11.669 A0.92399
G1 X-13.091 Y9.526 A1.04300
G1 X-14.444 Y8.385 A1.08794
G1 X-15.241 Y6.089 A1.14967
G1 X-15.287 Y4.000 A1.20272
G1 X-15.286 Y-4.089 A1.40812
G1 X-15.241 Y-6.089 A1.45892
G1 X-14.808 Y-7.804 A1.50385
G1 X-13.091 Y-9.526 A1.56559
G1 X-8.569 Y-11.829 A1.69445
G1 X-7.527 Y-12.242 A1.72292
G1 X-7.045 Y-12.399 A1.73579
G1 X-5.461 Y-12.774 A1.77711
G1 X-4.348 Y-12.914 A1.80560
G1 X-3.843 Y-12.947 A1.81846
G1 X-2.216 Y-12.915 A1.85978
G1 X-0.605 Y-12.680 A1.90111 F1920.000
G1 X0.647 Y-12.355 A1.93395
G1 X12.466 Y-8.796 A2.24738
G1 X14.003 Y-7.920 A2.29232
G1 X15.007 Y-6.463 A2.33726
G1 X15.287 Y-5.000 A2.37508
G1 X15.287 Y5.000 A2.62901
G1 X14.892 Y6.725 A2.67394
G1 X13.786 Y8.106 A2.71888
G1 X12.466 Y8.796 A2.75670
G1 X3.519 Y11.488 A2.99394
G1 X3.369 Y11.197 F4800.000
G1 X0.409 Y12.088 A3.07242 F1920.000
G1 X-1.135 Y12.455 A3.11272
G1 X-2.713 Y12.625 A3.15302
G1 X-4.299 Y12.596 A3.19332
G1 X-5.870 Y12.369 A3.23362
G1 X-7.400 Y11.947 A3.27392
G1 X-8.776 Y11.383 A3.31167
G1 X-12.944 Y9.240 A3.43069
G1 X-14.230 Y8.135 A3.47374
G1 X-14.920 Y6.082 A3.52874
G1 X-14.965 Y4.000 A3.58161
G1 X-14.964 Y-4.082 A3.78682
G1 X-14.920 Y-6.082 A3.83762
G1 X-14.488 Y-7.721 A3.88067
G1 X-12.944 Y-9.240 A3.93568
G1 X-8.451 Y-11.531 A4.06374
G1 X-7.408 Y-11.943 A4.09221
G1 X-6.965 Y-12.088 A4.10406
G1 X-5.421 Y-12.455 A4.14436
G1 X-4.308 Y-12.595 A4.17285
G1 X-3.843 Y-12.625 A4.18468
G1 X-2.256 Y-12.596 A4.22498
G1 X-0.685 Y-12.369 A4.26528 F1920.000
G1 X0.554 Y-12.048 A4.29779
G1 X12.373 Y-8.488 A4.61122
G1 X13.838 Y-7.635 A4.65427
G1 X14.758 Y-6.211 A4.69732
G1 X14.965 Y-5.000 A4.72852
G1 X14.965 Y5.000 A4.98245
G1 X14.571 Y6.649 A5.02550
G1 X13.473 Y7.941 A5.06855
G1 X12.373 Y8.488 A5.09975
G1 X3.427 Y11.180 A5.33699
G1 X3.276 Y10.890 F4800.000
G1 X0.330 Y11.777 A5.41513 F1920.000
G1 X-1.175 Y12.136 A5.45441
G1 X-2.713 Y12.304 A5.49369
G1 X-4.259 Y12.278 A5.53296
G1 X-5.790 Y12.058 A5.57224
G1 X-7.281 Y11.648 A5.61152
G1 X-8.629 Y11.097 A5.64847
G1 X-12.797 Y8.954 A5.76748
G1 X-14.012 Y7.886 A5.80856
G1 X-14.598 Y6.074 A5.85691
G1 X-14.644 Y4.000 A5.90960
G1 X-14.643 Y-4.074 A6.11463
G1 X-14.598 Y-6.074 A6.16543
G1 X-14.169 Y-7.634 A6.20651
G1 X-12.797 Y-8.954 A6.25486
G1 X-8.332 Y-11.232 A6.38213
G1 X-7.290 Y-11.644 A6.41059
G1 X-6.885 Y-11.777 A6.42142
G1 X-5.380 Y-12.136 A6.46069
G1 X-4.267 Y-12.276 A6.48918
G1 X-3.843 Y-12.304 A6.49999
G1 X-2.296 Y-12.278 A6.53926
G1 X-0.765 Y-12.058 A6.57854 F1920.000
G1 X0.461 Y-11.740 A6.61071
G1 X12.280 Y-8.180 A6.92414
G1 X13.669 Y-7.351 A6.96522
G1 X14.501 Y-5.963 A7.00630
G1 X14.644 Y-5.000 A7.03103
G1 X14.644 Y5.000 A7.28496
G1 X14.250 Y6.569 A7.32604
G1 X13.161 Y7.766 A7.36712
G1 X12.280 Y8.180 A7.39185
G1 X3.334 Y10.873 A7.62909
G1 F3000.000 A7.02909
G92 A0
G1 X4.592 Y2.282 F4800.000
G1 A0.60000 F3000.000
G1 X4.352 Y3.021 A0.61972 F1200.000
G1 X3.913 Y3.953 A0.64589
G1 X3.361 Y4.823 A0.67205
G1 X2.704 Y5.617 A0.69822
G1 X1.953 Y6.322 A0.72439
G1 X1.119 Y6.928 A0.75055
G1 X0.216 Y7.425 A0.77672
G1 X-0.742 Y7.804 A0.80288
G1 X-1.740 Y8.060 A0.82905
G1 X-2.762 Y8.189 A0.85522
G1 X-3.793 Y8.189 A0.88138
G1 X-4.815 Y8.060 A0.90755
G1 X-5.813 Y7.804 A0.93372
G1 X-6.771 Y7.425 A0.95988
G1 X-7.674 Y6.928 A0.98605
G1 X-8.508 Y6.322 A1.01222
G1 X-9.259 Y5.617 A1.03838
G1 X-9.598 Y5.207 A1.05189
G1 X-10.485 Y5.207 A1.07440
G1 X-10.485 Y4.793 A1.08492
G1 X-9.409 Y4.793 A1.11224
G1 X-8.743 Y5.597 A1.13875
G1 X-8.681 Y5.597 A1.14033
G1 X-8.246 Y6.006 A1.15548
G1 X-7.454 Y6.581 A1.18034
G1 X-6.596 Y7.053 A1.20519
G1 X-5.686 Y7.413 A1.23005
G1 X-4.738 Y7.656 A1.25490
G1 X-3.767 Y7.779 A1.27976
G1 X-2.788 Y7.779 A1.30462
G1 X-1.817 Y7.656 A1.32947
G1 X-0.869 Y7.413 A1.35433
G1 X0.041 Y7.053 A1.37918
G1 X0.899 Y6.581 A1.40404
G1 X1.691 Y6.006 A1.42889
G1 X2.404 Y5.336 A1.45375
G1 X3.028 Y4.582 A1.47861
G1 X3.553 Y3.755 A1.50346
G1 X3.970 Y2.869 A1.52832
G1 X4.254 Y1.993 A1.55172
G1 X4.455 Y0.977 A1.57802
G1 X4.513 Y-0.057 A1.60432
G1 X4.455 Y-0.977 A1.62772
G1 X4.272 Y-1.938 A1.65258
G1 X3.970 Y-2.869 A1.67743
G1 X3.553 Y-3.755 A1.70229
G1 X3.028 Y-4.582 A1.72714
G1 X2.404 Y-5.336 A1.75200
G1 X1.691 Y-6.006 A1.77685
G1 X0.899 Y-6.581 A1.80171
G1 X0.041 Y-7.053 A1.82657
G1 X-0.869 Y-7.413 A1.85142
G1 X-1.817 Y-7.656 A1.87628
G1 X-2.788 Y-7.779 A1.90113
G1 X-3.767 Y-7.779 A1.92599
G1 X-4.738 Y-7.656 A1.95084
G1 X-5.686 Y-7.413 A1.97570
G1 X-6.596 Y-7.053 A2.00056
G1 X-7.454 Y-6.581 A2.02541
G1 X-8.246 Y-6.006 A2.05027
G1 X-8.681 Y-5.597 A2.06542
G1 X-8.743 Y-5.597 A2.06700
G1 X-9.409 Y-4.793 A2.09351
G1 X-10.485 Y-4.793 A2.12083
G1 X-10.485 Y-5.207 A2.13135
G1 X-9.598 Y-5.207 A2.15386
G1 X-9.259 Y-5.617 A2.16737
G1 X-8.508 Y-6.322 A2.19353
G1 X-7.674 Y-6.928 A2.21970
G1 X-6.771 Y-7.425 A2.24587
G1 X-5.813 Y-7.804 A2.27203
G1 X-4.815 Y-8.060 A2.29820
G1 X-3.793 Y-8.189 A2.32437
G1 X-2.762 Y-8.189 A2.35053
G1 X-1.740 Y-8.060 A2.37670
G1 X-0.742 Y-7.804 A2.40287
G1 X0.216 Y-7.425 A2.42903
G1 X1.119 Y-6.928 A2.45520
G1 X1.953 Y-6.322 A2.48136
G1 X2.704 Y-5.617 A2.50753
G1 X3.361 Y-4.823 A2.53370
G1 X3.913 Y-3.953 A2.55986
G1 X4.352 Y-3.021 A2.58603
G1 X4.592 Y-2.282 A2.60575
G1 X8.515 Y-2.282 A2.70538
G1 X8.515 Y-4.207 A2.75427
G1 X10.529 Y-4.207 A2.80541
G1 X10.529 Y4.207 A3.01907
G1 X8.515 Y4.207 A3.07022
G1 X8.515 Y2.282 A3.11910
G1 X4.652 Y2.282 A3.21721
G1 X4.825 Y2.604 F4800.000
G1 X4.651 Y3.139 A3.23151 F1200.000
G1 X4.195 Y4.108 A3.25871
G1 X3.621 Y5.012 A3.28590
G1 X2.939 Y5.838 A3.31309
G1 X2.158 Y6.571 A3.34029
G1 X1.292 Y7.200 A3.36748
G1 X0.353 Y7.716 A3.39467
G1 X-0.642 Y8.110 A3.42187
G1 X-1.680 Y8.377 A3.44906
G1 X-2.742 Y8.511 A3.47625
G1 X-3.813 Y8.511 A3.50345
G1 X-4.876 Y8.377 A3.53064
G1 X-5.913 Y8.110 A3.55783
G1 X-6.908 Y7.716 A3.58503
G1 X-7.847 Y7.200 A3.61222
G1 X-8.713 Y6.571 A3.63942
G1 X-9.494 Y5.838 A3.66661
G1 X-9.750 Y5.529 A3.67679
G1 X-10.806 Y5.529 A3.70362
G1 X-10.806 Y4.471 A3.73046
G1 X-9.257 Y4.471 A3.76979
G1 X-8.592 Y5.276 A3.79630
G1 X-8.554 Y5.276 A3.79727
G1 X-8.041 Y5.758 A3.81514
G1 X-7.282 Y6.309 A3.83897
G1 X-6.459 Y6.761 A3.86280
G1 X-5.587 Y7.107 A3.88663
G1 X-4.678 Y7.340 A3.91046
G1 X-3.747 Y7.458 A3.93428
G1 X-2.808 Y7.458 A3.95811
G1 X-1.877 Y7.340 A3.98194
G1 X-0.969 Y7.107 A4.00577
G1 X-0.096 Y6.761 A4.02960
G1 X0.726 Y6.309 A4.05343
G1 X1.485 Y5.758 A4.07726
G1 X2.169 Y5.115 A4.10108
G1 X2.768 Y4.392 A4.12491
G1 X3.270 Y3.600 A4.14874
G1 X3.670 Y2.751 A4.17257
G1 X3.949 Y1.893 A4.19546
G1 X4.136 Y0.937 A4.22022
G1 X4.192 Y-0.037 A4.24498
G1 X4.136 Y-0.937 A4.26787
G1 X3.960 Y-1.858 A4.29170
G1 X3.670 Y-2.751 A4.31553
G1 X3.270 Y-3.600 A4.33936
G1 X2.768 Y-4.392 A4.36319
G1 X2.170 Y-5.115 A4.38702
G1 X1.485 Y-5.758 A4.41084
G1 X0.726 Y-6.309 A4.43467
G1 X-0.096 Y-6.761 A4.45850
G1 X-0.969 Y-7.107 A4.48233
G1 X-1.877 Y-7.340 A4.50616
G1 X-2.808 Y-7.458 A4.52999
G1 X-3.747 Y-7.458 A4.55382
G1 X-4.678 Y-7.340 A4.57764
G1 X-5.587 Y-7.107 A4.60147
G1 X-6.459 Y-6.761 A4.62530
G1 X-7.282 Y-6.309 A4.64913
G1 X-8.041 Y-5.758 A4.67296
G1 X-8.554 Y-5.276 A4.69083
G1 X-8.592 Y-5.276 A4.69180
G1 X-9.257 Y-4.471 A4.71831
G1 X-10.806 Y-4.471 A4.75764
G1 X-10.806 Y-5.529 A4.78448
G1 X-9.750 Y-5.529 A4.81131
G1 X-9.494 Y-5.838 A4.82149
G1 X-8.713 Y-6.571 A4.84868
G1 X-7.847 Y-7.200 A4.87588
G1 X-6.908 Y-7.716 A4.90307
G1 X-5.913 Y-8.110 A4.93026
G1 X-4.876 Y-8.377 A4.95746
G1 X-3.813 Y-8.511 A4.98465
G1 X-2.742 Y-8.511 A5.01185
G1 X-1.680 Y-8.377 A5.03904
G1 X-0.642 Y-8.110 A5.06623
G1 X0.353 Y-7.716 A5.09343
G1 X1.292 Y-7.200 A5.12062
G1 X2.158 Y-6.571 A5.14781
G1 X2.939 Y-5.838 A5.17501
G1 X3.621 Y-5.012 A5.20220
G1 X4.195 Y-4.108 A5.22939
G1 X4.651 Y-3.139 A5.25659
G1 X4.825 Y-2.604 A5.27089
G1 X8.194 Y-2.604 A5.35643
G1 X8.194 Y-4.529 A5.40531
G1 X10.851 Y-4.529 A5.47278
G1 X10.851 Y4.529 A5.70277
G1 X8.194 Y4.529 A5.77024
G1 X8.194 Y2.604 A5.81912
G1 X4.885 Y2.604 A5.90314
G1 X5.059 Y2.925 F4800.000
G1 X4.951 Y3.258 A5.91203 F840.000
G1 X4.477 Y4.263 A5.94025
G1 X3.882 Y5.202 A5.96847
G1 X3.174 Y6.058 A5.99669
G1 X2.363 Y6.819 A6.02491
G1 X1.464 Y7.472 A6.05313
G1 X0.490 Y8.007 A6.08135
G1 X-0.543 Y8.417 A6.10957
G1 X-1.619 Y8.693 A6.13779
G1 X-2.722 Y8.832 A6.16601
G1 X-3.833 Y8.832 A6.19423
G1 X-4.936 Y8.693 A6.22245
G1 X-6.012 Y8.417 A6.25067
G1 X-7.046 Y8.007 A6.27889
G1 X-8.020 Y7.472 A6.30711
G1 X-8.919 Y6.819 A6.33534
G1 X-9.729 Y6.058 A6.36356
G1 X-9.901 Y5.850 A6.37041
G1 X-11.128 Y5.850 A6.40156
G1 X-11.128 Y4.150 A6.44473
G1 X-9.106 Y4.150 A6.49606
G1 X-8.441 Y4.954 A6.52257
G1 X-7.835 Y5.509 A6.54343
G1 X-7.109 Y6.037 A6.56623
G1 X-6.322 Y6.470 A6.58903
G1 X-5.487 Y6.800 A6.61183
G1 X-4.617 Y7.024 A6.63463
G1 X-3.727 Y7.136 A6.65743
G1 X-2.829 Y7.136 A6.68024
G1 X-1.938 Y7.024 A6.70304
G1 X-1.068 Y6.800 A6.72584
G1 X-0.233 Y6.470 A6.74864
G1 X0.554 Y6.037 A6.77144
G1 X1.280 Y5.509 A6.79424
G1 X1.935 Y4.895 A6.81704
G1 X2.507 Y4.203 A6.83985
G1 X2.988 Y3.445 A6.86265
G1 X3.371 Y2.632 A6.88545
G1 X3.643 Y1.794 A6.90782
G1 X3.816 Y0.896 A6.93105
G1 X3.873 Y-0.000 A6.95385
G1 X3.816 Y-0.896 A6.97665
G1 X3.643 Y-1.794 A6.99987
G1 X3.371 Y-2.632 A7.02225
G1 X2.988 Y-3.445 A7.04505
G1 X2.507 Y-4.203 A7.06785
G1 X1.935 Y-4.895 A7.09066
G1 X1.280 Y-5.509 A7.11346
G1 X0.554 Y-6.037 A7.13626
G1 X-0.233 Y-6.470 A7.15906
G1 X-1.068 Y-6.800 A7.18186
G1 X-1.938 Y-7.024 A7.20466
G1 X-2.829 Y-7.136 A7.22746
G1 X-3.727 Y-7.136 A7.25027
G1 X-4.617 Y-7.024 A7.27307
G1 X-5.487 Y-6.800 A7.29587
G1 X-6.322 Y-6.470 A7.31867
G1 X-7.109 Y-6.037 A7.34147
G1 X-7.835 Y-5.509 A7.36427
G1 X-8.441 Y-4.954 A7.38513
G1 X-9.106 Y-4.150 A7.41163
G1 X-11.128 Y-4.150 A7.46297
G1 X-11.128 Y-5.850 A7.50614
G1 X-9.901 Y-5.850 A7.53729
G1 X-9.729 Y-6.058 A7.54414
G1 X-8.919 Y-6.819 A7.57236
G1 X-8.020 Y-7.472 A7.60058
G1 X-7.046 Y-8.007 A7.62881
G1 X-6.012 Y-8.417 A7.65703
G1 X-4.936 Y-8.693 A7.68525
G1 X-3.833 Y-8.832 A7.71347
G1 X-2.722 Y-8.832 A7.74169
G1 X-1.619 Y-8.693 A7.76991
G1 X-0.543 Y-8.417 A7.79813
G1 X0.490 Y-8.007 A7.82635
G1 X1.464 Y-7.472 A7.85457
G1 X2.363 Y-6.819 A7.88279
G1 X3.174 Y-6.058 A7.91101
G1 X3.882 Y-5.202 A7.93923
G1 X4.477 Y-4.263 A7.96745
G1 X4.951 Y-3.258 A7.99567
G1 X5.059 Y-2.925 A8.00456
G1 X7.872 Y-2.925 A8.07601
G1 X7.872 Y-4.850 A8.12489
G1 X11.172 Y-4.850 A8.20868
G1 X11.172 Y4.850 A8.45500
G1 X7.872 Y4.850 A8.53879
G1 X7.872 Y2.925 A8.58768
G1 X5.119 Y2.925 A8.65760
G1 X4.716 Y2.852 F4800.000
G1 X4.508 Y2.069 F4800.000
G1 X4.471 Y2.032 A8.65893 F1920.000
G1 X4.544 Y1.650 A8.66881
G1 X4.963 Y2.069 A8.68387
G1 X5.418 Y2.069 A8.69542
G1 X4.617 Y1.268 A8.72420
G1 X4.676 Y0.871 A8.73438
G1 X5.873 Y2.069 A8.77739
G1 X6.328 Y2.069 A8.78894
G1 X4.702 Y0.443 A8.84733
G1 X4.724 Y0.010 A8.85835
G1 X6.783 Y2.069 A8.93231
G1 X7.238 Y2.069 A8.94386
G1 X4.697 Y-0.472 A9.03513
G1 X4.670 Y-0.954 A9.04739
G1 X7.693 Y2.069 A9.15597
G1 X8.149 Y2.069 A9.16752
G1 X4.571 Y-1.509 A9.29600
G1 X4.487 Y-2.048 A9.30985
G1 X10.316 Y3.782 A9.51920
G1 X10.316 Y3.327 A9.53076
G1 X4.921 Y-2.069 A9.72453
G1 X5.376 Y-2.069 A9.73608
G1 X10.316 Y2.872 A9.91351
G1 X10.316 Y2.417 A9.92507
G1 X5.831 Y-2.069 A10.08616
G1 X6.286 Y-2.069 A10.09771
G1 X10.316 Y1.962 A10.24246
G1 X10.316 Y1.507 A10.25402
G1 X6.741 Y-2.069 A10.38242
G1 X7.196 Y-2.069 A10.39398
G1 X10.316 Y1.052 A10.50604
G1 X10.316 Y0.596 A10.51760
G1 X7.651 Y-2.069 A10.61332
G1 X8.106 Y-2.069 A10.62487
G1 X10.316 Y0.141 A10.70425
G1 X10.316 Y-0.314 A10.71581
G1 X8.561 Y-2.069 A10.77885
G1 X8.728 Y-2.357 A10.78730
G1 X10.316 Y-0.769 A10.84433
G1 X10.316 Y-1.224 A10.85589
G1 X8.728 Y-2.812 A10.91292
G1 X8.728 Y-3.267 A10.92447
G1 X10.316 Y-1.679 A10.98150
G1 X10.316 Y-2.134 A10.99306
G1 X8.728 Y-3.722 A11.05009
G1 X8.911 Y-3.994 A11.05841
G1 X10.316 Y-2.589 A11.10887
G1 X10.316 Y-3.044 A11.12043
G1 X9.366 Y-3.994 A11.15455
G1 X9.821 Y-3.994 A11.16610
G1 X10.316 Y-3.499 A11.18388
G1 X10.316 Y-3.954 A11.19544
G1 X10.276 Y-3.994 A11.19687
G1 X8.728 Y2.649 F4800.000
G1 X10.074 Y3.994 A11.24518 F1920.000
G1 X9.618 Y3.994 A11.25674
G1 X8.728 Y3.104 A11.28870
G1 X8.728 Y3.559 A11.30026
G1 X9.163 Y3.994 A11.31588
M106 S255
M104 S220 ; set temperature
G1 F3000.000 A10.71588
G92 A0
G1 Z0.400 F4800.000
G1 X8.722 Y2.075 F4800.000
G1 A0.60000 F3000.000
G1 X4.457 Y2.075 A0.73478 F3000.000
G1 X4.661 Y1.003 A0.76927
G1 X4.724 Y-0.000 A0.80102
G1 X4.661 Y-1.003 A0.83277
G1 X4.457 Y-2.075 A0.86726
G1 X8.722 Y-2.075 A1.00204
G1 X8.722 Y-4.000 A1.06286
G1 X10.322 Y-4.000 A1.11342
G1 X10.322 Y4.000 A1.36620
G1 X8.722 Y4.000 A1.41675
G1 X8.722 Y2.135 A1.47568
G1 X8.322 Y2.475 F4800.000
G1 X4.732 Y2.475 A1.58913 F3000.000
G1 X4.531 Y3.092 A1.60962
G1 X4.082 Y4.046 A1.64295
G1 X3.517 Y4.937 A1.67628
G1 X2.845 Y5.749 A1.70960
G1 X2.076 Y6.471 A1.74293
G1 X1.223 Y7.091 A1.77626
G1 X0.298 Y7.599 A1.80958
G1 X-0.682 Y7.988 A1.84291
G1 X-1.704 Y8.250 A1.87624
G1 X-2.750 Y8.382 A1.90956
G1 X-3.805 Y8.382 A1.94289
G1 X-4.851 Y8.250 A1.97622
G1 X-5.873 Y7.988 A2.00954
G1 X-6.854 Y7.599 A2.04287
G1 X-7.778 Y7.091 A2.07620
G1 X-8.631 Y6.471 A2.10952
G1 X-9.400 Y5.749 A2.14285
G1 X-9.689 Y5.400 A2.15718
G1 X-10.678 Y5.400 A2.18841
G1 X-10.678 Y4.600 A2.21369
G1 X-9.318 Y4.600 A2.25665
G1 X-8.819 Y5.203 A2.28140
G1 X-8.123 Y5.857 A2.31156
G1 X-7.351 Y6.418 A2.34172
G1 X-6.514 Y6.878 A2.37188
G1 X-5.627 Y7.229 A2.40204
G1 X-4.702 Y7.467 A2.43220
G1 X-3.755 Y7.586 A2.46236
G1 X-2.800 Y7.586 A2.49253
G1 X-1.853 Y7.467 A2.52269
G1 X-0.929 Y7.229 A2.55285
G1 X-0.041 Y6.878 A2.58301
G1 X0.795 Y6.418 A2.61317
G1 X1.568 Y5.857 A2.64333
G1 X2.263 Y5.203 A2.67350
G1 X2.872 Y4.468 A2.70366
G1 X3.383 Y3.662 A2.73382
G1 X3.790 Y2.798 A2.76398
G1 X4.085 Y1.890 A2.79414
G1 X4.264 Y0.953 A2.82430
G1 X4.324 Y-0.000 A2.85446
G1 X4.264 Y-0.953 A2.88463
G1 X4.085 Y-1.890 A2.91479
G1 X3.790 Y-2.798 A2.94495
G1 X3.383 Y-3.662 A2.97511
G1 X2.872 Y-4.468 A3.00527
G1 X2.263 Y-5.203 A3.03543
G1 X1.568 Y-5.857 A3.06560
G1 X0.795 Y-6.418 A3.09576
G1 X-0.041 Y-6.878 A3.12592
G1 X-0.929 Y-7.229 A3.15608
G1 X-1.853 Y-7.467 A3.18624
G1 X-2.800 Y-7.586 A3.21640
G1 X-3.755 Y-7.586 A3.24656
G1 X-4.702 Y-7.467 A3.27673
G1 X-5.627 Y-7.229 A3.30689
G1 X-6.514 Y-6.878 A3.33705
G1 X-7.351 Y-6.418 A3.36721
G1 X-8.123 Y-5.857 A3.39737
G1 X-8.819 Y-5.203 A3.42753
G1 X-9.318 Y-4.600 A3.45228
G1 X-10.678 Y-4.600 A3.49524
G1 X-10.678 Y-5.400 A3.52052
G1 X-9.689 Y-5.400 A3.55175
G1 X-9.400 Y-5.749 A3.56608
G1 X-8.631 Y-6.471 A3.59941
G1 X-7.778 Y-7.091 A3.63273
G1 X-6.854 Y-7.599 A3.66606
G1 X-5.873 Y-7.988 A3.69939
G1 X-4.851 Y-8.250 A3.73271
G1 X-3.805 Y-8.382 A3.76604
G1 X-2.750 Y-8.382 A3.79937
G1 X-1.704 Y-8.250 A3.83269
G1 X-0.682 Y-7.988 A3.86602
G1 X0.298 Y-7.599 A3.89935
G1 X1.223 Y-7.091 A3.93267
G1 X2.076 Y-6.471 A3.96600
G1 X2.845 Y-5.749 A3.99933
G1 X3.517 Y-4.937 A4.03265
G1 X4.082 Y-4.046 A4.06598
G1 X4.531 Y-3.092 A4.09931
G1 X4.732 Y-2.475 A4.11980
G1 X8.322 Y-2.475 A4.23325
G1 X8.322 Y-4.400 A4.29407
G1 X10.722 Y-4.400 A4.36991
G1 X10.722 Y4.400 A4.64796
G1 X8.322 Y4.400 A4.72379
G1 X8.322 Y2.535 A4.78272
G1 X7.922 Y2.875 F4800.000
G1 X5.022 Y2.875 A4.87435 F2100.000
G1 X4.904 Y3.239 A4.88646
G1 X4.434 Y4.239 A4.92138
G1 X3.841 Y5.172 A4.95629
G1 X3.137 Y6.024 A4.99121
G1 X2.331 Y6.780 A5.02613
G1 X1.437 Y7.430 A5.06104
G1 X0.469 Y7.962 A5.09596
G1 X-0.558 Y8.369 A5.13088
G1 X-1.629 Y8.644 A5.16579
G1 X-2.725 Y8.782 A5.20071
G1 X-3.830 Y8.782 A5.23563
G1 X-4.926 Y8.644 A5.27054
G1 X-5.997 Y8.369 A5.30546
G1 X-7.024 Y7.962 A5.34038
G1 X-7.993 Y7.430 A5.37529
G1 X-8.887 Y6.780 A5.41021
G1 X-9.692 Y6.024 A5.44513
G1 X-9.877 Y5.800 A5.45430
G1 X-11.078 Y5.800 A5.49223
G1 X-11.078 Y4.200 A5.54278
G1 X-9.130 Y4.200 A5.60434
G1 X-8.526 Y4.929 A5.63423
G1 X-7.867 Y5.548 A5.66280
G1 X-7.136 Y6.079 A5.69137
G1 X-6.343 Y6.515 A5.71994
G1 X-5.503 Y6.848 A5.74852
G1 X-4.627 Y7.073 A5.77709
G1 X-3.730 Y7.186 A5.80566
G1 X-2.825 Y7.186 A5.83423
G1 X-1.928 Y7.073 A5.86280
G1 X-1.053 Y6.848 A5.89137
G1 X-0.212 Y6.515 A5.91994
G1 X0.581 Y6.079 A5.94851
G1 X1.312 Y5.548 A5.97709
G1 X1.971 Y4.929 A6.00566
G1 X2.548 Y4.232 A6.03423
G1 X3.032 Y3.469 A6.06280
G1 X3.417 Y2.651 A6.09137
G1 X3.697 Y1.791 A6.11994
G1 X3.866 Y0.902 A6.14851
G1 X3.923 Y-0.000 A6.17708
G1 X3.866 Y-0.902 A6.20565
G1 X3.697 Y-1.791 A6.23423
G1 X3.417 Y-2.651 A6.26280
G1 X3.032 Y-3.469 A6.29137
G1 X2.548 Y-4.232 A6.31994
G1 X1.971 Y-4.929 A6.34851
G1 X1.312 Y-5.548 A6.37708
G1 X0.581 Y-6.079 A6.40565
G1 X-0.212 Y-6.515 A6.43422
G1 X-1.053 Y-6.848 A6.46280
G1 X-1.928 Y-7.073 A6.49137
G1 X-2.825 Y-7.186 A6.51994
G1 X-3.730 Y-7.186 A6.54851
G1 X-4.627 Y-7.073 A6.57708
G1 X-5.503 Y-6.848 A6.60565
G1 X-6.343 Y-6.515 A6.63422
G1 X-7.136 Y-6.079 A6.66279
G1 X-7.867 Y-5.548 A6.69136
G1 X-8.526 Y-4.929 A6.71994
G1 X-9.130 Y-4.200 A6.74983
G1 X-11.078 Y-4.200 A6.81138
G1 X-11.078 Y-5.800 A6.86194
G1 X-9.877 Y-5.800 A6.89986
G1 X-9.692 Y-6.024 A6.90904
G1 X-8.887 Y-6.780 A6.94396
G1 X-7.993 Y-7.430 A6.97887
G1 X-7.024 Y-7.962 A7.01379
G1 X-6.011 Y-8.363 A7.04821
G1 X-4.926 Y-8.644 A7.08362
G1 X-3.830 Y-8.782 A7.11854
G1 X-2.725 Y-8.782 A7.15345
G1 X-1.629 Y-8.644 A7.18837
G1 X-0.558 Y-8.369 A7.22329
G1 X0.469 Y-7.962 A7.25820
G1 X1.437 Y-7.430 A7.29312
G1 X2.331 Y-6.780 A7.32804
G1 X3.137 Y-6.024 A7.36295
G1 X3.841 Y-5.172 A7.39787
G1 X4.434 Y-4.239 A7.43279
G1 X4.904 Y-3.239 A7.46770
G1 X5.022 Y-2.875 A7.47981
G1 X7.922 Y-2.875 A7.57144
G1 X7.922 Y-4.800 A7.63226
G1 X11.122 Y-4.800 A7.73337
G1 X11.122 Y4.800 A8.03671
G1 X7.922 Y4.800 A8.13782
G1 X7.922 Y2.935 A8.19675
G1 X7.922 Y2.475 F4800.000
G1 X10.001 Y3.639 F4800.000
G1 X9.961 Y3.679 A8.19955 F4800.000
G1 X9.044 Y3.641 A8.24512
G1 X10.001 Y2.684 A8.31231
G1 X10.001 Y1.729 A8.35971
G1 X9.044 Y2.686 A8.42690
G1 X9.021 Y1.754 A8.47320
G1 X10.001 Y0.774 A8.54197
G1 X10.001 Y-0.181 A8.58936
G1 X8.066 Y1.754 A8.72515
G1 X7.112 Y1.754 A8.77255
G1 X10.001 Y-1.136 A8.97537
G1 X10.001 Y-2.091 A9.02276
G1 X6.157 Y1.754 A9.29261
G1 X5.202 Y1.754 A9.34000
G1 X10.001 Y-3.046 A9.67687
G1 X9.679 Y-3.679 A9.71212
G1 X9.044 Y-3.043 A9.75672
G1 X7.754 Y-1.754 F4800.000
G1 X4.982 Y1.018 A9.95127 F4800.000
G1 X5.046 Y-0.001 A10.00194
G1 X6.799 Y-1.754 A10.12498
G1 X5.844 Y-1.754 A10.17237
G1 X4.990 Y-0.899 A10.23235
G1 X4.852 Y-1.717 A10.27349
G1 X4.889 Y-1.754 A10.27610
G1 X4.378 Y2.275 F4800.000
G1 X4.160 Y2.945 A10.28961 F2400.000
G1 X3.738 Y3.843 A10.30865
G1 X3.194 Y4.702 A10.32817
G1 X2.554 Y5.476 A10.34745
G1 X1.822 Y6.164 A10.36672
G1 X1.009 Y6.754 A10.38600
G1 X0.129 Y7.238 A10.40528
G1 X-0.806 Y7.608 A10.42456
G1 X-1.779 Y7.858 A10.44383
G1 X-2.775 Y7.984 A10.46311
G1 X-3.780 Y7.984 A10.48239
G1 X-4.777 Y7.858 A10.50167
G1 X-5.750 Y7.608 A10.52095
G1 X-6.684 Y7.238 A10.54022
G1 X-7.564 Y6.754 A10.55950
G1 X-8.377 Y6.164 A10.57878
G1 X-9.109 Y5.476 A10.59806
G1 X-9.510 Y5.009 A10.60987
G1 X-10.478 Y5.000 A10.62844
G1 F3000.000 A10.02844
G92 A0
G1 X-9.338 Y-5.200 F4800.000
G1 A0.60000 F3000.000
G1 X-9.109 Y-5.476 A0.60688 F2400.000
G1 X-8.377 Y-6.164 A0.62616
G1 X-7.564 Y-6.754 A0.64544
G1 X-6.684 Y-7.238 A0.66472
G1 X-5.750 Y-7.608 A0.68399
G1 X-4.777 Y-7.858 A0.70327
G1 X-3.780 Y-7.984 A0.72255
G1 X-2.775 Y-7.984 A0.74183
G1 X-1.779 Y-7.858 A0.76110
G1 X-0.806 Y-7.608 A0.78038
G1 X0.129 Y-7.238 A0.79966
G1 X1.009 Y-6.754 A0.81894
G1 X1.822 Y-6.164 A0.83821
G1 X2.554 Y-5.476 A0.85749
G1 X3.194 Y-4.702 A0.87677
G1 X3.738 Y-3.843 A0.89629
G1 X4.160 Y-2.945 A0.91532
G1 X4.378 Y-2.275 A0.92884
G1 F3000.000 A0.32884
G92 A0
G1 Z0.600 F4800.000
G1 X8.722 Y2.075 F4800.000
G1 A0.60000 F3000.000
G1 X4.457 Y2.075 A0.73478 F3000.000
G1 X4.661 Y1.003 A0.76927
G1 X4.724 Y-0.000 A0.80102
G1 X4.661 Y-1.003 A0.83277
G1 X4.457 Y-2.075 A0.86726
G1 X8.722 Y-2.075 A1.00204
G1 X8.722 Y-4.000 A1.06286
G1 X10.322 Y-4.000 A1.11342
G1 X10.322 Y4.000 A1.36620
G1 X8.722 Y4.000 A1.41675
G1 X8.722 Y2.135 A1.47568
G1 X8.322 Y2.475 F4800.000
G1 X4.732 Y2.475 A1.58913 F3000.000
G1 X4.531 Y3.092 A1.60962
G1 X4.082 Y4.046 A1.64295
G1 X3.517 Y4.937 A1.67628
G1 X2.845 Y5.749 A1.70960
G1 X2.076 Y6.471 A1.74293
G1 X1.223 Y7.091 A1.77626
G1 X0.298 Y7.599 A1.80958
G1 X-0.682 Y7.988 A1.84291
G1 X-1.704 Y8.250 A1.87624
G1 X-2.750 Y8.382 A1.90956
G1 X-3.805 Y8.382 A1.94289
G1 X-4.851 Y8.250 A1.97622
G1 X-5.873 Y7.988 A2.00954
G1 X-6.854 Y7.599 A2.04287
G1 X-7.778 Y7.091 A2.07619
G1 X-8.631 Y6.471 A2.10952
G1 X-9.400 Y5.749 A2.14285
G1 X-9.689 Y5.400 A2.15718
G1 X-10.678 Y5.400 A2.18841
G1 X-10.678 Y4.600 A2.21369
G1 X-9.318 Y4.600 A2.25665
G1 X-8.819 Y5.203 A2.28140
G1 X-8.123 Y5.857 A2.31156
G1 X-7.351 Y6.418 A2.34172
G1 X-6.514 Y6.878 A2.37188
G1 X-5.627 Y7.229 A2.40204
G1 X-4.702 Y7.467 A2.43220
G1 X-3.755 Y7.586 A2.46236
G1 X-2.800 Y7.586 A2.49253
G1 X-1.853 Y7.467 A2.52269
G1 X-0.929 Y7.229 A2.55285
G1 X-0.041 Y6.878 A2.58301
G1 X0.795 Y6.418 A2.61317
G1 X1.568 Y5.857 A2.64333
G1 X2.263 Y5.203 A2.67350
G1 X2.872 Y4.468 A2.70366
G1 X3.383 Y3.662 A2.73382
G1 X3.790 Y2.798 A2.76398
G1 X4.085 Y1.890 A2.79414
G1 X4.264 Y0.953 A2.82430
G1 X4.324 Y-0.000 A2.85446
G1 X4.264 Y-0.953 A2.88463
G1 X4.085 Y-1.890 A2.91479
G1 X3.790 Y-2.798 A2.94495
G1 X3.383 Y-3.662 A2.97511
G1 X2.872 Y-4.468 A3.00527
G1 X2.263 Y-5.203 A3.03543
G1 X1.568 Y-5.857 A3.06559
G1 X0.795 Y-6.418 A3.09576
G1 X-0.041 Y-6.878 A3.12592
G1 X-0.929 Y-7.229 A3.15608
G1 X-1.853 Y-7.467 A3.18624
G1 X-2.800 Y-7.586 A3.21640
G1 X-3.755 Y-7.586 A3.24656
G1 X-4.702 Y-7.467 A3.27673
G1 X-5.696 Y-7.202 A3.30922
G1 X-6.514 Y-6.878 A3.33703
G1 X-7.351 Y-6.418 A3.36719
G1 X-8.123 Y-5.857 A3.39735
G1 X-8.819 Y-5.203 A3.42752
G1 X-9.318 Y-4.600 A3.45226
G1 X-10.678 Y-4.600 A3.49523
G1 X-10.678 Y-5.400 A3.52050
G1 X-9.689 Y-5.400 A3.55174
G1 X-9.400 Y-5.749 A3.56606
G1 X-8.631 Y-6.471 A3.59939
G1 X-7.778 Y-7.091 A3.63272
G1 X-6.854 Y-7.599 A3.66604
G1 X-5.873 Y-7.988 A3.69937
G1 X-4.851 Y-8.250 A3.73270
G1 X-3.805 Y-8.382 A3.76602
G1 X-2.750 Y-8.382 A3.79935
G1 X-1.704 Y-8.250 A3.83268
G1 X-0.682 Y-7.988 A3.86600
G1 X0.298 Y-7.599 A3.89933
G1 X1.223 Y-7.091 A3.93266
G1 X2.076 Y-6.471 A3.96598
G1 X2.845 Y-5.749 A3.99931
G1 X3.517 Y-4.937 A4.03263
G1 X4.082 Y-4.046 A4.06596
G1 X4.531 Y-3.092 A4.09929
G1 X4.732 Y-2.475 A4.11978
G1 X8.322 Y-2.475 A4.23323
G1 X8.322 Y-4.400 A4.29406
G1 X10.722 Y-4.400 A4.36989
G1 X10.722 Y4.400 A4.64794
G1 X8.322 Y4.400 A4.72378
G1 X8.322 Y2.535 A4.78271
G1 X7.922 Y2.875 F4800.000
G1 X5.022 Y2.875 A4.87434 F2100.000
G1 X4.904 Y3.239 A4.88644
G1 X4.434 Y4.239 A4.92136
G1 X3.841 Y5.172 A4.95627
G1 X3.137 Y6.024 A4.99119
G1 X2.331 Y6.780 A5.02611
G1 X1.437 Y7.430 A5.06103
G1 X0.469 Y7.962 A5.09594
G1 X-0.558 Y8.369 A5.13086
G1 X-1.629 Y8.644 A5.16578
G1 X-2.725 Y8.782 A5.20069
G1 X-3.830 Y8.782 A5.23561
G1 X-4.926 Y8.644 A5.27053
G1 X-5.997 Y8.369 A5.30544
G1 X-7.024 Y7.962 A5.34036
G1 X-7.993 Y7.430 A5.37528
G1 X-8.887 Y6.780 A5.41019
G1 X-9.692 Y6.024 A5.44511
G1 X-9.877 Y5.800 A5.45429
G1 X-11.078 Y5.800 A5.49221
G1 X-11.078 Y4.200 A5.54277
G1 X-9.130 Y4.200 A5.60432
G1 X-8.526 Y4.929 A5.63421
G1 X-7.867 Y5.548 A5.66278
G1 X-7.136 Y6.079 A5.69136
G1 X-6.343 Y6.515 A5.71993
G1 X-5.503 Y6.848 A5.74850
G1 X-4.627 Y7.073 A5.77707
G1 X-3.730 Y7.186 A5.80564
G1 X-2.825 Y7.186 A5.83421
G1 X-1.928 Y7.073 A5.86278
G1 X-1.053 Y6.848 A5.89135
G1 X-0.212 Y6.515 A5.91993
G1 X0.581 Y6.079 A5.94850
G1 X1.312 Y5.548 A5.97707
G1 X1.971 Y4.929 A6.00564
G1 X2.548 Y4.232 A6.03421
G1 X3.032 Y3.469 A6.06278
G1 X3.417 Y2.651 A6.09135
G1 X3.697 Y1.791 A6.11992
G1 X3.866 Y0.902 A6.14849
G1 X3.923 Y-0.000 A6.17707
G1 X3.866 Y-0.902 A6.20564
G1 X3.697 Y-1.791 A6.23421
G1 X3.417 Y-2.651 A6.26278
G1 X3.032 Y-3.469 A6.29135
G1 X2.548 Y-4.232 A6.31992
G1 X1.971 Y-4.929 A6.34849
G1 X1.312 Y-5.548 A6.37706
G1 X0.581 Y-6.079 A6.40564
G1 X-0.212 Y-6.515 A6.43421
G1 X-1.053 Y-6.848 A6.46278
G1 X-1.928 Y-7.073 A6.49135
G1 X-2.825 Y-7.186 A6.51992
G1 X-3.730 Y-7.186 A6.54849
G1 X-4.627 Y-7.073 A6.57706
G1 X-5.548 Y-6.830 A6.60718
G1 X-6.343 Y-6.515 A6.63419
G1 X-7.136 Y-6.079 A6.66276
G1 X-7.867 Y-5.548 A6.69134
G1 X-8.526 Y-4.929 A6.71991
G1 X-9.130 Y-4.200 A6.74980
G1 X-11.078 Y-4.200 A6.81135
G1 X-11.078 Y-5.800 A6.86191
G1 X-9.877 Y-5.800 A6.89983
G1 X-9.692 Y-6.024 A6.90901
G1 X-8.887 Y-6.780 A6.94393
G1 X-7.993 Y-7.430 A6.97884
G1 X-7.024 Y-7.962 A7.01376
G1 X-5.997 Y-8.369 A7.04868
G1 X-4.760 Y-8.686 A7.08902
G1 X-4.760 Y-8.665 A7.08971
G1 X-3.830 Y-8.782 A7.11933
G1 X-2.725 Y-8.782 A7.15424
G1 X-1.629 Y-8.644 A7.18916
G1 X-0.558 Y-8.369 A7.22408
G1 X0.469 Y-7.962 A7.25899
G1 X1.437 Y-7.430 A7.29391
G1 X2.331 Y-6.780 A7.32883
G1 X3.137 Y-6.024 A7.36374
G1 X3.841 Y-5.172 A7.39866
G1 X4.434 Y-4.239 A7.43358
G1 X4.904 Y-3.239 A7.46849
G1 X5.022 Y-2.875 A7.48060
G1 X7.922 Y-2.875 A7.57223
G1 X7.922 Y-4.800 A7.63305
G1 X11.122 Y-4.800 A7.73416
G1 X11.122 Y4.800 A8.03750
G1 X7.922 Y4.800 A8.13861
G1 X7.922 Y2.935 A8.19754
G1 X7.922 Y2.475 F4800.000
G1 X9.044 Y3.043 F4800.000
G1 X9.679 Y3.679 A8.24213 F4800.000
G1 X4.852 Y1.717 F4800.000
G1 X4.889 Y1.754 A8.24474 F4800.000
G1 X5.844 Y1.754 A8.29213
G1 X4.990 Y0.899 A8.35211
G1 X5.046 Y0.001 A8.39679
G1 X6.799 Y1.754 A8.51982
G1 X7.754 Y1.754 A8.56722
G1 X4.982 Y-1.018 A8.76177
G1 X5.202 Y-1.754 A8.79987
G1 X10.001 Y3.046 A9.13674
G1 X10.001 Y2.091 A9.18413
G1 X6.157 Y-1.754 A9.45398
G1 X7.112 Y-1.754 A9.50137
G1 X10.001 Y1.136 A9.70419
G1 X10.001 Y0.181 A9.75159
G1 X8.066 Y-1.754 A9.88738
G1 X9.021 Y-1.754 A9.93478
G1 X10.001 Y-0.774 A10.00354
G1 X10.001 Y-1.729 A10.05094
G1 X9.044 Y-2.686 A10.11813
G1 X9.044 Y-3.641 A10.16553
G1 X10.001 Y-2.684 A10.23272
G1 X10.001 Y-3.639 A10.28011
G1 X9.961 Y-3.679 A10.28292
G1 X4.378 Y2.275 F4800.000
G1 X4.160 Y2.945 A10.29644 F2400.000
G1 X3.738 Y3.843 A10.31548
G1 X3.194 Y4.702 A10.33499
G1 X2.554 Y5.476 A10.35427
G1 X1.822 Y6.164 A10.37355
G1 X1.009 Y6.754 A10.39283
G1 X0.129 Y7.238 A10.41210
G1 X-0.806 Y7.608 A10.43138
G1 X-1.779 Y7.858 A10.45066
G1 X-2.775 Y7.984 A10.46994
G1 X-3.780 Y7.984 A10.48922
G1 X-4.777 Y7.858 A10.50849
G1 X-5.750 Y7.608 A10.52777
G1 X-6.684 Y7.238 A10.54705
G1 X-7.564 Y6.754 A10.56633
G1 X-8.377 Y6.164 A10.58560
G1 X-9.109 Y5.476 A10.60488
G1 X-9.510 Y5.009 A10.61670
G1 X-10.478 Y5.000 A10.63526
G1 F3000.000 A10.03526
G92 A0
G1 X-9.338 Y-5.200 F4800.000
G1 A0.60000 F3000.000
G1 X-9.109 Y-5.476 A0.60688 F2400.000
G1 X-8.377 Y-6.164 A0.62616
G1 X-7.564 Y-6.754 A0.64544
G1 X-6.684 Y-7.238 A0.66472
G1 X-5.750 Y-7.608 A0.68399
G1 X-4.777 Y-7.858 A0.70327
G1 X-3.780 Y-7.984 A0.72255
G1 X-2.775 Y-7.984 A0.74183
G1 X-1.779 Y-7.858 A0.76110
G1 X-0.806 Y-7.608 A0.78038
G1 X0.129 Y-7.238 A0.79966
G1 X1.009 Y-6.754 A0.81894
G1 X1.822 Y-6.164 A0.83821
G1 X2.554 Y-5.476 A0.85749
G1 X3.194 Y-4.702 A0.87677
G1 X3.738 Y-3.843 A0.89628
G1 X4.160 Y-2.945 A0.91532
G1 X4.378 Y-2.275 A0.92884
G1 F3000.000 A0.32884
G92 A0
G1 Z0.800 F4800.000
G1 X8.722 Y2.075 F4800.000
G1 A0.60000 F3000.000
G1 X4.457 Y2.075 A0.73478 F3000.000
G1 X4.661 Y1.003 A0.76927
G1 X4.724 Y-0.000 A0.80102
G1 X4.661 Y-1.003 A0.83277
G1 X4.457 Y-2.075 A0.86726
G1 X8.722 Y-2.075 A1.00204
G1 X8.722 Y-4.000 A1.06286
G1 X10.322 Y-4.000 A1.11342
G1 X10.322 Y4.000 A1.36620
G1 X8.722 Y4.000 A1.41675
G1 X8.722 Y2.135 A1.47568
G1 X8.322 Y2.475 F4800.000
G1 X4.732 Y2.475 A1.58913 F3000.000
G1 X4.531 Y3.092 A1.60962
G1 X4.082 Y4.046 A1.64295
G1 X3.517 Y4.937 A1.67628
G1 X2.845 Y5.749 A1.70960
G1 X2.076 Y6.471 A1.74293
G1 X1.223 Y7.091 A1.77626
G1 X0.298 Y7.599 A1.80958
G1 X-0.682 Y7.988 A1.84291
G1 X-1.704 Y8.250 A1.87624
G1 X-2.750 Y8.382 A1.90956
G1 X-3.805 Y8.382 A1.94289
G1 X-4.851 Y8.250 A1.97622
G1 X-5.873 Y7.988 A2.00954
G1 X-6.854 Y7.599 A2.04287
G1 X-7.778 Y7.091 A2.07619
G1 X-8.631 Y6.471 A2.10952
G1 X-9.400 Y5.749 A2.14285
G1 X-9.689 Y5.400 A2.15718
G1 X-10.678 Y5.400 A2.18841
G1 X-10.678 Y4.600 A2.21369
G1 X-9.318 Y4.600 A2.25665
G1 X-8.819 Y5.203 A2.28140
G1 X-8.123 Y5.857 A2.31156
G1 X-7.351 Y6.418 A2.34172
G1 X-6.514 Y6.878 A2.37188
G1 X-5.627 Y7.229 A2.40204
G1 X-4.702 Y7.467 A2.43220
G1 X-3.755 Y7.586 A2.46236
G1 X-2.800 Y7.586 A2.49253
G1 X-1.853 Y7.467 A2.52269
G1 X-0.929 Y7.229 A2.55285
G1 X-0.041 Y6.878 A2.58301
G1 X0.795 Y6.418 A2.61317
G1 X1.568 Y5.857 A2.64333
G1 X2.263 Y5.203 A2.67350
G1 X2.872 Y4.468 A2.70366
G1 X3.383 Y3.662 A2.73382
G1 X3.790 Y2.798 A2.76398
G1 X4.085 Y1.890 A2.79414
G1 X4.264 Y0.953 A2.82430
G1 X4.324 Y-0.000 A2.85446
G1 X4.264 Y-0.953 A2.88463
G1 X4.085 Y-1.890 A2.91479
G1 X3.790 Y-2.798 A2.94495
G1 X3.383 Y-3.662 A2.97511
G1 X2.872 Y-4.468 A3.00527
G1 X2.263 Y-5.203 A3.03543
G1 X1.568 Y-5.857 A3.06559
G1 X0.795 Y-6.418 A3.09576
G1 X-0.041 Y-6.878 A3.12592
G1 X-0.929 Y-7.229 A3.15608
G1 X-1.853 Y-7.467 A3.18624
G1 X-2.800 Y-7.586 A3.21640
G1 X-3.755 Y-7.586 A3.24656
G1 X-4.702 Y-7.467 A3.27673
G1 X-5.627 Y-7.229 A3.30689
G1 X-6.514 Y-6.878 A3.33705
G1 X-7.351 Y-6.418 A3.36721
G1 X-8.123 Y-5.857 A3.39737
G1 X-8.819 Y-5.203 A3.42753
G1 X-9.318 Y-4.600 A3.45228
G1 X-10.678 Y-4.600 A3.49524
G1 X-10.678 Y-5.400 A3.52052
G1 X-9.689 Y-5.400 A3.55175
G1 X-9.400 Y-5.749 A3.56608
G1 X-8.631 Y-6.471 A3.59941
G1 X-7.778 Y-7.091 A3.63273
G1 X-6.854 Y-7.599 A3.66606
G1 X-5.873 Y-7.988 A3.69939
G1 X-4.851 Y-8.250 A3.73271
G1 X-3.805 Y-8.382 A3.76604
G1 X-2.750 Y-8.382 A3.79937
G1 X-1.704 Y-8.250 A3.83269
G1 X-0.682 Y-7.988 A3.86602
G1 X0.298 Y-7.599 A3.89935
G1 X1.223 Y-7.091 A3.93267
G1 X2.076 Y-6.471 A3.96600
G1 X2.845 Y-5.749 A3.99933
G1 X3.517 Y-4.937 A4.03265
G1 X4.082 Y-4.046 A4.06598
G1 X4.531 Y-3.092 A4.09930
G1 X4.732 Y-2.475 A4.11980
G1 X8.322 Y-2.475 A4.23325
G1 X8.322 Y-4.400 A4.29407
G1 X10.722 Y-4.400 A4.36991
G1 X10.722 Y4.400 A4.64796
G1 X8.322 Y4.400 A4.72379
G1 X8.322 Y2.535 A4.78272
G1 X7.922 Y2.875 F4800.000
G1 X5.022 Y2.875 A4.87435 F2100.000
G1 X4.904 Y3.239 A4.88646
G1 X4.434 Y4.239 A4.92138
G1 X3.841 Y5.172 A4.95629
G1 X3.137 Y6.024 A4.99121
G1 X2.331 Y6.780 A5.02613
G1 X1.437 Y7.430 A5.06104
G1 X0.469 Y7.962 A5.09596
G1 X-0.558 Y8.369 A5.13088
G1 X-1.629 Y8.644 A5.16579
G1 X-2.725 Y8.782 A5.20071
G1 X-3.830 Y8.782 A5.23563
G1 X-4.926 Y8.644 A5.27054
G1 X-5.997 Y8.369 A5.30546
G1 X-7.024 Y7.962 A5.34038
G1 X-7.993 Y7.430 A5.37529
G1 X-8.887 Y6.780 A5.41021
G1 X-9.692 Y6.024 A5.44513
G1 X-9.877 Y5.800 A5.45430
G1 X-11.078 Y5.800 A5.49223
G1 X-11.078 Y4.200 A5.54278
G1 X-9.130 Y4.200 A5.60434
G1 X-8.526 Y4.929 A5.63423
G1 X-7.867 Y5.548 A5.66280
G1 X-7.136 Y6.079 A5.69137
G1 X-6.343 Y6.515 A5.71994
G1 X-5.503 Y6.848 A5.74852
G1 X-4.627 Y7.073 A5.77709
G1 X-3.730 Y7.186 A5.80566
G1 X-2.825 Y7.186 A5.83423
G1 X-1.928 Y7.073 A5.86280
G1 X-1.053 Y6.848 A5.89137
G1 X-0.212 Y6.515 A5.91994
G1 X0.581 Y6.079 A5.94851
G1 X1.312 Y5.548 A5.97709
G1 X1.971 Y4.929 A6.00566
G1 X2.548 Y4.232 A6.03423
G1 X3.032 Y3.469 A6.06280
G1 X3.417 Y2.651 A6.09137
G1 X3.697 Y1.791 A6.11994
G1 X3.866 Y0.902 A6.14851
G1 X3.923 Y-0.000 A6.17708
G1 X3.866 Y-0.902 A6.20565
G1 X3.697 Y-1.791 A6.23423
G1 X3.417 Y-2.651 A6.26280
G1 X3.032 Y-3.469 A6.29137
G1 X2.548 Y-4.232 A6.31994
G1 X1.971 Y-4.929 A6.34851
G1 X1.312 Y-5.548 A6.37708
G1 X0.581 Y-6.079 A6.40565
G1 X-0.212 Y-6.515 A6.43422
G1 X-1.053 Y-6.848 A6.46279
G1 X-1.928 Y-7.073 A6.49137
G1 X-2.825 Y-7.186 A6.51994
G1 X-3.730 Y-7.186 A6.54851
G1 X-4.627 Y-7.073 A6.57708
G1 X-5.503 Y-6.848 A6.60565
G1 X-6.343 Y-6.515 A6.63422
G1 X-7.136 Y-6.079 A6.66279
G1 X-7.867 Y-5.548 A6.69136
G1 X-8.526 Y-4.929 A6.71994
G1 X-9.130 Y-4.200 A6.74983
G1 X-11.078 Y-4.200 A6.81138
G1 X-11.078 Y-5.800 A6.86194
G1 X-9.877 Y-5.800 A6.89986
G1 X-9.692 Y-6.024 A6.90904
G1 X-8.887 Y-6.780 A6.94396
G1 X-7.993 Y-7.430 A6.97887
G1 X-7.024 Y-7.962 A7.01379
G1 X-6.015 Y-8.362 A7.04809
G1 X-4.926 Y-8.644 A7.08362
G1 X-3.830 Y-8.782 A7.11854
G1 X-2.725 Y-8.782 A7.15345
G1 X-1.629 Y-8.644 A7.18837
G1 X-0.558 Y-8.369 A7.22329
G1 X0.469 Y-7.962 A7.25820
G1 X1.437 Y-7.430 A7.29312
G1 X2.331 Y-6.780 A7.32804
G1 X3.137 Y-6.024 A7.36295
G1 X3.841 Y-5.172 A7.39787
G1 X4.434 Y-4.239 A7.43279
G1 X4.904 Y-3.239 A7.46770
G1 X5.022 Y-2.875 A7.47981
G1 X7.922 Y-2.875 A7.57144
G1 X7.922 Y-4.800 A7.63226
G1 X11.122 Y-4.800 A7.73337
G1 X11.122 Y4.800 A8.03671
G1 X7.922 Y4.800 A8.13782
G1 X7.922 Y2.935 A8.19675
G1 X7.922 Y2.475 F4800.000
G1 X10.001 Y3.639 F4800.000
G1 X9.961 Y3.679 A8.19955 F4800.000
G1 X9.044 Y3.641 A8.24512
G1 X10.001 Y2.684 A8.31231
G1 X10.001 Y1.729 A8.35971
G1 X9.044 Y2.686 A8.42690
G1 X9.021 Y1.754 A8.47319
G1 X10.001 Y0.774 A8.54196
G1 X10.001 Y-0.181 A8.58935
G1 X8.066 Y1.754 A8.72515
G1 X7.112 Y1.754 A8.77254
G1 X10.001 Y-1.136 A8.97536
G1 X10.001 Y-2.091 A9.02275
G1 X6.157 Y1.754 A9.29260
G1 X5.202 Y1.754 A9.33999
G1 X10.001 Y-3.046 A9.67686
G1 X9.679 Y-3.679 A9.71211
G1 X9.044 Y-3.043 A9.75670
G1 X7.754 Y-1.754 F4800.000
G1 X4.982 Y1.018 A9.95126 F4800.000
G1 X5.046 Y-0.001 A10.00193
G1 X6.799 Y-1.754 A10.12497
G1 X5.844 Y-1.754 A10.17236
G1 X4.990 Y-0.899 A10.23234
G1 X4.852 Y-1.717 A10.27348
G1 X4.889 Y-1.754 A10.27608
G1 X4.378 Y2.275 F4800.000
G1 X4.160 Y2.945 A10.28960 F2400.000
G1 X3.738 Y3.843 A10.30864
G1 X3.194 Y4.702 A10.32815
G1 X2.554 Y5.476 A10.34743
G1 X1.822 Y6.164 A10.36671
G1 X1.009 Y6.754 A10.38599
G1 X0.129 Y7.238 A10.40526
G1 X-0.806 Y7.608 A10.42454
G1 X-1.779 Y7.858 A10.44382
G1 X-2.775 Y7.984 A10.46310
G1 X-3.780 Y7.984 A10.48237
G1 X-4.777 Y7.858 A10.50165
G1 X-5.750 Y7.608 A10.52093
G1 X-6.684 Y7.238 A10.54021
G1 X-7.567 Y6.753 A10.55955
G1 X-8.379 Y6.162 A10.57882
G1 X-9.109 Y5.476 A10.59804
G1 X-9.510 Y5.009 A10.60986
G1 X-10.478 Y5.000 A10.62842
G1 F3000.000 A10.02842
G92 A0
G1 X-9.338 Y-5.200 F4800.000
G1 A0.60000 F3000.000
G1 X-9.109 Y-5.476 A0.60688 F2400.000
G1 X-8.377 Y-6.164 A0.62616
G1 X-7.564 Y-6.754 A0.64544
G1 X-6.684 Y-7.238 A0.66472
G1 X-5.750 Y-7.608 A0.68399
G1 X-4.777 Y-7.858 A0.70327
G1 X-3.780 Y-7.984 A0.72255
G1 X-2.775 Y-7.984 A0.74183
G1 X-1.779 Y-7.858 A0.76110
G1 X-0.806 Y-7.608 A0.78038
G1 X0.129 Y-7.238 A0.79966
G1 X1.009 Y-6.754 A0.81894
G1 X1.822 Y-6.164 A0.83821
G1 X2.554 Y-5.476 A0.85749
G1 X3.194 Y-4.702 A0.87677
G1 X3.738 Y-3.843 A0.89629
G1 X4.160 Y-2.945 A0.91532
G1 X4.378 Y-2.275 A0.92884
G1 F3000.000 A0.32884
G92 A0
G1 Z1.000 F4800.000
G1 X8.722 Y2.075 F4800.000
G1 A0.60000 F3000.000
G1 X4.457 Y2.075 A0.73478 F3000.000
G1 X4.661 Y1.003 A0.76927
G1 X4.724 Y-0.000 A0.80102
G1 X4.661 Y-1.003 A0.83277
G1 X4.457 Y-2.075 A0.86726
G1 X8.722 Y-2.075 A1.00204
G1 X8.722 Y-4.000 A1.06286
G1 X10.322 Y-4.000 A1.11342
G1 X10.322 Y4.000 A1.36620
G1 X8.722 Y4.000 A1.41675
G1 X8.722 Y2.135 A1.47568
G1 X8.322 Y2.475 F4800.000
G1 X4.732 Y2.475 A1.58913 F3000.000
G1 X4.531 Y3.092 A1.60962
G1 X4.082 Y4.046 A1.64295
G1 X3.517 Y4.937 A1.67628
G1 X2.845 Y5.749 A1.70960
G1 X2.076 Y6.471 A1.74293
G1 X1.223 Y7.091 A1.77626
G1 X0.298 Y7.599 A1.80958
G1 X-0.682 Y7.988 A1.84291
G1 X-1.704 Y8.250 A1.87624
G1 X-2.750 Y8.382 A1.90956
G1 X-3.805 Y8.382 A1.94289
G1 X-4.851 Y8.250 A1.97622
G1 X-5.873 Y7.988 A2.00954
G1 X-6.854 Y7.599 A2.04287
G1 X-7.778 Y7.091 A2.07619
G1 X-8.631 Y6.471 A2.10952
G1 X-9.400 Y5.749 A2.14285
G1 X-9.689 Y5.400 A2.15718
G1 X-10.678 Y5.400 A2.18841
G1 X-10.678 Y4.600 A2.21369
G1 X-9.318 Y4.600 A2.25665
G1 X-8.819 Y5.203 A2.28140
G1 X-7.104 Y6.814 A2.35573
G1 X-7.104 Y6.554 A2.36396
G1 X-6.514 Y6.878 A2.38522
G1 X-5.627 Y7.229 A2.41538
G1 X-4.702 Y7.467 A2.44554
G1 X-3.755 Y7.586 A2.47570
G1 X-2.800 Y7.586 A2.50586
G1 X-1.853 Y7.467 A2.53602
G1 X-0.929 Y7.229 A2.56618
G1 X-0.041 Y6.878 A2.59635
G1 X0.795 Y6.418 A2.62651
G1 X1.568 Y5.857 A2.65667
G1 X2.263 Y5.203 A2.68683
G1 X2.872 Y4.468 A2.71699
G1 X3.383 Y3.662 A2.74715
G1 X3.790 Y2.798 A2.77732
G1 X4.085 Y1.890 A2.80748
G1 X4.264 Y0.953 A2.83764
G1 X4.324 Y-0.000 A2.86780
G1 X4.264 Y-0.953 A2.89796
G1 X4.085 Y-1.890 A2.92812
G1 X3.790 Y-2.798 A2.95828
G1 X3.383 Y-3.662 A2.98845
G1 X2.872 Y-4.468 A3.01861
G1 X2.263 Y-5.203 A3.04877
G1 X1.568 Y-5.857 A3.07893
G1 X0.795 Y-6.418 A3.10909
G1 X-0.041 Y-6.878 A3.13925
G1 X-0.929 Y-7.229 A3.16941
G1 X-1.853 Y-7.467 A3.19958
G1 X-2.800 Y-7.586 A3.22974
G1 X-3.755 Y-7.586 A3.25990
G1 X-4.702 Y-7.467 A3.29006
G1 X-5.627 Y-7.229 A3.32022
G1 X-6.514 Y-6.878 A3.35038
G1 X-7.104 Y-6.554 A3.37164
G1 X-7.104 Y-6.814 A3.37986
G1 X-8.819 Y-5.203 A3.45420
G1 X-9.318 Y-4.600 A3.47895
G1 X-10.678 Y-4.600 A3.52191
G1 X-10.678 Y-5.400 A3.54719
G1 X-9.689 Y-5.400 A3.57842
G1 X-9.400 Y-5.749 A3.59275
G1 X-8.631 Y-6.471 A3.62608
G1 X-7.778 Y-7.091 A3.65940
G1 X-6.854 Y-7.599 A3.69273
G1 X-5.873 Y-7.988 A3.72606
G1 X-4.851 Y-8.250 A3.75938
G1 X-3.805 Y-8.382 A3.79271
G1 X-2.750 Y-8.382 A3.82604
G1 X-1.704 Y-8.250 A3.85936
G1 X-0.682 Y-7.988 A3.89269
G1 X0.298 Y-7.599 A3.92602
G1 X1.223 Y-7.091 A3.95934
G1 X2.076 Y-6.471 A3.99267
G1 X2.845 Y-5.749 A4.02600
G1 X3.517 Y-4.937 A4.05932
G1 X4.082 Y-4.046 A4.09265
G1 X4.531 Y-3.092 A4.12598
G1 X4.732 Y-2.475 A4.14647
G1 X8.322 Y-2.475 A4.25992
G1 X8.322 Y-4.400 A4.32074
G1 X10.722 Y-4.400 A4.39658
G1 X10.722 Y4.400 A4.67463
G1 X8.322 Y4.400 A4.75047
G1 X8.322 Y2.535 A4.80939
G1 X7.922 Y2.875 F4800.000
G1 X5.022 Y2.875 A4.90102 F2100.000
G1 X4.904 Y3.239 A4.91313
G1 X4.434 Y4.239 A4.94805
G1 X3.841 Y5.172 A4.98296
G1 X3.137 Y6.024 A5.01788
G1 X2.331 Y6.780 A5.05280
G1 X1.437 Y7.430 A5.08771
G1 X0.469 Y7.962 A5.12263
G1 X-0.558 Y8.369 A5.15755
G1 X-1.629 Y8.644 A5.19246
G1 X-2.725 Y8.782 A5.22738
G1 X-3.830 Y8.782 A5.26230
G1 X-4.926 Y8.644 A5.29721
G1 X-5.997 Y8.369 A5.33213
G1 X-7.024 Y7.962 A5.36705
G1 X-7.993 Y7.430 A5.40196
G1 X-8.887 Y6.780 A5.43688
G1 X-9.692 Y6.024 A5.47180
G1 X-9.877 Y5.800 A5.48097
G1 X-11.078 Y5.800 A5.51890
G1 X-11.078 Y4.200 A5.56945
G1 X-9.130 Y4.200 A5.63101
G1 X-8.526 Y4.929 A5.66090
G1 X-7.504 Y5.890 A5.70524
G1 X-7.504 Y5.812 A5.70768
G1 X-7.136 Y6.079 A5.72205
G1 X-6.343 Y6.515 A5.75062
G1 X-5.503 Y6.848 A5.77919
G1 X-4.627 Y7.073 A5.80776
G1 X-3.730 Y7.186 A5.83633
G1 X-2.825 Y7.186 A5.86490
G1 X-1.928 Y7.073 A5.89347
G1 X-1.053 Y6.848 A5.92204
G1 X-0.212 Y6.515 A5.95062
G1 X0.581 Y6.079 A5.97919
G1 X1.312 Y5.548 A6.00776
G1 X1.971 Y4.929 A6.03633
G1 X2.548 Y4.232 A6.06490
G1 X3.032 Y3.469 A6.09347
G1 X3.417 Y2.651 A6.12204
G1 X3.697 Y1.791 A6.15061
G1 X3.866 Y0.902 A6.17919
G1 X3.923 Y-0.000 A6.20776
G1 X3.866 Y-0.902 A6.23633
G1 X3.697 Y-1.791 A6.26490
G1 X3.417 Y-2.651 A6.29347
G1 X3.032 Y-3.469 A6.32204
G1 X2.548 Y-4.232 A6.35061
G1 X1.971 Y-4.929 A6.37918
G1 X1.312 Y-5.548 A6.40775
G1 X0.581 Y-6.079 A6.43633
G1 X-0.212 Y-6.515 A6.46490
G1 X-1.053 Y-6.848 A6.49347
G1 X-1.928 Y-7.073 A6.52204
G1 X-2.825 Y-7.186 A6.55061
G1 X-3.730 Y-7.186 A6.57918
G1 X-4.627 Y-7.073 A6.60775
G1 X-5.503 Y-6.848 A6.63632
G1 X-6.343 Y-6.515 A6.66490
G1 X-7.136 Y-6.079 A6.69347
G1 X-7.504 Y-5.812 A6.70783
G1 X-7.504 Y-5.890 A6.71027
G1 X-8.526 Y-4.929 A6.75461
G1 X-9.130 Y-4.200 A6.78451
G1 X-11.078 Y-4.200 A6.84606
G1 X-11.078 Y-5.800 A6.89661
G1 X-9.877 Y-5.800 A6.93454
G1 X-9.692 Y-6.024 A6.94371
G1 X-8.887 Y-6.780 A6.97863
G1 X-7.993 Y-7.430 A7.01355
G1 X-7.024 Y-7.962 A7.04847
G1 X-5.997 Y-8.369 A7.08338
G1 X-4.926 Y-8.644 A7.11830
G1 X-3.830 Y-8.782 A7.15322
G1 X-2.725 Y-8.782 A7.18813
G1 X-1.629 Y-8.644 A7.22305
G1 X-0.558 Y-8.369 A7.25797
G1 X0.469 Y-7.962 A7.29288
G1 X1.437 Y-7.430 A7.32780
G1 X2.331 Y-6.780 A7.36272
G1 X3.137 Y-6.024 A7.39763
G1 X3.841 Y-5.172 A7.43255
G1 X4.434 Y-4.239 A7.46747
G1 X4.904 Y-3.239 A7.50238
G1 X5.022 Y-2.875 A7.51449
G1 X7.922 Y-2.875 A7.60612
G1 X7.922 Y-4.800 A7.66694
G1 X11.122 Y-4.800 A7.76805
G1 X11.122 Y4.800 A8.07139
G1 X7.922 Y4.800 A8.17250
G1 X7.922 Y2.935 A8.23143
G1 X7.922 Y2.475 F4800.000
G1 X9.044 Y3.043 F4800.000
G1 X9.679 Y3.679 A8.27602 F4800.000
G1 X4.852 Y1.717 F4800.000
G1 X4.889 Y1.754 A8.27863 F4800.000
G1 X5.844 Y1.754 A8.32602
G1 X4.990 Y0.899 A8.38600
G1 X5.046 Y0.001 A8.43068
G1 X6.799 Y1.754 A8.55371
G1 X7.754 Y1.754 A8.60111
G1 X4.982 Y-1.018 A8.79566
G1 X5.202 Y-1.754 A8.83376
G1 X10.001 Y3.046 A9.17063
G1 X10.001 Y2.091 A9.21802
G1 X6.157 Y-1.754 A9.48786
G1 X7.112 Y-1.754 A9.53526
G1 X10.001 Y1.136 A9.73808
G1 X10.001 Y0.181 A9.78547
G1 X8.066 Y-1.754 A9.92126
G1 X9.021 Y-1.754 A9.96866
G1 X10.001 Y-0.774 A10.03742
G1 X10.001 Y-1.729 A10.08482
G1 X9.044 Y-2.686 A10.15201
G1 X9.044 Y-3.641 A10.19940
G1 X10.001 Y-2.684 A10.26660
G1 X10.001 Y-3.639 A10.31399
G1 X9.961 Y-3.679 A10.31680
G1 X4.378 Y2.275 F4800.000
G1 X4.160 Y2.945 A10.33032 F2400.000
G1 X3.733 Y3.854 A10.34959
G1 X3.194 Y4.702 A10.36887
G1 X2.554 Y5.476 A10.38815
G1 X1.822 Y6.164 A10.40743
G1 X1.019 Y6.747 A10.42647
G1 X0.117 Y7.243 A10.44622
G1 X-0.806 Y7.608 A10.46526
G1 X-1.779 Y7.858 A10.48454
G1 X-2.775 Y7.984 A10.50381
G1 X-3.780 Y7.984 A10.52309
G1 X-4.777 Y7.858 A10.54237
G1 X-5.750 Y7.608 A10.56165
G1 X-6.706 Y7.227 A10.58140
G1 X-6.904 Y6.892 A10.58886
G1 F3000.000 A9.98886
G92 A0
G1 X-6.904 Y-7.118 F4800.000
G1 A0.60000 F3000.000
G1 X-6.684 Y-7.238 A0.60481 F2400.000
G1 X-5.750 Y-7.608 A0.62409
G1 X-4.777 Y-7.858 A0.64337
G1 X-3.780 Y-7.984 A0.66264
G1 X-2.775 Y-7.984 A0.68192
G1 X-1.779 Y-7.858 A0.70120
G1 X-0.806 Y-7.608 A0.72048
G1 X0.129 Y-7.238 A0.73976
G1 X1.009 Y-6.754 A0.75903
G1 X1.812 Y-6.171 A0.77807
G1 X2.554 Y-5.476 A0.79759
G1 X3.194 Y-4.702 A0.81686
G1 X3.733 Y-3.854 A0.83614
G1 X4.160 Y-2.945 A0.85542
G1 X4.378 Y-2.275 A0.86894
G1 F3000.000 A0.26894
G92 A0
G1 X-7.294 Y-7.029 F4800.000
G1 A0.60000 F3000.000
G1 X-7.598 Y-6.808 A0.60721 F2400.000
G1 X-8.377 Y-6.164 A0.62660
G1 X-9.109 Y-5.476 A0.64588
G1 X-9.338 Y-5.200 A0.65277
G1 F3000.000 A0.05277
G92 A0
G1 X-10.478 Y5.000 F4800.000
G1 A0.60000 F3000.000
G1 X-9.510 Y5.009 A0.61856 F2400.000
G1 X-9.109 Y5.476 A0.63038
G1 X-8.377 Y6.164 A0.64966
G1 X-7.598 Y6.808 A0.66905
G1 X-7.294 Y7.029 A0.67626
G1 F3000.000 A0.07626
G92 A0
G1 Z1.200 F4800.000
G1 X8.722 Y2.075 F4800.000
G1 A0.60000 F3000.000
G1 X4.457 Y2.075 A0.73478 F3000.000
G1 X4.661 Y1.003 A0.76927
G1 X4.724 Y0.000 A0.80102
G1 X4.661 Y-1.003 A0.83277
G1 X4.457 Y-2.075 A0.86726
G1 X8.722 Y-2.075 A1.00204
G1 X8.722 Y-4.000 A1.06286
G1 X10.322 Y-4.000 A1.11342
G1 X10.322 Y4.000 A1.36620
G1 X8.722 Y4.000 A1.41675
G1 X8.722 Y2.135 A1.47568
G1 X8.322 Y2.475 F4800.000
G1 X4.732 Y2.475 A1.58913 F3000.000
G1 X4.531 Y3.092 A1.60962
G1 X4.082 Y4.046 A1.64295
G1 X3.517 Y4.937 A1.67628
G1 X2.845 Y5.749 A1.70960
G1 X2.076 Y6.471 A1.74293
G1 X1.223 Y7.091 A1.77626
G1 X0.298 Y7.599 A1.80958
G1 X-0.682 Y7.988 A1.84291
G1 X-1.704 Y8.250 A1.87624
G1 X-2.750 Y8.382 A1.90956
G1 X-3.805 Y8.382 A1.94289
G1 X-4.851 Y8.250 A1.97622
G1 X-5.873 Y7.988 A2.00954
G1 X-6.854 Y7.599 A2.04287
G1 X-7.778 Y7.091 A2.07619
G1 X-8.631 Y6.471 A2.10952
G1 X-9.400 Y5.749 A2.14285
G1 X-9.689 Y5.400 A2.15718
G1 X-10.678 Y5.400 A2.18841
G1 X-10.678 Y4.600 A2.21369
G1 X-9.318 Y4.600 A2.25665
G1 X-8.819 Y5.203 A2.28140
G1 X-8.123 Y5.857 A2.31156
G1 X-7.351 Y6.418 A2.34172
G1 X-5.655 Y7.350 A2.40286
G1 X-5.655 Y7.222 A2.40692
G1 X-4.702 Y7.467 A2.43800
G1 X-3.755 Y7.586 A2.46816
G1 X-2.800 Y7.586 A2.49832
G1 X-1.853 Y7.467 A2.52848
G1 X-0.929 Y7.229 A2.55865
G1 X-0.041 Y6.878 A2.58881
G1 X0.795 Y6.418 A2.61897
G1 X1.568 Y5.857 A2.64913
G1 X2.263 Y5.203 A2.67929
G1 X2.872 Y4.468 A2.70945
G1 X3.383 Y3.662 A2.73961
G1 X3.790 Y2.798 A2.76978
G1 X4.085 Y1.890 A2.79994
G1 X4.264 Y0.953 A2.83010
G1 X4.324 Y0.000 A2.86026
G1 X4.264 Y-0.953 A2.89042
G1 X4.085 Y-1.890 A2.92058
G1 X3.790 Y-2.798 A2.95074
G1 X3.383 Y-3.662 A2.98091
G1 X2.872 Y-4.468 A3.01107
G1 X2.263 Y-5.203 A3.04123
G1 X1.568 Y-5.857 A3.07139
G1 X1.472 Y-5.926 A3.07513
G1 X0.795 Y-6.418 A3.10155
G1 X-0.041 Y-6.878 A3.13171
G1 X-0.929 Y-7.229 A3.16188
G1 X-1.853 Y-7.467 A3.19204
G1 X-2.800 Y-7.586 A3.22220
G1 X-3.755 Y-7.586 A3.25236
G1 X-4.702 Y-7.467 A3.28252
G1 X-5.627 Y-7.229 A3.31268
G1 X-6.514 Y-6.878 A3.34284
G1 X-7.351 Y-6.418 A3.37301
G1 X-8.123 Y-5.857 A3.40317
G1 X-8.819 Y-5.203 A3.43333
G1 X-9.318 Y-4.600 A3.45807
G1 X-10.678 Y-4.600 A3.50104
G1 X-10.678 Y-5.400 A3.52632
G1 X-9.689 Y-5.400 A3.55755
G1 X-9.400 Y-5.749 A3.57188
G1 X-8.631 Y-6.471 A3.60520
G1 X-7.778 Y-7.091 A3.63853
G1 X-6.854 Y-7.599 A3.67186
G1 X-5.873 Y-7.988 A3.70518
G1 X-4.851 Y-8.250 A3.73851
G1 X-3.805 Y-8.382 A3.77184
G1 X-2.750 Y-8.382 A3.80516
G1 X-1.704 Y-8.250 A3.83849
G1 X-0.682 Y-7.988 A3.87182
G1 X0.298 Y-7.599 A3.90514
G1 X1.223 Y-7.091 A3.93847
G1 X2.076 Y-6.471 A3.97180
G1 X2.845 Y-5.749 A4.00512
G1 X3.517 Y-4.937 A4.03845
G1 X4.082 Y-4.046 A4.07177
G1 X4.531 Y-3.092 A4.10510
G1 X4.732 Y-2.475 A4.12559
G1 X8.322 Y-2.475 A4.23905
G1 X8.322 Y-4.400 A4.29987
G1 X10.722 Y-4.400 A4.37570
G1 X10.722 Y4.400 A4.65376
G1 X8.322 Y4.400 A4.72959
G1 X8.322 Y2.535 A4.78852
G1 X7.922 Y2.875 F4800.000
G1 X5.022 Y2.875 A4.88015 F2100.000
G1 X4.904 Y3.239 A4.89225
G1 X4.434 Y4.239 A4.92717
G1 X3.841 Y5.172 A4.96209
G1 X3.137 Y6.024 A4.99700
G1 X2.331 Y6.780 A5.03192
G1 X1.437 Y7.430 A5.06684
G1 X0.469 Y7.962 A5.10176
G1 X-0.558 Y8.369 A5.13667
G1 X-1.629 Y8.644 A5.17159
G1 X-2.725 Y8.782 A5.20651
G1 X-3.830 Y8.782 A5.24142
G1 X-4.926 Y8.644 A5.27634
G1 X-5.997 Y8.369 A5.31126
G1 X-7.024 Y7.962 A5.34617
G1 X-7.993 Y7.430 A5.38109
G1 X-8.887 Y6.780 A5.41601
G1 X-9.692 Y6.024 A5.45092
G1 X-9.877 Y5.800 A5.46010
G1 X-11.078 Y5.800 A5.49802
G1 X-11.078 Y4.200 A5.54858
G1 X-9.130 Y4.200 A5.61013
G1 X-8.526 Y4.929 A5.64003
G1 X-7.867 Y5.548 A5.66860
G1 X-7.136 Y6.079 A5.69717
G1 X-6.055 Y6.674 A5.73615
G1 X-6.055 Y6.629 A5.73755
G1 X-5.503 Y6.848 A5.75631
G1 X-4.627 Y7.073 A5.78488
G1 X-3.730 Y7.186 A5.81346
G1 X-2.825 Y7.186 A5.84203
G1 X-1.928 Y7.073 A5.87060
G1 X-1.053 Y6.848 A5.89917
G1 X-0.212 Y6.515 A5.92774
G1 X0.581 Y6.079 A5.95631
G1 X1.312 Y5.548 A5.98488
G1 X1.971 Y4.929 A6.01345
G1 X2.548 Y4.232 A6.04203
G1 X3.032 Y3.469 A6.07060
G1 X3.417 Y2.651 A6.09917
G1 X3.697 Y1.791 A6.12774
G1 X3.866 Y0.902 A6.15631
G1 X3.923 Y-0.000 A6.18488
G1 X3.866 Y-0.902 A6.21345
G1 X3.697 Y-1.791 A6.24202
G1 X3.417 Y-2.651 A6.27059
G1 X3.032 Y-3.469 A6.29917
G1 X2.548 Y-4.232 A6.32774
G1 X1.971 Y-4.929 A6.35631
G1 X1.312 Y-5.548 A6.38488
G1 X0.581 Y-6.079 A6.41345
G1 X-0.212 Y-6.515 A6.44202
G1 X-1.053 Y-6.848 A6.47059
G1 X-1.928 Y-7.073 A6.49916
G1 X-2.825 Y-7.186 A6.52774
G1 X-3.730 Y-7.186 A6.55631
G1 X-4.627 Y-7.073 A6.58488
G1 X-5.503 Y-6.848 A6.61345
G1 X-6.343 Y-6.515 A6.64202
G1 X-7.136 Y-6.079 A6.67059
G1 X-7.867 Y-5.548 A6.69916
G1 X-8.526 Y-4.929 A6.72773
G1 X-9.130 Y-4.200 A6.75763
G1 X-11.078 Y-4.200 A6.81918
G1 X-11.078 Y-5.800 A6.86974
G1 X-9.877 Y-5.800 A6.90766
G1 X-9.692 Y-6.024 A6.91684
G1 X-8.887 Y-6.780 A6.95175
G1 X-7.993 Y-7.430 A6.98667
G1 X-7.024 Y-7.962 A7.02159
G1 X-5.997 Y-8.369 A7.05650
G1 X-4.926 Y-8.644 A7.09142
G1 X-3.830 Y-8.782 A7.12634
G1 X-2.725 Y-8.782 A7.16125
G1 X-1.629 Y-8.644 A7.19617
G1 X-0.558 Y-8.369 A7.23109
G1 X0.469 Y-7.962 A7.26601
G1 X1.437 Y-7.430 A7.30092
G1 X2.331 Y-6.780 A7.33584
G1 X3.137 Y-6.024 A7.37076
G1 X3.841 Y-5.172 A7.40567
G1 X4.434 Y-4.239 A7.44059
G1 X4.904 Y-3.239 A7.47551
G1 X5.022 Y-2.875 A7.48761
G1 X7.922 Y-2.875 A7.57924
G1 X7.922 Y-4.800 A7.64007
G1 X11.122 Y-4.800 A7.74118
G1 X11.122 Y4.800 A8.04451
G1 X7.922 Y4.800 A8.14562
G1 X7.922 Y2.935 A8.20455
G1 X7.922 Y2.475 F4800.000
G1 X10.001 Y3.639 F4800.000
G1 X9.961 Y3.679 A8.20736 F4800.000
G1 X9.044 Y3.641 A8.25292
G1 X10.001 Y2.684 A8.32011
G1 X10.001 Y1.729 A8.36751
G1 X9.044 Y2.686 A8.43470
G1 X9.021 Y1.754 A8.48100
G1 X10.001 Y0.774 A8.54976
G1 X10.001 Y-0.181 A8.59716
G1 X8.066 Y1.754 A8.73295
G1 X7.112 Y1.754 A8.78034
G1 X10.001 Y-1.136 A8.98316
G1 X10.001 Y-2.091 A9.03056
G1 X6.157 Y1.754 A9.30040
G1 X5.202 Y1.754 A9.34779
G1 X10.001 Y-3.046 A9.68466
G1 X9.679 Y-3.679 A9.71991
G1 X9.044 Y-3.043 A9.76450
G1 X7.754 Y-1.754 F4800.000
G1 X4.982 Y1.018 A9.95906 F4800.000
G1 X5.046 Y-0.001 A10.00973
G1 X6.799 Y-1.754 A10.13277
G1 X5.844 Y-1.754 A10.18016
G1 X4.990 Y-0.899 A10.24014
G1 X4.852 Y-1.717 A10.28128
G1 X4.889 Y-1.754 A10.28388
G1 X4.378 Y2.275 F4800.000
G1 X4.160 Y2.945 A10.29740 F2400.000
G1 X3.738 Y3.843 A10.31644
G1 X3.194 Y4.702 A10.33596
G1 X2.554 Y5.476 A10.35523
G1 X1.822 Y6.164 A10.37451
G1 X1.009 Y6.754 A10.39379
G1 X0.129 Y7.238 A10.41307
G1 X-0.806 Y7.608 A10.43234
G1 X-1.779 Y7.858 A10.45162
G1 X-2.775 Y7.984 A10.47090
G1 X-3.780 Y7.984 A10.49018
G1 X-4.777 Y7.858 A10.50945
G1 X-5.262 Y7.734 A10.51907
G1 X-5.429 Y7.788 A10.52244
G1 X-5.502 Y7.775 A10.52387
G1 X-5.769 Y7.669 A10.52939
G1 X-6.684 Y7.239 A10.54878
G1 X-7.564 Y6.754 A10.56806
G1 X-8.377 Y6.164 A10.58734
G1 X-9.109 Y5.476 A10.60661
G1 X-9.510 Y5.009 A10.61843
G1 X-10.478 Y5.000 A10.63699
G1 F3000.000 A10.03699
G92 A0
G1 X-9.338 Y-5.200 F4800.000
G1 A0.60000 F3000.000
G1 X-9.109 Y-5.476 A0.60688 F2400.000
G1 X-8.377 Y-6.164 A0.62616
G1 X-7.564 Y-6.754 A0.64544
G1 X-6.684 Y-7.238 A0.66472
G1 X-5.750 Y-7.608 A0.68399
G1 X-4.777 Y-7.858 A0.70327
G1 X-3.780 Y-7.984 A0.72255
G1 X-2.775 Y-7.984 A0.74183
G1 X-1.779 Y-7.858 A0.76110
G1 X-0.806 Y-7.608 A0.78038
G1 X0.129 Y-7.238 A0.79966
G1 X1.009 Y-6.754 A0.81894
G1 X1.822 Y-6.164 A0.83821
G1 X2.554 Y-5.476 A0.85749
G1 X3.194 Y-4.702 A0.87677
G1 X3.738 Y-3.843 A0.89629
G1 X4.160 Y-2.945 A0.91532
G1 X4.378 Y-2.275 A0.92884
G1 F3000.000 A0.32884
G92 A0
G1 Z1.400 F4800.000
G1 X8.722 Y2.075 F4800.000
G1 A0.60000 F3000.000
G1 X4.457 Y2.075 A0.73478 F3000.000
G1 X4.661 Y1.003 A0.76927
G1 X4.724 Y-0.000 A0.80102
G1 X4.661 Y-1.003 A0.83277
G1 X4.457 Y-2.075 A0.86726
G1 X8.722 Y-2.075 A1.00204
G1 X8.722 Y-4.000 A1.06286
G1 X10.322 Y-4.000 A1.11342
G1 X10.322 Y4.000 A1.36620
G1 X8.722 Y4.000 A1.41675
G1 X8.722 Y2.135 A1.47568
G1 X8.322 Y2.475 F4800.000
G1 X4.732 Y2.475 A1.58913 F3000.000
G1 X4.531 Y3.092 A1.60962
G1 X4.082 Y4.046 A1.64295
G1 X3.517 Y4.937 A1.67628
G1 X2.845 Y5.749 A1.70960
G1 X2.076 Y6.471 A1.74293
G1 X1.223 Y7.091 A1.77626
G1 X0.298 Y7.599 A1.80958
G1 X-0.682 Y7.988 A1.84291
G1 X-1.704 Y8.250 A1.87624
G1 X-2.750 Y8.382 A1.90956
G1 X-3.805 Y8.382 A1.94289
G1 X-4.851 Y8.250 A1.97622
G1 X-5.873 Y7.988 A2.00954
G1 X-6.854 Y7.599 A2.04287
G1 X-7.778 Y7.091 A2.07619
G1 X-8.631 Y6.471 A2.10952
G1 X-9.400 Y5.749 A2.14285
G1 X-9.689 Y5.400 A2.15718
G1 X-10.678 Y5.400 A2.18841
G1 X-10.678 Y4.600 A2.21369
G1 X-9.318 Y4.600 A2.25665
G1 X-8.819 Y5.203 A2.28140
G1 X-8.123 Y5.857 A2.31156
G1 X-7.351 Y6.418 A2.34172
G1 X-6.514 Y6.878 A2.37188
G1 X-5.627 Y7.229 A2.40204
G1 X-4.702 Y7.467 A2.43220
G1 X-3.755 Y7.586 A2.46236
G1 X-2.800 Y7.586 A2.49253
G1 X-1.853 Y7.467 A2.52269
G1 X-0.929 Y7.229 A2.55285
G1 X-0.041 Y6.878 A2.58301
G1 X0.795 Y6.418 A2.61317
G1 X1.568 Y5.857 A2.64333
G1 X2.263 Y5.203 A2.67350
G1 X2.872 Y4.468 A2.70366
G1 X3.383 Y3.662 A2.73382
G1 X3.790 Y2.798 A2.76398
G1 X4.085 Y1.890 A2.79414
G1 X4.264 Y0.953 A2.82430
G1 X4.324 Y-0.000 A2.85446
G1 X4.264 Y-0.953 A2.88463
G1 X4.085 Y-1.890 A2.91479
G1 X3.790 Y-2.798 A2.94495
G1 X3.383 Y-3.662 A2.97511
G1 X2.872 Y-4.468 A3.00527
G1 X2.263 Y-5.203 A3.03543
G1 X1.568 Y-5.857 A3.06559
G1 X0.795 Y-6.418 A3.09576
G1 X-0.041 Y-6.878 A3.12592
G1 X-0.929 Y-7.229 A3.15608
G1 X-1.853 Y-7.467 A3.18624
G1 X-2.800 Y-7.586 A3.21640
G1 X-3.755 Y-7.586 A3.24656
G1 X-4.702 Y-7.467 A3.27673
G1 X-5.627 Y-7.229 A3.30689
G1 X-5.782 Y-7.168 A3.31216
G1 X-6.514 Y-6.878 A3.33705
G1 X-7.351 Y-6.418 A3.36721
G1 X-8.123 Y-5.857 A3.39737
G1 X-8.819 Y-5.203 A3.42753
G1 X-9.318 Y-4.600 A3.45228
G1 X-10.678 Y-4.600 A3.49524
G1 X-10.678 Y-5.400 A3.52052
G1 X-9.689 Y-5.400 A3.55175
G1 X-9.400 Y-5.749 A3.56608
G1 X-8.631 Y-6.471 A3.59941
G1 X-7.778 Y-7.091 A3.63273
G1 X-6.854 Y-7.599 A3.66606
G1 X-5.873 Y-7.988 A3.69939
G1 X-4.851 Y-8.250 A3.73271
G1 X-3.805 Y-8.382 A3.76604
G1 X-2.750 Y-8.382 A3.79937
G1 X-1.704 Y-8.250 A3.83269
G1 X-0.682 Y-7.988 A3.86602
G1 X0.298 Y-7.599 A3.89935
G1 X1.223 Y-7.091 A3.93267
G1 X2.076 Y-6.471 A3.96600
G1 X2.845 Y-5.749 A3.99933
G1 X3.517 Y-4.937 A4.03265
G1 X4.082 Y-4.046 A4.06598
G1 X4.531 Y-3.092 A4.09931
G1 X4.732 Y-2.475 A4.11980
G1 X8.322 Y-2.475 A4.23325
G1 X8.322 Y-4.400 A4.29407
G1 X10.722 Y-4.400 A4.36991
G1 X10.722 Y4.400 A4.64796
G1 X8.322 Y4.400 A4.72379
G1 X8.322 Y2.535 A4.78272
G1 X7.922 Y2.875 F4800.000
G1 X5.022 Y2.875 A4.87435 F2100.000
G1 X4.904 Y3.239 A4.88646
G1 X4.434 Y4.239 A4.92138
G1 X3.841 Y5.172 A4.95629
G1 X3.137 Y6.024 A4.99121
G1 X2.331 Y6.780 A5.02613
G1 X1.437 Y7.430 A5.06104
G1 X0.469 Y7.962 A5.09596
G1 X-0.558 Y8.369 A5.13088
G1 X-1.629 Y8.644 A5.16579
G1 X-2.725 Y8.782 A5.20071
G1 X-3.830 Y8.782 A5.23563
G1 X-4.926 Y8.644 A5.27054
G1 X-5.997 Y8.369 A5.30546
G1 X-7.024 Y7.962 A5.34038
G1 X-7.993 Y7.430 A5.37529
G1 X-8.887 Y6.780 A5.41021
G1 X-9.692 Y6.024 A5.44513
G1 X-9.877 Y5.800 A5.45430
G1 X-11.078 Y5.800 A5.49223
G1 X-11.078 Y4.200 A5.54278
G1 X-9.130 Y4.200 A5.60434
G1 X-8.526 Y4.929 A5.63423
G1 X-7.867 Y5.548 A5.66280
G1 X-7.136 Y6.079 A5.69137
G1 X-6.343 Y6.515 A5.71994
G1 X-5.503 Y6.848 A5.74852
G1 X-4.627 Y7.073 A5.77709
G1 X-3.730 Y7.186 A5.80566
G1 X-2.825 Y7.186 A5.83423
G1 X-1.928 Y7.073 A5.86280
G1 X-1.053 Y6.848 A5.89137
G1 X-0.212 Y6.515 A5.91994
G1 X0.581 Y6.079 A5.94851
G1 X1.312 Y5.548 A5.97709
G1 X1.971 Y4.929 A6.00566
G1 X2.548 Y4.232 A6.03423
G1 X3.032 Y3.469 A6.06280
G1 X3.417 Y2.651 A6.09137
G1 X3.697 Y1.791 A6.11994
G1 X3.866 Y0.902 A6.14851
G1 X3.923 Y-0.000 A6.17708
G1 X3.866 Y-0.902 A6.20565
G1 X3.697 Y-1.791 A6.23423
G1 X3.417 Y-2.651 A6.26280
G1 X3.032 Y-3.469 A6.29137
G1 X2.548 Y-4.232 A6.31994
G1 X1.971 Y-4.929 A6.34851
G1 X1.312 Y-5.548 A6.37708
G1 X0.581 Y-6.079 A6.40565
G1 X-0.212 Y-6.515 A6.43422
G1 X-1.053 Y-6.848 A6.46280
G1 X-1.928 Y-7.073 A6.49137
G1 X-2.825 Y-7.186 A6.51994
G1 X-3.730 Y-7.186 A6.54851
G1 X-4.627 Y-7.073 A6.57708
G1 X-5.503 Y-6.848 A6.60565
G1 X-5.634 Y-6.796 A6.61013
G1 X-6.343 Y-6.515 A6.63422
G1 X-7.136 Y-6.079 A6.66279
G1 X-7.867 Y-5.548 A6.69136
G1 X-8.526 Y-4.929 A6.71994
G1 X-9.130 Y-4.200 A6.74983
G1 X-11.078 Y-4.200 A6.81138
G1 X-11.078 Y-5.800 A6.86194
G1 X-9.877 Y-5.800 A6.89986
G1 X-9.692 Y-6.024 A6.90904
G1 X-8.887 Y-6.780 A6.94396
G1 X-7.993 Y-7.430 A6.97887
G1 X-7.024 Y-7.962 A7.01379
G1 X-5.997 Y-8.369 A7.04871
G1 X-4.926 Y-8.644 A7.08362
G1 X-3.830 Y-8.782 A7.11854
G1 X-2.725 Y-8.782 A7.15346
G1 X-1.629 Y-8.644 A7.18837
G1 X-0.558 Y-8.369 A7.22329
G1 X0.469 Y-7.962 A7.25821
G1 X1.437 Y-7.430 A7.29312
G1 X2.331 Y-6.780 A7.32804
G1 X3.137 Y-6.024 A7.36296
G1 X3.841 Y-5.172 A7.39787
G1 X4.434 Y-4.239 A7.43279
G1 X4.904 Y-3.239 A7.46771
G1 X5.022 Y-2.875 A7.47981
G1 X7.922 Y-2.875 A7.57144
G1 X7.922 Y-4.800 A7.63227
G1 X11.122 Y-4.800 A7.73338
G1 X11.122 Y4.800 A8.03671
G1 X7.922 Y4.800 A8.13782
G1 X7.922 Y2.935 A8.19675
G1 X7.922 Y2.475 F4800.000
G1 X9.044 Y3.043 F4800.000
G1 X9.679 Y3.679 A8.24135 F4800.000
G1 X4.852 Y1.717 F4800.000
G1 X4.889 Y1.754 A8.24395 F4800.000
G1 X5.844 Y1.754 A8.29134
G1 X4.990 Y0.899 A8.35132
G1 X5.046 Y0.001 A8.39600
G1 X6.799 Y1.754 A8.51904
G1 X7.754 Y1.754 A8.56643
G1 X4.982 Y-1.018 A8.76099
G1 X5.202 Y-1.754 A8.79908
G1 X10.001 Y3.046 A9.13595
G1 X10.001 Y2.091 A9.18334
G1 X6.157 Y-1.754 A9.45319
G1 X7.112 Y-1.754 A9.50058
G1 X10.001 Y1.136 A9.70340
G1 X10.001 Y0.181 A9.75079
G1 X8.066 Y-1.754 A9.88659
G1 X9.021 Y-1.754 A9.93398
G1 X10.001 Y-0.774 A10.00275
G1 X10.001 Y-1.729 A10.05014
G1 X9.044 Y-2.686 A10.11733
G1 X9.044 Y-3.641 A10.16473
G1 X10.001 Y-2.684 A10.23192
G1 X10.001 Y-3.639 A10.27932
G1 X9.961 Y-3.679 A10.28212
G1 X4.378 Y2.275 F4800.000
G1 X4.160 Y2.945 A10.29564 F2400.000
G1 X3.738 Y3.843 A10.31468
G1 X3.194 Y4.702 A10.33420
G1 X2.554 Y5.476 A10.35347
G1 X1.822 Y6.164 A10.37275
G1 X1.009 Y6.754 A10.39203
G1 X0.129 Y7.238 A10.41131
G1 X-0.806 Y7.608 A10.43058
G1 X-1.779 Y7.858 A10.44986
G1 X-2.775 Y7.984 A10.46914
G1 X-3.780 Y7.984 A10.48842
G1 X-4.777 Y7.858 A10.50769
G1 X-5.750 Y7.608 A10.52697
G1 X-6.684 Y7.238 A10.54625
G1 X-7.564 Y6.754 A10.56553
G1 X-8.377 Y6.164 A10.58481
G1 X-9.109 Y5.476 A10.60408
G1 X-9.510 Y5.009 A10.61590
G1 X-10.478 Y5.000 A10.63446
G1 F3000.000 A10.03446
G92 A0
G1 X-9.338 Y-5.200 F4800.000
G1 A0.60000 F3000.000
G1 X-9.109 Y-5.476 A0.60688 F2400.000
G1 X-8.377 Y-6.164 A0.62616
G1 X-7.564 Y-6.754 A0.64544
G1 X-6.684 Y-7.238 A0.66472
G1 X-5.750 Y-7.608 A0.68399
G1 X-4.777 Y-7.858 A0.70327
G1 X-3.780 Y-7.984 A0.72255
G1 X-2.775 Y-7.984 A0.74183
G1 X-1.779 Y-7.858 A0.76110
G1 X-0.806 Y-7.608 A0.78038
G1 X0.129 Y-7.238 A0.79966
G1 X1.009 Y-6.754 A0.81894
G1 X1.822 Y-6.164 A0.83821
G1 X2.554 Y-5.476 A0.85749
G1 X3.194 Y-4.702 A0.87677
G1 X3.738 Y-3.843 A0.89629
G1 X4.160 Y-2.945 A0.91532
G1 X4.378 Y-2.275 A0.92884
G1 F3000.000 A0.32884
G92 A0
G1 Z1.600 F4800.000
G1 X8.722 Y2.075 F4800.000
G1 A0.60000 F3000.000
G1 X4.457 Y2.075 A0.73478 F3000.000
G1 X4.661 Y1.003 A0.76927
G1 X4.724 Y-0.000 A0.80102
G1 X4.661 Y-1.003 A0.83277
G1 X4.457 Y-2.075 A0.86726
G1 X8.722 Y-2.075 A1.00204
G1 X8.722 Y-4.000 A1.06286
G1 X10.322 Y-4.000 A1.11342
G1 X10.322 Y4.000 A1.36620
G1 X8.722 Y4.000 A1.41675
G1 X8.722 Y2.135 A1.47568
G1 X8.322 Y2.475 F4800.000
G1 X4.732 Y2.475 A1.58913 F3000.000
G1 X4.531 Y3.092 A1.60962
G1 X4.082 Y4.046 A1.64295
G1 X3.517 Y4.937 A1.67628
G1 X2.845 Y5.749 A1.70960
G1 X2.076 Y6.471 A1.74293
G1 X1.223 Y7.091 A1.77626
G1 X0.298 Y7.599 A1.80958
G1 X-0.682 Y7.988 A1.84291
G1 X-1.704 Y8.250 A1.87624
G1 X-2.750 Y8.382 A1.90956
G1 X-3.805 Y8.382 A1.94289
G1 X-4.851 Y8.250 A1.97622
G1 X-5.873 Y7.988 A2.00954
G1 X-6.854 Y7.599 A2.04287
G1 X-7.778 Y7.091 A2.07619
G1 X-8.631 Y6.471 A2.10952
G1 X-9.400 Y5.749 A2.14285
G1 X-9.689 Y5.400 A2.15718
G1 X-10.678 Y5.400 A2.18841
G1 X-10.678 Y4.600 A2.21369
G1 X-9.343 Y4.600 A2.25585
G1 X-9.265 Y4.723 A2.26046
G1 X-9.216 Y4.723 A2.26202
G1 X-8.819 Y5.203 A2.28170
G1 X-8.123 Y5.857 A2.31187
G1 X-7.351 Y6.418 A2.34203
G1 X-6.514 Y6.878 A2.37219
G1 X-5.627 Y7.229 A2.40235
G1 X-4.702 Y7.467 A2.43251
G1 X-3.755 Y7.586 A2.46267
G1 X-2.800 Y7.586 A2.49284
G1 X-1.853 Y7.467 A2.52300
G1 X-0.929 Y7.229 A2.55316
G1 X-0.041 Y6.878 A2.58332
G1 X0.795 Y6.418 A2.61348
G1 X1.568 Y5.857 A2.64364
G1 X2.263 Y5.203 A2.67380
G1 X2.872 Y4.468 A2.70397
G1 X3.383 Y3.662 A2.73413
G1 X3.790 Y2.798 A2.76429
G1 X4.085 Y1.890 A2.79445
G1 X4.264 Y0.953 A2.82461
G1 X4.324 Y-0.000 A2.85477
G1 X4.264 Y-0.953 A2.88493
G1 X4.085 Y-1.890 A2.91510
G1 X3.790 Y-2.798 A2.94526
G1 X3.383 Y-3.662 A2.97542
G1 X2.872 Y-4.468 A3.00558
G1 X2.263 Y-5.203 A3.03574
G1 X1.568 Y-5.857 A3.06590
G1 X0.795 Y-6.418 A3.09607
G1 X-0.041 Y-6.878 A3.12623
G1 X-0.929 Y-7.229 A3.15639
G1 X-1.853 Y-7.467 A3.18655
G1 X-2.800 Y-7.586 A3.21671
G1 X-3.755 Y-7.586 A3.24687
G1 X-4.702 Y-7.467 A3.27703
G1 X-5.680 Y-7.215 A3.30895
G1 X-5.680 Y-7.336 A3.31277
G1 X-7.351 Y-6.418 A3.37299
G1 X-8.123 Y-5.857 A3.40315
G1 X-8.819 Y-5.203 A3.43331
G1 X-9.318 Y-4.600 A3.45806
G1 X-10.678 Y-4.600 A3.50102
G1 X-10.678 Y-5.400 A3.52630
G1 X-9.689 Y-5.400 A3.55753
G1 X-9.400 Y-5.749 A3.57186
G1 X-8.631 Y-6.471 A3.60519
G1 X-7.778 Y-7.091 A3.63851
G1 X-6.854 Y-7.599 A3.67184
G1 X-5.873 Y-7.988 A3.70517
G1 X-4.851 Y-8.250 A3.73849
G1 X-3.805 Y-8.382 A3.77182
G1 X-2.750 Y-8.382 A3.80515
G1 X-1.704 Y-8.250 A3.83847
G1 X-0.682 Y-7.988 A3.87180
G1 X0.298 Y-7.599 A3.90512
G1 X1.223 Y-7.091 A3.93845
G1 X2.076 Y-6.471 A3.97178
G1 X2.845 Y-5.749 A4.00510
G1 X3.517 Y-4.937 A4.03843
G1 X4.082 Y-4.046 A4.07176
G1 X4.531 Y-3.092 A4.10508
G1 X4.732 Y-2.475 A4.12558
G1 X8.322 Y-2.475 A4.23903
G1 X8.322 Y-4.400 A4.29985
G1 X10.722 Y-4.400 A4.37569
G1 X10.722 Y4.400 A4.65374
G1 X8.322 Y4.400 A4.72957
G1 X8.322 Y2.535 A4.78850
G1 X7.922 Y2.875 F4800.000
G1 X5.022 Y2.875 A4.88013 F2100.000
G1 X4.904 Y3.239 A4.89224
G1 X4.434 Y4.239 A4.92715
G1 X3.841 Y5.172 A4.96207
G1 X3.137 Y6.024 A4.99699
G1 X2.331 Y6.780 A5.03190
G1 X1.437 Y7.430 A5.06682
G1 X0.469 Y7.962 A5.10174
G1 X-0.558 Y8.369 A5.13666
G1 X-1.629 Y8.644 A5.17157
G1 X-2.725 Y8.782 A5.20649
G1 X-3.830 Y8.782 A5.24141
G1 X-4.926 Y8.644 A5.27632
G1 X-5.997 Y8.369 A5.31124
G1 X-7.024 Y7.962 A5.34616
G1 X-7.993 Y7.430 A5.38107
G1 X-8.887 Y6.780 A5.41599
G1 X-9.692 Y6.024 A5.45091
G1 X-9.877 Y5.800 A5.46008
G1 X-11.078 Y5.800 A5.49801
G1 X-11.078 Y4.200 A5.54856
G1 X-9.123 Y4.200 A5.61031
G1 X-9.045 Y4.323 A5.61493
G1 X-9.028 Y4.323 A5.61548
G1 X-8.526 Y4.929 A5.64032
G1 X-7.867 Y5.548 A5.66889
G1 X-7.136 Y6.079 A5.69746
G1 X-6.343 Y6.515 A5.72603
G1 X-5.503 Y6.848 A5.75460
G1 X-4.627 Y7.073 A5.78317
G1 X-3.730 Y7.186 A5.81175
G1 X-2.825 Y7.186 A5.84032
G1 X-1.928 Y7.073 A5.86889
G1 X-1.053 Y6.848 A5.89746
G1 X-0.212 Y6.515 A5.92603
G1 X0.581 Y6.079 A5.95460
G1 X1.312 Y5.548 A5.98317
G1 X1.971 Y4.929 A6.01174
G1 X2.548 Y4.232 A6.04031
G1 X3.032 Y3.469 A6.06889
G1 X3.417 Y2.651 A6.09746
G1 X3.697 Y1.791 A6.12603
G1 X3.866 Y0.902 A6.15460
G1 X3.923 Y-0.000 A6.18317
G1 X3.866 Y-0.902 A6.21174
G1 X3.697 Y-1.791 A6.24031
G1 X3.417 Y-2.651 A6.26888
G1 X3.032 Y-3.469 A6.29746
G1 X2.548 Y-4.232 A6.32603
G1 X1.971 Y-4.929 A6.35460
G1 X1.312 Y-5.548 A6.38317
G1 X0.581 Y-6.079 A6.41174
G1 X-0.212 Y-6.515 A6.44031
G1 X-1.053 Y-6.848 A6.46888
G1 X-1.928 Y-7.073 A6.49745
G1 X-2.825 Y-7.186 A6.52602
G1 X-3.730 Y-7.186 A6.55460
G1 X-4.627 Y-7.073 A6.58317
G1 X-5.503 Y-6.848 A6.61174
G1 X-6.080 Y-6.619 A6.63137
G1 X-6.080 Y-6.660 A6.63265
G1 X-7.136 Y-6.079 A6.67070
G1 X-7.867 Y-5.548 A6.69928
G1 X-8.526 Y-4.929 A6.72785
G1 X-9.130 Y-4.200 A6.75774
G1 X-11.078 Y-4.200 A6.81929
G1 X-11.078 Y-5.800 A6.86985
G1 X-9.877 Y-5.800 A6.90777
G1 X-9.692 Y-6.024 A6.91695
G1 X-8.887 Y-6.780 A6.95187
G1 X-7.993 Y-7.430 A6.98678
G1 X-7.024 Y-7.962 A7.02170
G1 X-5.997 Y-8.369 A7.05662
G1 X-4.926 Y-8.644 A7.09153
G1 X-3.830 Y-8.782 A7.12645
G1 X-2.725 Y-8.782 A7.16137
G1 X-1.629 Y-8.644 A7.19628
G1 X-0.558 Y-8.369 A7.23120
G1 X0.469 Y-7.962 A7.26612
G1 X1.437 Y-7.430 A7.30104
G1 X2.331 Y-6.780 A7.33595
G1 X3.137 Y-6.024 A7.37087
G1 X3.841 Y-5.172 A7.40579
G1 X4.434 Y-4.239 A7.44070
G1 X4.904 Y-3.239 A7.47562
G1 X5.022 Y-2.875 A7.48772
G1 X7.922 Y-2.875 A7.57935
G1 X7.922 Y-4.800 A7.64018
G1 X11.122 Y-4.800 A7.74129
G1 X11.122 Y4.800 A8.04462
G1 X7.922 Y4.800 A8.14573
G1 X7.922 Y2.935 A8.20466
G1 X7.922 Y2.475 F4800.000
G1 X10.001 Y3.639 F4800.000
G1 X9.961 Y3.679 A8.20747 F4800.000
G1 X9.044 Y3.641 A8.25303
G1 X10.001 Y2.684 A8.32023
G1 X10.001 Y1.729 A8.36762
G1 X9.044 Y2.686 A8.43481
G1 X9.021 Y1.754 A8.48111
G1 X10.001 Y0.774 A8.54988
G1 X10.001 Y-0.181 A8.59727
G1 X8.066 Y1.754 A8.73306
G1 X7.112 Y1.754 A8.78046
G1 X10.001 Y-1.136 A8.98328
G1 X10.001 Y-2.091 A9.03067
G1 X6.157 Y1.754 A9.30051
G1 X5.202 Y1.754 A9.34791
G1 X10.001 Y-3.046 A9.68478
G1 X9.679 Y-3.679 A9.72002
G1 X9.044 Y-3.043 A9.76462
G1 X7.754 Y-1.754 F4800.000
G1 X4.982 Y1.018 A9.95917 F4800.000
G1 X5.046 Y-0.001 A10.00984
G1 X6.799 Y-1.754 A10.13288
G1 X5.844 Y-1.754 A10.18028
G1 X4.990 Y-0.899 A10.24025
G1 X4.852 Y-1.717 A10.28139
G1 X4.889 Y-1.754 A10.28400
G1 X4.378 Y2.275 F4800.000
G1 X4.160 Y2.945 A10.29752 F2400.000
G1 X3.738 Y3.843 A10.31655
G1 X3.194 Y4.702 A10.33607
G1 X2.554 Y5.476 A10.35535
G1 X1.822 Y6.164 A10.37462
G1 X1.009 Y6.754 A10.39390
G1 X0.129 Y7.238 A10.41318
G1 X-0.806 Y7.608 A10.43246
G1 X-1.779 Y7.858 A10.45174
G1 X-2.775 Y7.984 A10.47101
G1 X-3.780 Y7.984 A10.49029
G1 X-4.777 Y7.858 A10.50957
G1 X-5.750 Y7.608 A10.52885
G1 X-6.684 Y7.238 A10.54812
G1 X-7.564 Y6.754 A10.56740
G1 X-8.377 Y6.164 A10.58668
G1 X-9.109 Y5.476 A10.60596
G1 X-9.405 Y5.119 A10.61485
G1 X-9.564 Y5.001 A10.61865
G1 X-10.478 Y5.000 A10.63619
G1 F3000.000 A10.03619
G92 A0
G1 X-9.338 Y-5.200 F4800.000
G1 A0.60000 F3000.000
G1 X-9.109 Y-5.476 A0.60688 F2400.000
G1 X-8.377 Y-6.164 A0.62616
G1 X-7.564 Y-6.754 A0.64544
G1 X-6.684 Y-7.239 A0.66472
G1 X-5.769 Y-7.669 A0.68411
G1 X-5.530 Y-7.764 A0.68906
G1 X-5.454 Y-7.778 A0.69054
G1 X-5.289 Y-7.727 A0.69384
G1 X-4.777 Y-7.858 A0.70400
G1 X-3.780 Y-7.984 A0.72328
G1 X-2.775 Y-7.984 A0.74256
G1 X-1.779 Y-7.858 A0.76183
G1 X-0.806 Y-7.608 A0.78111
G1 X0.129 Y-7.238 A0.80039
G1 X1.009 Y-6.754 A0.81967
G1 X1.822 Y-6.164 A0.83895
G1 X2.554 Y-5.476 A0.85822
G1 X3.194 Y-4.702 A0.87750
G1 X3.738 Y-3.843 A0.89702
G1 X4.160 Y-2.945 A0.91605
G1 X4.378 Y-2.275 A0.92957
G1 F3000.000 A0.32957
G92 A0
G1 Z1.800 F4800.000
G1 X8.722 Y2.075 F4800.000
G1 A0.60000 F3000.000
G1 X4.457 Y2.075 A0.73478 F3000.000
G1 X4.661 Y1.003 A0.76927
G1 X4.724 Y-0.000 A0.80102
G1 X4.661 Y-1.003 A0.83277
G1 X4.457 Y-2.075 A0.86726
G1 X8.722 Y-2.075 A1.00204
G1 X8.722 Y-4.000 A1.06286
G1 X10.322 Y-4.000 A1.11342
G1 X10.322 Y4.000 A1.36620
G1 X8.722 Y4.000 A1.41675
G1 X8.722 Y2.135 A1.47568
G1 X8.322 Y2.475 F4800.000
G1 X4.732 Y2.475 A1.58913 F3000.000
G1 X4.531 Y3.092 A1.60962
G1 X4.082 Y4.046 A1.64295
G1 X3.517 Y4.937 A1.67628
G1 X2.845 Y5.749 A1.70960
G1 X2.076 Y6.471 A1.74293
G1 X1.223 Y7.091 A1.77626
G1 X0.298 Y7.599 A1.80958
G1 X-0.682 Y7.988 A1.84291
G1 X-1.704 Y8.250 A1.87624
G1 X-2.750 Y8.382 A1.90956
G1 X-3.805 Y8.382 A1.94289
G1 X-4.851 Y8.250 A1.97622
G1 X-5.873 Y7.988 A2.00954
G1 X-6.854 Y7.599 A2.04287
G1 X-7.778 Y7.091 A2.07619
G1 X-8.631 Y6.471 A2.10952
G1 X-9.400 Y5.749 A2.14285
G1 X-9.689 Y5.400 A2.15718
G1 X-10.678 Y5.400 A2.18841
G1 X-10.678 Y4.600 A2.21369
G1 X-9.318 Y4.600 A2.25665
G1 X-8.819 Y5.203 A2.28140
G1 X-8.123 Y5.857 A2.31156
G1 X-7.351 Y6.418 A2.34172
G1 X-6.514 Y6.878 A2.37188
G1 X-5.627 Y7.229 A2.40204
G1 X-4.702 Y7.467 A2.43220
G1 X-3.755 Y7.586 A2.46236
G1 X-2.800 Y7.586 A2.49253
G1 X-1.853 Y7.467 A2.52269
G1 X-0.929 Y7.229 A2.55285
G1 X-0.041 Y6.878 A2.58301
G1 X0.795 Y6.418 A2.61317
G1 X1.568 Y5.857 A2.64333
G1 X2.263 Y5.203 A2.67350
G1 X2.872 Y4.468 A2.70366
G1 X3.383 Y3.662 A2.73382
G1 X3.790 Y2.798 A2.76398
G1 X4.085 Y1.890 A2.79414
G1 X4.264 Y0.953 A2.82430
G1 X4.324 Y-0.000 A2.85446
G1 X4.264 Y-0.953 A2.88463
G1 X4.085 Y-1.890 A2.91479
G1 X3.790 Y-2.798 A2.94495
G1 X3.383 Y-3.662 A2.97511
G1 X2.872 Y-4.468 A3.00527
G1 X2.263 Y-5.203 A3.03543
G1 X1.568 Y-5.857 A3.06559
G1 X0.795 Y-6.418 A3.09576
G1 X-0.041 Y-6.878 A3.12592
G1 X-0.929 Y-7.229 A3.15608
G1 X-1.853 Y-7.467 A3.18624
G1 X-2.800 Y-7.586 A3.21640
G1 X-3.755 Y-7.586 A3.24656
G1 X-4.702 Y-7.467 A3.27673
G1 X-5.627 Y-7.229 A3.30689
G1 X-5.777 Y-7.169 A3.31201
G1 X-6.514 Y-6.878 A3.33705
G1 X-7.351 Y-6.418 A3.36721
G1 X-8.123 Y-5.857 A3.39737
G1 X-8.819 Y-5.203 A3.42753
G1 X-9.318 Y-4.600 A3.45228
G1 X-10.678 Y-4.600 A3.49524
G1 X-10.678 Y-5.400 A3.52052
G1 X-9.689 Y-5.400 A3.55175
G1 X-9.400 Y-5.749 A3.56608
G1 X-8.631 Y-6.471 A3.59941
G1 X-7.778 Y-7.091 A3.63273
G1 X-6.854 Y-7.599 A3.66606
G1 X-5.873 Y-7.988 A3.69939
G1 X-4.851 Y-8.250 A3.73271
G1 X-3.805 Y-8.382 A3.76604
G1 X-2.750 Y-8.382 A3.79937
G1 X-1.704 Y-8.250 A3.83269
G1 X-0.682 Y-7.988 A3.86602
G1 X0.298 Y-7.599 A3.89935
G1 X1.223 Y-7.091 A3.93267
G1 X2.076 Y-6.471 A3.96600
G1 X2.845 Y-5.749 A3.99933
G1 X3.517 Y-4.937 A4.03265
G1 X4.082 Y-4.046 A4.06598
G1 X4.531 Y-3.092 A4.09931
G1 X4.732 Y-2.475 A4.11980
G1 X8.322 Y-2.475 A4.23325
G1 X8.322 Y-4.400 A4.29407
G1 X10.722 Y-4.400 A4.36991
G1 X10.722 Y4.400 A4.64796
G1 X8.322 Y4.400 A4.72379
G1 X8.322 Y2.535 A4.78272
G1 X7.922 Y2.875 F4800.000
G1 X5.022 Y2.875 A4.87435 F2100.000
G1 X4.904 Y3.239 A4.88646
G1 X4.434 Y4.239 A4.92138
G1 X3.841 Y5.172 A4.95629
G1 X3.137 Y6.024 A4.99121
G1 X2.331 Y6.780 A5.02613
G1 X1.437 Y7.430 A5.06104
G1 X0.469 Y7.962 A5.09596
G1 X-0.558 Y8.369 A5.13088
G1 X-1.629 Y8.644 A5.16579
G1 X-2.725 Y8.782 A5.20071
G1 X-3.830 Y8.782 A5.23563
G1 X-4.926 Y8.644 A5.27054
G1 X-5.915 Y8.401 A5.30271
G1 X-7.024 Y7.962 A5.34040
G1 X-7.993 Y7.430 A5.37532
G1 X-8.887 Y6.780 A5.41023
G1 X-9.692 Y6.024 A5.44515
G1 X-9.877 Y5.800 A5.45433
G1 X-11.078 Y5.800 A5.49225
G1 X-11.078 Y4.200 A5.54281
G1 X-9.130 Y4.200 A5.60436
G1 X-8.526 Y4.929 A5.63425
G1 X-7.867 Y5.548 A5.66283
G1 X-7.136 Y6.079 A5.69140
G1 X-6.343 Y6.515 A5.71997
G1 X-5.503 Y6.848 A5.74854
G1 X-4.627 Y7.073 A5.77711
G1 X-3.730 Y7.186 A5.80568
G1 X-2.825 Y7.186 A5.83425
G1 X-1.928 Y7.073 A5.86282
G1 X-1.053 Y6.848 A5.89140
G1 X-0.212 Y6.515 A5.91997
G1 X0.581 Y6.079 A5.94854
G1 X1.312 Y5.548 A5.97711
G1 X1.971 Y4.929 A6.00568
G1 X2.548 Y4.232 A6.03425
G1 X3.032 Y3.469 A6.06282
G1 X3.417 Y2.651 A6.09139
G1 X3.697 Y1.791 A6.11996
G1 X3.866 Y0.902 A6.14854
G1 X3.923 Y-0.000 A6.17711
G1 X3.866 Y-0.902 A6.20568
G1 X3.697 Y-1.791 A6.23425
G1 X3.417 Y-2.651 A6.26282
G1 X3.032 Y-3.469 A6.29139
G1 X2.548 Y-4.232 A6.31996
G1 X1.971 Y-4.929 A6.34853
G1 X1.312 Y-5.548 A6.37711
G1 X0.581 Y-6.079 A6.40568
G1 X-0.212 Y-6.515 A6.43425
G1 X-1.053 Y-6.848 A6.46282
G1 X-1.928 Y-7.073 A6.49139
G1 X-2.825 Y-7.186 A6.51996
G1 X-3.730 Y-7.186 A6.54853
G1 X-4.627 Y-7.073 A6.57710
G1 X-5.503 Y-6.848 A6.60567
G1 X-5.630 Y-6.798 A6.61001
G1 X-6.343 Y-6.515 A6.63425
G1 X-7.136 Y-6.079 A6.66282
G1 X-7.867 Y-5.548 A6.69139
G1 X-8.526 Y-4.929 A6.71996
G1 X-9.130 Y-4.200 A6.74985
G1 X-11.078 Y-4.200 A6.81141
G1 X-11.078 Y-5.800 A6.86196
G1 X-9.877 Y-5.800 A6.89989
G1 X-9.692 Y-6.024 A6.90906
G1 X-8.887 Y-6.780 A6.94398
G1 X-7.993 Y-7.430 A6.97890
G1 X-7.024 Y-7.962 A7.01381
G1 X-5.997 Y-8.369 A7.04873
G1 X-4.926 Y-8.644 A7.08365
G1 X-3.830 Y-8.782 A7.11856
G1 X-2.725 Y-8.782 A7.15348
G1 X-1.629 Y-8.644 A7.18840
G1 X-0.558 Y-8.369 A7.22331
G1 X0.469 Y-7.962 A7.25823
G1 X1.437 Y-7.430 A7.29315
G1 X2.331 Y-6.780 A7.32806
G1 X3.137 Y-6.024 A7.36298
G1 X3.841 Y-5.172 A7.39790
G1 X4.434 Y-4.239 A7.43282
G1 X4.904 Y-3.239 A7.46773
G1 X5.022 Y-2.875 A7.47984
G1 X7.922 Y-2.875 A7.57147
G1 X7.922 Y-4.800 A7.63229
G1 X11.122 Y-4.800 A7.73340
G1 X11.122 Y4.800 A8.03674
G1 X7.922 Y4.800 A8.13785
G1 X7.922 Y2.935 A8.19677
G1 X7.922 Y2.475 F4800.000
G1 X9.044 Y3.043 F4800.000
G1 X9.679 Y3.679 A8.24137 F4800.000
G1 X4.852 Y1.717 F4800.000
G1 X4.889 Y1.754 A8.24397 F4800.000
G1 X5.844 Y1.754 A8.29137
G1 X4.990 Y0.899 A8.35135
G1 X5.046 Y0.001 A8.39602
G1 X6.799 Y1.754 A8.51906
G1 X7.754 Y1.754 A8.56645
G1 X4.982 Y-1.018 A8.76101
G1 X5.202 Y-1.754 A8.79910
G1 X10.001 Y3.046 A9.13597
G1 X10.001 Y2.091 A9.18337
G1 X6.157 Y-1.754 A9.45321
G1 X7.112 Y-1.754 A9.50061
G1 X10.001 Y1.136 A9.70342
G1 X10.001 Y0.181 A9.75082
G1 X8.066 Y-1.754 A9.88661
G1 X9.021 Y-1.754 A9.93400
G1 X10.001 Y-0.774 A10.00277
G1 X10.001 Y-1.729 A10.05017
G1 X9.044 Y-2.686 A10.11736
G1 X9.044 Y-3.641 A10.16475
G1 X10.001 Y-2.684 A10.23195
G1 X10.001 Y-3.639 A10.27934
G1 X9.961 Y-3.679 A10.28215
G1 X4.378 Y2.275 F4800.000
G1 X4.160 Y2.945 A10.29567 F2400.000
G1 X3.738 Y3.843 A10.31470
G1 X3.194 Y4.702 A10.33422
G1 X2.554 Y5.476 A10.35350
G1 X1.822 Y6.164 A10.37277
G1 X1.009 Y6.754 A10.39205
G1 X0.129 Y7.238 A10.41133
G1 X-0.806 Y7.608 A10.43061
G1 X-1.779 Y7.858 A10.44989
G1 X-2.775 Y7.984 A10.46916
G1 X-3.780 Y7.984 A10.48844
G1 X-4.777 Y7.858 A10.50772
G1 X-5.750 Y7.608 A10.52700
G1 X-6.684 Y7.238 A10.54627
G1 X-7.564 Y6.754 A10.56555
G1 X-8.377 Y6.164 A10.58483
G1 X-9.109 Y5.476 A10.60411
G1 X-9.510 Y5.009 A10.61592
G1 X-10.478 Y5.000 A10.63449
G1 F3000.000 A10.03449
G92 A0
G1 X-9.338 Y-5.200 F4800.000
G1 A0.60000 F3000.000
G1 X-9.109 Y-5.476 A0.60688 F2400.000
G1 X-8.377 Y-6.164 A0.62616
G1 X-7.564 Y-6.754 A0.64544
G1 X-6.684 Y-7.238 A0.66472
G1 X-5.750 Y-7.608 A0.68399
G1 X-4.777 Y-7.858 A0.70327
G1 X-3.780 Y-7.984 A0.72255
G1 X-2.775 Y-7.984 A0.74183
G1 X-1.779 Y-7.858 A0.76110
G1 X-0.806 Y-7.608 A0.78038
G1 X0.129 Y-7.238 A0.79966
G1 X1.009 Y-6.754 A0.81894
G1 X1.822 Y-6.164 A0.83821
G1 X2.554 Y-5.476 A0.85749
G1 X3.194 Y-4.702 A0.87677
G1 X3.738 Y-3.843 A0.89629
G1 X4.160 Y-2.945 A0.91532
G1 X4.378 Y-2.275 A0.92884
G1 F3000.000 A0.32884
G92 A0
G1 Z2.000 F4800.000
G1 X8.722 Y2.075 F4800.000
G1 A0.60000 F3000.000
G1 X4.457 Y2.075 A0.73478 F3000.000
G1 X4.661 Y1.003 A0.76927
G1 X4.724 Y-0.000 A0.80102
G1 X4.661 Y-1.003 A0.83277
G1 X4.457 Y-2.075 A0.86726
G1 X8.722 Y-2.075 A1.00204
G1 X8.722 Y-4.000 A1.06286
G1 X10.322 Y-4.000 A1.11342
G1 X10.322 Y4.000 A1.36620
G1 X8.722 Y4.000 A1.41675
G1 X8.722 Y2.135 A1.47568
G1 X8.322 Y2.475 F4800.000
G1 X4.732 Y2.475 A1.58913 F3000.000
G1 X4.531 Y3.092 A1.60962
G1 X4.082 Y4.046 A1.64295
G1 X3.517 Y4.937 A1.67628
G1 X2.845 Y5.749 A1.70960
G1 X2.076 Y6.471 A1.74293
G1 X1.223 Y7.091 A1.77626
G1 X0.298 Y7.599 A1.80958
G1 X-0.682 Y7.988 A1.84291
G1 X-1.704 Y8.250 A1.87624
G1 X-2.750 Y8.382 A1.90956
G1 X-3.805 Y8.382 A1.94289
G1 X-4.851 Y8.250 A1.97622
G1 X-5.873 Y7.988 A2.00954
G1 X-6.740 Y7.644 A2.03902
G1 X-6.740 Y7.662 A2.03957
G1 X-7.778 Y7.091 A2.07698
G1 X-8.631 Y6.471 A2.11031
G1 X-9.400 Y5.749 A2.14363
G1 X-9.689 Y5.400 A2.15796
G1 X-10.678 Y5.400 A2.18919
G1 X-10.678 Y4.600 A2.21447
G1 X-9.318 Y4.600 A2.25744
G1 X-8.819 Y5.203 A2.28218
G1 X-8.123 Y5.857 A2.31234
G1 X-7.351 Y6.418 A2.34250
G1 X-6.514 Y6.878 A2.37267
G1 X-5.627 Y7.229 A2.40283
G1 X-4.702 Y7.467 A2.43299
G1 X-3.755 Y7.586 A2.46315
G1 X-2.800 Y7.586 A2.49331
G1 X-1.853 Y7.467 A2.52347
G1 X-0.929 Y7.229 A2.55363
G1 X-0.041 Y6.878 A2.58380
G1 X0.795 Y6.418 A2.61396
G1 X1.568 Y5.857 A2.64412
G1 X2.263 Y5.203 A2.67428
G1 X2.872 Y4.468 A2.70444
G1 X3.383 Y3.662 A2.73460
G1 X3.790 Y2.798 A2.76477
G1 X4.085 Y1.890 A2.79493
G1 X4.264 Y0.953 A2.82509
G1 X4.324 Y-0.000 A2.85525
G1 X4.264 Y-0.953 A2.88541
G1 X4.085 Y-1.890 A2.91557
G1 X3.790 Y-2.798 A2.94573
G1 X3.383 Y-3.662 A2.97590
G1 X2.872 Y-4.468 A3.00606
G1 X2.263 Y-5.203 A3.03622
G1 X1.568 Y-5.857 A3.06638
G1 X0.795 Y-6.418 A3.09654
G1 X-0.041 Y-6.878 A3.12670
G1 X-0.929 Y-7.229 A3.15687
G1 X-1.853 Y-7.467 A3.18703
G1 X-2.800 Y-7.586 A3.21719
G1 X-3.755 Y-7.586 A3.24735
G1 X-4.702 Y-7.467 A3.27751
G1 X-5.627 Y-7.229 A3.30767
G1 X-5.791 Y-7.164 A3.31326
G1 X-6.514 Y-6.878 A3.33783
G1 X-7.351 Y-6.418 A3.36800
G1 X-8.123 Y-5.857 A3.39816
G1 X-8.819 Y-5.203 A3.42832
G1 X-9.318 Y-4.600 A3.45306
G1 X-10.678 Y-4.600 A3.49603
G1 X-10.678 Y-5.400 A3.52131
G1 X-9.689 Y-5.400 A3.55254
G1 X-9.400 Y-5.749 A3.56687
G1 X-8.631 Y-6.471 A3.60019
G1 X-7.778 Y-7.091 A3.63352
G1 X-6.854 Y-7.599 A3.66685
G1 X-5.873 Y-7.988 A3.70017
G1 X-4.851 Y-8.250 A3.73350
G1 X-3.805 Y-8.382 A3.76683
G1 X-2.750 Y-8.382 A3.80015
G1 X-1.704 Y-8.250 A3.83348
G1 X-0.682 Y-7.988 A3.86680
G1 X0.298 Y-7.599 A3.90013
G1 X1.223 Y-7.091 A3.93346
G1 X2.076 Y-6.471 A3.96678
G1 X2.845 Y-5.749 A4.00011
G1 X3.517 Y-4.937 A4.03344
G1 X4.082 Y-4.046 A4.06676
G1 X4.531 Y-3.092 A4.10009
G1 X4.732 Y-2.475 A4.12058
G1 X8.322 Y-2.475 A4.23403
G1 X8.322 Y-4.400 A4.29486
G1 X10.722 Y-4.400 A4.37069
G1 X10.722 Y4.400 A4.64875
G1 X8.322 Y4.400 A4.72458
G1 X8.322 Y2.535 A4.78351
G1 X7.922 Y2.875 F4800.000
G1 X5.022 Y2.875 A4.87514 F2100.000
G1 X4.904 Y3.239 A4.88724
G1 X4.434 Y4.239 A4.92216
G1 X3.841 Y5.172 A4.95708
G1 X3.137 Y6.024 A4.99199
G1 X2.331 Y6.780 A5.02691
G1 X1.437 Y7.430 A5.06183
G1 X0.469 Y7.962 A5.09674
G1 X-0.558 Y8.369 A5.13166
G1 X-1.629 Y8.644 A5.16658
G1 X-2.725 Y8.782 A5.20150
G1 X-3.830 Y8.782 A5.23641
G1 X-4.926 Y8.644 A5.27133
G1 X-5.997 Y8.369 A5.30625
G1 X-7.024 Y7.962 A5.34116
G1 X-7.993 Y7.430 A5.37608
G1 X-8.887 Y6.780 A5.41100
G1 X-9.692 Y6.024 A5.44591
G1 X-9.877 Y5.800 A5.45509
G1 X-11.078 Y5.800 A5.49301
G1 X-11.078 Y4.200 A5.54357
G1 X-9.130 Y4.200 A5.60512
G1 X-8.526 Y4.929 A5.63502
G1 X-7.867 Y5.548 A5.66359
G1 X-7.136 Y6.079 A5.69216
G1 X-6.343 Y6.515 A5.72073
G1 X-5.503 Y6.848 A5.74930
G1 X-4.627 Y7.073 A5.77787
G1 X-3.730 Y7.186 A5.80644
G1 X-2.825 Y7.186 A5.83501
G1 X-1.928 Y7.073 A5.86359
G1 X-1.053 Y6.848 A5.89216
G1 X-0.212 Y6.515 A5.92073
G1 X0.581 Y6.079 A5.94930
G1 X1.312 Y5.548 A5.97787
G1 X1.971 Y4.929 A6.00644
G1 X2.548 Y4.232 A6.03501
G1 X3.032 Y3.469 A6.06358
G1 X3.417 Y2.651 A6.09215
G1 X3.697 Y1.791 A6.12073
G1 X3.866 Y0.902 A6.14930
G1 X3.923 Y-0.000 A6.17787
G1 X3.866 Y-0.902 A6.20644
G1 X3.697 Y-1.791 A6.23501
G1 X3.417 Y-2.651 A6.26358
G1 X3.032 Y-3.469 A6.29215
G1 X2.548 Y-4.232 A6.32072
G1 X1.971 Y-4.929 A6.34930
G1 X1.312 Y-5.548 A6.37787
G1 X0.581 Y-6.079 A6.40644
G1 X-0.212 Y-6.515 A6.43501
G1 X-1.053 Y-6.848 A6.46358
G1 X-1.928 Y-7.073 A6.49215
G1 X-2.825 Y-7.186 A6.52072
G1 X-3.730 Y-7.186 A6.54929
G1 X-4.627 Y-7.073 A6.57786
G1 X-5.503 Y-6.848 A6.60644
G1 X-5.644 Y-6.792 A6.61123
G1 X-6.343 Y-6.515 A6.63501
G1 X-7.136 Y-6.079 A6.66358
G1 X-7.867 Y-5.548 A6.69215
G1 X-8.526 Y-4.929 A6.72072
G1 X-9.130 Y-4.200 A6.75062
G1 X-11.078 Y-4.200 A6.81217
G1 X-11.078 Y-5.800 A6.86272
G1 X-9.877 Y-5.800 A6.90065
G1 X-9.692 Y-6.024 A6.90982
G1 X-8.887 Y-6.780 A6.94474
G1 X-7.993 Y-7.430 A6.97966
G1 X-6.933 Y-8.012 A7.01787
G1 X-6.933 Y-7.998 A7.01831
G1 X-5.997 Y-8.369 A7.05012
G1 X-4.926 Y-8.644 A7.08504
G1 X-3.830 Y-8.782 A7.11996
G1 X-2.725 Y-8.782 A7.15487
G1 X-1.629 Y-8.644 A7.18979
G1 X-0.558 Y-8.369 A7.22471
G1 X0.469 Y-7.962 A7.25963
G1 X1.437 Y-7.430 A7.29454
G1 X2.331 Y-6.780 A7.32946
G1 X3.137 Y-6.024 A7.36438
G1 X3.841 Y-5.172 A7.39929
G1 X4.434 Y-4.239 A7.43421
G1 X4.904 Y-3.239 A7.46913
G1 X5.022 Y-2.875 A7.48123
G1 X7.922 Y-2.875 A7.57286
G1 X7.922 Y-4.800 A7.63369
G1 X11.122 Y-4.800 A7.73480
G1 X11.122 Y4.800 A8.03813
G1 X7.922 Y4.800 A8.13924
G1 X7.922 Y2.935 A8.19817
G1 X7.922 Y2.475 F4800.000
G1 X10.001 Y3.639 F4800.000
G1 X9.961 Y3.679 A8.20098 F4800.000
G1 X9.044 Y3.641 A8.24654
G1 X10.001 Y2.684 A8.31373
G1 X10.001 Y1.729 A8.36113
G1 X9.044 Y2.686 A8.42832
G1 X9.021 Y1.754 A8.47462
G1 X10.001 Y0.774 A8.54338
G1 X10.001 Y-0.181 A8.59078
G1 X8.066 Y1.754 A8.72657
G1 X7.112 Y1.754 A8.77396
G1 X10.001 Y-1.136 A8.97678
G1 X10.001 Y-2.091 A9.02418
G1 X6.157 Y1.754 A9.29402
G1 X5.202 Y1.754 A9.34141
G1 X10.001 Y-3.046 A9.67828
G1 X9.679 Y-3.679 A9.71353
G1 X9.044 Y-3.043 A9.75813
G1 X7.754 Y-1.754 F4800.000
G1 X4.982 Y1.018 A9.95268 F4800.000
G1 X5.046 Y-0.001 A10.00335
G1 X6.799 Y-1.754 A10.12639
G1 X5.844 Y-1.754 A10.17378
G1 X4.990 Y-0.899 A10.23376
G1 X4.852 Y-1.717 A10.27490
G1 X4.889 Y-1.754 A10.27750
G1 X4.378 Y2.275 F4800.000
G1 X4.160 Y2.945 A10.29102 F2400.000
G1 X3.738 Y3.843 A10.31006
G1 X3.194 Y4.702 A10.32958
G1 X2.554 Y5.476 A10.34885
G1 X1.822 Y6.164 A10.36813
G1 X1.009 Y6.754 A10.38741
G1 X0.129 Y7.238 A10.40669
G1 X-0.806 Y7.608 A10.42596
G1 X-1.779 Y7.858 A10.44524
G1 X-2.775 Y7.984 A10.46452
G1 X-3.780 Y7.984 A10.48380
G1 X-4.777 Y7.858 A10.50308
G1 X-5.750 Y7.608 A10.52235
G1 X-6.684 Y7.238 A10.54163
G1 X-7.564 Y6.754 A10.56091
G1 X-8.377 Y6.164 A10.58019
G1 X-9.109 Y5.476 A10.59946
G1 X-9.510 Y5.009 A10.61128
G1 X-10.478 Y5.000 A10.62984
G1 F3000.000 A10.02984
G92 A0
G1 X-9.338 Y-5.200 F4800.000
G1 A0.60000 F3000.000
G1 X-9.109 Y-5.476 A0.60688 F2400.000
G1 X-8.377 Y-6.164 A0.62616
G1 X-7.564 Y-6.754 A0.64544
G1 X-6.684 Y-7.238 A0.66472
G1 X-5.750 Y-7.608 A0.68399
G1 X-4.777 Y-7.858 A0.70327
G1 X-3.780 Y-7.984 A0.72255
G1 X-2.775 Y-7.984 A0.74183
G1 X-1.779 Y-7.858 A0.76110
G1 X-0.806 Y-7.608 A0.78038
G1 X0.129 Y-7.238 A0.79966
G1 X1.009 Y-6.754 A0.81894
G1 X1.822 Y-6.164 A0.83821
G1 X2.554 Y-5.476 A0.85749
G1 X3.194 Y-4.702 A0.87677
G1 X3.738 Y-3.843 A0.89629
G1 X4.160 Y-2.945 A0.91532
G1 X4.378 Y-2.275 A0.92884
G1 F3000.000 A0.32884
G92 A0
G1 Z2.200 F4800.000
G1 X8.722 Y2.075 F4800.000
G1 A0.60000 F3000.000
G1 X4.457 Y2.075 A0.73478 F3000.000
G1 X4.661 Y1.003 A0.76927
G1 X4.724 Y-0.000 A0.80102
G1 X4.661 Y-1.003 A0.83277
G1 X4.457 Y-2.075 A0.86726
G1 X8.722 Y-2.075 A1.00204
G1 X8.722 Y-4.000 A1.06286
G1 X10.322 Y-4.000 A1.11342
G1 X10.322 Y4.000 A1.36620
G1 X8.722 Y4.000 A1.41675
G1 X8.722 Y2.135 A1.47568
G1 X8.322 Y2.475 F4800.000
G1 X4.732 Y2.475 A1.58913 F3000.000
G1 X4.531 Y3.092 A1.60962
G1 X4.082 Y4.046 A1.64295
G1 X3.517 Y4.937 A1.67628
G1 X2.845 Y5.749 A1.70960
G1 X2.076 Y6.471 A1.74293
G1 X1.223 Y7.091 A1.77626
G1 X0.298 Y7.599 A1.80958
G1 X-0.682 Y7.988 A1.84291
G1 X-1.704 Y8.250 A1.87624
G1 X-2.750 Y8.382 A1.90956
G1 X-3.805 Y8.382 A1.94289
G1 X-4.851 Y8.250 A1.97622
G1 X-5.873 Y7.988 A2.00954
G1 X-6.854 Y7.599 A2.04287
G1 X-7.778 Y7.091 A2.07619
G1 X-8.631 Y6.471 A2.10952
G1 X-9.400 Y5.749 A2.14285
G1 X-9.689 Y5.400 A2.15718
G1 X-10.678 Y5.400 A2.18841
G1 X-10.678 Y4.600 A2.21369
G1 X-9.318 Y4.600 A2.25665
G1 X-8.819 Y5.203 A2.28140
G1 X-8.123 Y5.857 A2.31156
G1 X-7.351 Y6.418 A2.34172
G1 X-6.514 Y6.878 A2.37188
G1 X-5.627 Y7.229 A2.40204
G1 X-4.702 Y7.467 A2.43220
G1 X-3.755 Y7.586 A2.46236
G1 X-2.800 Y7.586 A2.49253
G1 X-1.853 Y7.467 A2.52269
G1 X-0.929 Y7.229 A2.55285
G1 X-0.041 Y6.878 A2.58301
G1 X0.795 Y6.418 A2.61317
G1 X1.568 Y5.857 A2.64333
G1 X2.263 Y5.203 A2.67350
G1 X2.872 Y4.468 A2.70366
G1 X3.383 Y3.662 A2.73382
G1 X3.790 Y2.798 A2.76398
G1 X4.085 Y1.890 A2.79414
G1 X4.264 Y0.953 A2.82430
G1 X4.324 Y-0.000 A2.85446
G1 X4.264 Y-0.953 A2.88463
G1 X4.085 Y-1.890 A2.91479
G1 X3.790 Y-2.798 A2.94495
G1 X3.383 Y-3.662 A2.97511
G1 X2.872 Y-4.468 A3.00527
G1 X2.263 Y-5.203 A3.03543
G1 X1.568 Y-5.857 A3.06559
G1 X0.795 Y-6.418 A3.09576
G1 X-0.041 Y-6.878 A3.12592
G1 X-0.929 Y-7.229 A3.15608
G1 X-1.853 Y-7.467 A3.18624
G1 X-2.800 Y-7.586 A3.21640
G1 X-3.755 Y-7.586 A3.24656
G1 X-4.702 Y-7.467 A3.27673
G1 X-5.627 Y-7.229 A3.30689
G1 X-6.514 Y-6.878 A3.33705
G1 X-7.351 Y-6.418 A3.36721
G1 X-8.123 Y-5.857 A3.39737
G1 X-8.819 Y-5.203 A3.42753
G1 X-9.318 Y-4.600 A3.45228
G1 X-10.678 Y-4.600 A3.49524
G1 X-10.678 Y-5.400 A3.52052
G1 X-9.689 Y-5.400 A3.55175
G1 X-9.400 Y-5.749 A3.56608
G1 X-8.631 Y-6.471 A3.59941
G1 X-7.778 Y-7.091 A3.63273
G1 X-6.854 Y-7.599 A3.66606
G1 X-5.803 Y-8.016 A3.70177
G1 X-4.851 Y-8.250 A3.73273
G1 X-3.805 Y-8.382 A3.76606
G1 X-2.750 Y-8.382 A3.79939
G1 X-1.704 Y-8.250 A3.83271
G1 X-0.682 Y-7.988 A3.86604
G1 X0.298 Y-7.599 A3.89937
G1 X1.223 Y-7.091 A3.93269
G1 X2.076 Y-6.471 A3.96602
G1 X2.845 Y-5.749 A3.99935
G1 X3.517 Y-4.937 A4.03267
G1 X4.082 Y-4.046 A4.06600
G1 X4.531 Y-3.092 A4.09933
G1 X4.732 Y-2.475 A4.11982
G1 X8.322 Y-2.475 A4.23327
G1 X8.322 Y-4.400 A4.29409
G1 X10.722 Y-4.400 A4.36993
G1 X10.722 Y4.400 A4.64798
G1 X8.322 Y4.400 A4.72382
G1 X8.322 Y2.535 A4.78274
G1 X7.922 Y2.875 F4800.000
G1 X5.022 Y2.875 A4.87437 F2100.000
G1 X4.904 Y3.239 A4.88648
G1 X4.434 Y4.239 A4.92140
G1 X3.841 Y5.172 A4.95631
G1 X3.137 Y6.024 A4.99123
G1 X2.331 Y6.780 A5.02615
G1 X1.437 Y7.430 A5.06106
G1 X0.469 Y7.962 A5.09598
G1 X-0.558 Y8.369 A5.13090
G1 X-1.629 Y8.644 A5.16581
G1 X-2.725 Y8.782 A5.20073
G1 X-3.830 Y8.782 A5.23565
G1 X-4.926 Y8.644 A5.27056
G1 X-5.997 Y8.369 A5.30548
G1 X-7.024 Y7.962 A5.34040
G1 X-7.993 Y7.430 A5.37531
G1 X-8.887 Y6.780 A5.41023
G1 X-9.692 Y6.024 A5.44515
G1 X-9.877 Y5.800 A5.45432
G1 X-11.078 Y5.800 A5.49225
G1 X-11.078 Y4.200 A5.54280
G1 X-9.130 Y4.200 A5.60436
G1 X-8.526 Y4.929 A5.63425
G1 X-7.867 Y5.548 A5.66282
G1 X-7.136 Y6.079 A5.69139
G1 X-6.343 Y6.515 A5.71996
G1 X-5.503 Y6.848 A5.74854
G1 X-4.627 Y7.073 A5.77711
G1 X-3.730 Y7.186 A5.80568
G1 X-2.825 Y7.186 A5.83425
G1 X-1.928 Y7.073 A5.86282
G1 X-1.053 Y6.848 A5.89139
G1 X-0.212 Y6.515 A5.91996
G1 X0.581 Y6.079 A5.94853
G1 X1.312 Y5.548 A5.97711
G1 X1.971 Y4.929 A6.00568
G1 X2.548 Y4.232 A6.03425
G1 X3.032 Y3.469 A6.06282
G1 X3.417 Y2.651 A6.09139
G1 X3.697 Y1.791 A6.11996
G1 X3.866 Y0.902 A6.14853
G1 X3.923 Y-0.000 A6.17710
G1 X3.866 Y-0.902 A6.20567
G1 X3.697 Y-1.791 A6.23425
G1 X3.417 Y-2.651 A6.26282
G1 X3.032 Y-3.469 A6.29139
G1 X2.548 Y-4.232 A6.31996
G1 X1.971 Y-4.929 A6.34853
G1 X1.312 Y-5.548 A6.37710
G1 X0.581 Y-6.079 A6.40567
G1 X-0.212 Y-6.515 A6.43424
G1 X-1.053 Y-6.848 A6.46282
G1 X-1.928 Y-7.073 A6.49139
G1 X-2.825 Y-7.186 A6.51996
G1 X-3.730 Y-7.186 A6.54853
G1 X-4.627 Y-7.073 A6.57710
G1 X-5.503 Y-6.848 A6.60567
G1 X-6.343 Y-6.515 A6.63424
G1 X-7.136 Y-6.079 A6.66281
G1 X-7.867 Y-5.548 A6.69138
G1 X-8.526 Y-4.929 A6.71996
G1 X-9.130 Y-4.200 A6.74985
G1 X-11.078 Y-4.200 A6.81140
G1 X-11.078 Y-5.800 A6.86196
G1 X-9.877 Y-5.800 A6.89988
G1 X-9.692 Y-6.024 A6.90906
G1 X-8.887 Y-6.780 A6.94398
G1 X-7.993 Y-7.430 A6.97889
G1 X-6.950 Y-8.003 A7.01651
G1 X-5.997 Y-8.369 A7.04875
G1 X-4.926 Y-8.644 A7.08367
G1 X-3.830 Y-8.782 A7.11858
G1 X-2.725 Y-8.782 A7.15350
G1 X-1.629 Y-8.644 A7.18842
G1 X-0.558 Y-8.369 A7.22333
G1 X0.469 Y-7.962 A7.25825
G1 X1.437 Y-7.430 A7.29317
G1 X2.331 Y-6.780 A7.32808
G1 X3.137 Y-6.024 A7.36300
G1 X3.841 Y-5.172 A7.39792
G1 X4.434 Y-4.239 A7.43283
G1 X4.904 Y-3.239 A7.46775
G1 X5.022 Y-2.875 A7.47986
G1 X7.922 Y-2.875 A7.57149
G1 X7.922 Y-4.800 A7.63231
G1 X11.122 Y-4.800 A7.73342
G1 X11.122 Y4.800 A8.03675
G1 X7.922 Y4.800 A8.13787
G1 X7.922 Y2.935 A8.19679
G1 X7.922 Y2.475 F4800.000
G1 X9.044 Y3.043 F4800.000
G1 X9.679 Y3.679 A8.24139 F4800.000
G1 X4.852 Y1.717 F4800.000
G1 X4.889 Y1.754 A8.24399 F4800.000
G1 X5.844 Y1.754 A8.29139
G1 X4.990 Y0.899 A8.35137
G1 X5.046 Y0.001 A8.39604
G1 X6.799 Y1.754 A8.51908
G1 X7.754 Y1.754 A8.56647
G1 X4.982 Y-1.018 A8.76103
G1 X5.202 Y-1.754 A8.79912
G1 X10.001 Y3.046 A9.13599
G1 X10.001 Y2.091 A9.18339
G1 X6.157 Y-1.754 A9.45323
G1 X7.112 Y-1.754 A9.50062
G1 X10.001 Y1.136 A9.70344
G1 X10.001 Y0.181 A9.75084
G1 X8.066 Y-1.754 A9.88663
G1 X9.021 Y-1.754 A9.93402
G1 X10.001 Y-0.774 A10.00279
G1 X10.001 Y-1.729 A10.05019
G1 X9.044 Y-2.686 A10.11738
G1 X9.044 Y-3.641 A10.16477
G1 X10.001 Y-2.684 A10.23196
G1 X10.001 Y-3.639 A10.27936
G1 X9.961 Y-3.679 A10.28217
G1 X4.378 Y2.275 F4800.000
G1 X4.160 Y2.945 A10.29568 F2400.000
G1 X3.738 Y3.843 A10.31472
G1 X3.194 Y4.702 A10.33424
G1 X2.554 Y5.476 A10.35352
G1 X1.822 Y6.164 A10.37279
G1 X1.009 Y6.754 A10.39207
G1 X0.129 Y7.238 A10.41135
G1 X-0.806 Y7.608 A10.43063
G1 X-1.779 Y7.858 A10.44990
G1 X-2.775 Y7.984 A10.46918
G1 X-3.780 Y7.984 A10.48846
G1 X-4.777 Y7.858 A10.50774
G1 X-5.750 Y7.608 A10.52702
G1 X-6.684 Y7.238 A10.54629
G1 X-7.564 Y6.754 A10.56557
G1 X-8.377 Y6.164 A10.58485
G1 X-9.109 Y5.476 A10.60413
G1 X-9.510 Y5.009 A10.61594
G1 X-10.478 Y5.000 A10.63451
G1 F3000.000 A10.03451
G92 A0
G1 X-9.338 Y-5.200 F4800.000
G1 A0.60000 F3000.000
G1 X-9.109 Y-5.476 A0.60688 F2400.000
G1 X-8.377 Y-6.164 A0.62616
G1 X-7.564 Y-6.754 A0.64544
G1 X-6.684 Y-7.238 A0.66472
G1 X-5.750 Y-7.608 A0.68399
G1 X-4.777 Y-7.858 A0.70327
G1 X-3.780 Y-7.984 A0.72255
G1 X-2.775 Y-7.984 A0.74183
G1 X-1.779 Y-7.858 A0.76110
G1 X-0.806 Y-7.608 A0.78038
G1 X0.129 Y-7.238 A0.79966
G1 X1.009 Y-6.754 A0.81894
G1 X1.822 Y-6.164 A0.83821
G1 X2.554 Y-5.476 A0.85749
G1 X3.194 Y-4.702 A0.87677
G1 X3.738 Y-3.843 A0.89629
G1 X4.160 Y-2.945 A0.91532
G1 X4.378 Y-2.275 A0.92884
G1 F3000.000 A0.32884
G92 A0
G1 Z2.400 F4800.000
G1 X8.722 Y2.075 F4800.000
G1 A0.60000 F3000.000
G1 X4.457 Y2.075 A0.73478 F3000.000
G1 X4.661 Y1.003 A0.76927
G1 X4.724 Y-0.000 A0.80102
G1 X4.661 Y-1.003 A0.83277
G1 X4.457 Y-2.075 A0.86726
G1 X8.722 Y-2.075 A1.00204
G1 X8.722 Y-4.000 A1.06286
G1 X10.322 Y-4.000 A1.11342
G1 X10.322 Y4.000 A1.36620
G1 X8.722 Y4.000 A1.41675
G1 X8.722 Y2.135 A1.47568
G1 X8.322 Y2.475 F4800.000
G1 X4.732 Y2.475 A1.58913 F3000.000
G1 X4.531 Y3.092 A1.60962
G1 X4.082 Y4.046 A1.64295
G1 X3.517 Y4.937 A1.67628
G1 X2.845 Y5.749 A1.70960
G1 X2.076 Y6.471 A1.74293
G1 X1.223 Y7.091 A1.77626
G1 X0.298 Y7.599 A1.80958
G1 X-0.682 Y7.988 A1.84291
G1 X-1.704 Y8.250 A1.87624
G1 X-2.750 Y8.382 A1.90956
G1 X-3.805 Y8.382 A1.94289
G1 X-4.851 Y8.250 A1.97622
G1 X-5.873 Y7.988 A2.00954
G1 X-6.773 Y7.644 A2.04000
G1 X-7.778 Y7.091 A2.07622
G1 X-8.631 Y6.471 A2.10955
G1 X-9.400 Y5.749 A2.14287
G1 X-9.689 Y5.400 A2.15720
G1 X-10.678 Y5.400 A2.18843
G1 X-10.678 Y4.600 A2.21371
G1 X-9.343 Y4.600 A2.25587
G1 X-9.270 Y4.716 A2.26020
G1 X-9.222 Y4.716 A2.26171
G1 X-8.819 Y5.203 A2.28171
G1 X-8.123 Y5.857 A2.31187
G1 X-7.351 Y6.418 A2.34203
G1 X-6.514 Y6.878 A2.37219
G1 X-5.627 Y7.229 A2.40236
G1 X-4.702 Y7.467 A2.43252
G1 X-3.755 Y7.586 A2.46268
G1 X-2.800 Y7.586 A2.49284
G1 X-1.853 Y7.467 A2.52300
G1 X-0.929 Y7.229 A2.55316
G1 X-0.041 Y6.878 A2.58333
G1 X0.795 Y6.418 A2.61349
G1 X1.568 Y5.857 A2.64365
G1 X2.263 Y5.203 A2.67381
G1 X2.872 Y4.468 A2.70397
G1 X3.383 Y3.662 A2.73413
G1 X3.790 Y2.798 A2.76429
G1 X4.085 Y1.890 A2.79446
G1 X4.264 Y0.953 A2.82462
G1 X4.324 Y-0.000 A2.85478
G1 X4.264 Y-0.953 A2.88494
G1 X4.085 Y-1.890 A2.91510
G1 X3.790 Y-2.798 A2.94526
G1 X3.383 Y-3.662 A2.97542
G1 X2.872 Y-4.468 A3.00559
G1 X2.263 Y-5.203 A3.03575
G1 X1.568 Y-5.857 A3.06591
G1 X0.795 Y-6.418 A3.09607
G1 X-0.041 Y-6.878 A3.12623
G1 X-0.929 Y-7.229 A3.15639
G1 X-1.853 Y-7.467 A3.18656
G1 X-2.800 Y-7.586 A3.21672
G1 X-3.755 Y-7.586 A3.24688
G1 X-4.702 Y-7.467 A3.27704
G1 X-5.627 Y-7.229 A3.30720
G1 X-6.514 Y-6.878 A3.33736
G1 X-7.351 Y-6.418 A3.36752
G1 X-8.123 Y-5.857 A3.39769
G1 X-8.819 Y-5.203 A3.42785
G1 X-9.318 Y-4.600 A3.45259
G1 X-10.678 Y-4.600 A3.49556
G1 X-10.678 Y-5.400 A3.52083
G1 X-9.689 Y-5.400 A3.55207
G1 X-9.400 Y-5.749 A3.56640
G1 X-8.492 Y-6.602 A3.60575
G1 X-8.492 Y-6.572 A3.60669
G1 X-7.778 Y-7.091 A3.63458
G1 X-6.854 Y-7.599 A3.66791
G1 X-5.889 Y-7.982 A3.70070
G1 X-4.851 Y-8.250 A3.73455
G1 X-3.805 Y-8.382 A3.76788
G1 X-2.750 Y-8.382 A3.80121
G1 X-1.704 Y-8.250 A3.83453
G1 X-0.682 Y-7.988 A3.86786
G1 X0.298 Y-7.599 A3.90119
G1 X1.223 Y-7.091 A3.93451
G1 X2.076 Y-6.471 A3.96784
G1 X2.845 Y-5.749 A4.00117
G1 X3.517 Y-4.937 A4.03449
G1 X4.082 Y-4.046 A4.06782
G1 X4.531 Y-3.092 A4.10115
G1 X4.732 Y-2.475 A4.12164
G1 X8.322 Y-2.475 A4.23509
G1 X8.322 Y-4.400 A4.29591
G1 X10.722 Y-4.400 A4.37175
G1 X10.722 Y4.400 A4.64980
G1 X8.322 Y4.400 A4.72564
G1 X8.322 Y2.535 A4.78456
G1 X7.922 Y2.875 F4800.000
G1 X5.022 Y2.875 A4.87619 F2100.000
G1 X4.904 Y3.239 A4.88830
G1 X4.434 Y4.239 A4.92322
G1 X3.841 Y5.172 A4.95813
G1 X3.137 Y6.024 A4.99305
G1 X2.331 Y6.780 A5.02797
G1 X1.437 Y7.430 A5.06288
G1 X0.469 Y7.962 A5.09780
G1 X-0.558 Y8.369 A5.13272
G1 X-1.629 Y8.644 A5.16763
G1 X-2.725 Y8.782 A5.20255
G1 X-3.830 Y8.782 A5.23747
G1 X-4.926 Y8.644 A5.27238
G1 X-5.997 Y8.369 A5.30730
G1 X-7.024 Y7.962 A5.34222
G1 X-7.993 Y7.430 A5.37713
G1 X-8.887 Y6.780 A5.41205
G1 X-9.692 Y6.024 A5.44697
G1 X-9.877 Y5.800 A5.45614
G1 X-11.078 Y5.800 A5.49407
G1 X-11.078 Y4.200 A5.54462
G1 X-9.123 Y4.200 A5.60637
G1 X-9.050 Y4.316 A5.61070
G1 X-8.526 Y4.929 A5.63618
G1 X-7.867 Y5.548 A5.66475
G1 X-7.136 Y6.079 A5.69332
G1 X-6.343 Y6.515 A5.72189
G1 X-5.503 Y6.848 A5.75047
G1 X-4.627 Y7.073 A5.77904
G1 X-3.730 Y7.186 A5.80761
G1 X-2.825 Y7.186 A5.83618
G1 X-1.928 Y7.073 A5.86475
G1 X-1.053 Y6.848 A5.89332
G1 X-0.212 Y6.515 A5.92189
G1 X0.581 Y6.079 A5.95046
G1 X1.312 Y5.548 A5.97903
G1 X1.971 Y4.929 A6.00761
G1 X2.548 Y4.232 A6.03618
G1 X3.032 Y3.469 A6.06475
G1 X3.417 Y2.651 A6.09332
G1 X3.697 Y1.791 A6.12189
G1 X3.866 Y0.902 A6.15046
G1 X3.923 Y-0.000 A6.17903
G1 X3.866 Y-0.902 A6.20760
G1 X3.697 Y-1.791 A6.23618
G1 X3.417 Y-2.651 A6.26475
G1 X3.032 Y-3.469 A6.29332
G1 X2.548 Y-4.232 A6.32189
G1 X1.971 Y-4.929 A6.35046
G1 X1.312 Y-5.548 A6.37903
G1 X0.581 Y-6.079 A6.40760
G1 X-0.212 Y-6.515 A6.43617
G1 X-1.053 Y-6.848 A6.46474
G1 X-1.928 Y-7.073 A6.49332
G1 X-2.825 Y-7.186 A6.52189
G1 X-3.730 Y-7.186 A6.55046
G1 X-4.627 Y-7.073 A6.57903
G1 X-5.503 Y-6.848 A6.60760
G1 X-6.343 Y-6.515 A6.63617
G1 X-7.136 Y-6.079 A6.66474
G1 X-7.867 Y-5.548 A6.69331
G1 X-8.526 Y-4.929 A6.72188
G1 X-9.130 Y-4.200 A6.75178
G1 X-11.078 Y-4.200 A6.81333
G1 X-11.078 Y-5.800 A6.86389
G1 X-9.877 Y-5.800 A6.90181
G1 X-9.692 Y-6.024 A6.91099
G1 X-8.887 Y-6.780 A6.94591
G1 X-7.993 Y-7.430 A6.98082
G1 X-7.024 Y-7.962 A7.01574
G1 X-6.036 Y-8.353 A7.04933
G1 X-4.926 Y-8.644 A7.08556
G1 X-3.830 Y-8.782 A7.12048
G1 X-2.725 Y-8.782 A7.15540
G1 X-1.629 Y-8.644 A7.19031
G1 X-0.558 Y-8.369 A7.22523
G1 X0.469 Y-7.962 A7.26015
G1 X1.437 Y-7.430 A7.29506
G1 X2.331 Y-6.780 A7.32998
G1 X3.137 Y-6.024 A7.36490
G1 X3.841 Y-5.172 A7.39981
G1 X4.434 Y-4.239 A7.43473
G1 X4.904 Y-3.239 A7.46965
G1 X5.022 Y-2.875 A7.48175
G1 X7.922 Y-2.875 A7.57338
G1 X7.922 Y-4.800 A7.63421
G1 X11.122 Y-4.800 A7.73532
G1 X11.122 Y4.800 A8.03865
G1 X7.922 Y4.800 A8.13976
G1 X7.922 Y2.935 A8.19869
G1 X7.922 Y2.475 F4800.000
G1 X10.001 Y3.639 F4800.000
G1 X9.961 Y3.679 A8.20150 F4800.000
G1 X9.044 Y3.641 A8.24706
G1 X10.001 Y2.684 A8.31426
G1 X10.001 Y1.729 A8.36165
G1 X9.044 Y2.686 A8.42884
G1 X9.021 Y1.754 A8.47514
G1 X10.001 Y0.774 A8.54390
G1 X10.001 Y-0.181 A8.59130
G1 X8.066 Y1.754 A8.72709
G1 X7.112 Y1.754 A8.77449
G1 X10.001 Y-1.136 A8.97730
G1 X10.001 Y-2.091 A9.02470
G1 X6.157 Y1.754 A9.29454
G1 X5.202 Y1.754 A9.34194
G1 X10.001 Y-3.046 A9.67881
G1 X9.679 Y-3.679 A9.71405
G1 X9.044 Y-3.043 A9.75865
G1 X7.754 Y-1.754 F4800.000
G1 X4.982 Y1.018 A9.95320 F4800.000
G1 X5.046 Y-0.001 A10.00387
G1 X6.799 Y-1.754 A10.12691
G1 X5.844 Y-1.754 A10.17430
G1 X4.990 Y-0.899 A10.23428
G1 X4.852 Y-1.717 A10.27542
G1 X4.889 Y-1.754 A10.27803
G1 X4.378 Y2.275 F4800.000
G1 X4.160 Y2.945 A10.29154 F2400.000
G1 X3.738 Y3.843 A10.31058
G1 X3.194 Y4.702 A10.33010
G1 X2.554 Y5.476 A10.34937
G1 X1.822 Y6.164 A10.36865
G1 X1.009 Y6.754 A10.38793
G1 X0.129 Y7.238 A10.40721
G1 X-0.806 Y7.608 A10.42649
G1 X-1.779 Y7.858 A10.44576
G1 X-2.775 Y7.984 A10.46504
G1 X-3.780 Y7.984 A10.48432
G1 X-4.777 Y7.858 A10.50360
G1 X-5.750 Y7.608 A10.52287
G1 X-6.684 Y7.238 A10.54215
G1 X-7.564 Y6.754 A10.56143
G1 X-8.377 Y6.164 A10.58071
G1 X-9.109 Y5.476 A10.59999
G1 X-9.411 Y5.111 A10.60908
G1 X-9.564 Y5.001 A10.61269
G1 X-10.478 Y5.000 A10.63022
G1 F3000.000 A10.03022
G92 A0
G1 X-9.338 Y-5.200 F4800.000
G1 A0.60000 F3000.000
G1 X-9.109 Y-5.476 A0.60688 F2400.000
G1 X-8.377 Y-6.164 A0.62616
G1 X-7.564 Y-6.754 A0.64544
G1 X-6.684 Y-7.238 A0.66472
G1 X-5.750 Y-7.608 A0.68399
G1 X-4.777 Y-7.858 A0.70327
G1 X-3.780 Y-7.984 A0.72255
G1 X-2.775 Y-7.984 A0.74183
G1 X-1.779 Y-7.858 A0.76110
G1 X-0.806 Y-7.608 A0.78038
G1 X0.129 Y-7.238 A0.79966
G1 X1.009 Y-6.754 A0.81894
G1 X1.822 Y-6.164 A0.83821
G1 X2.554 Y-5.476 A0.85749
G1 X3.194 Y-4.702 A0.87677
G1 X3.738 Y-3.843 A0.89629
G1 X4.160 Y-2.945 A0.91532
G1 X4.378 Y-2.275 A0.92884
G1 F3000.000 A0.32884
G92 A0
G1 Z2.600 F4800.000
G1 X8.722 Y2.075 F4800.000
G1 A0.60000 F3000.000
G1 X4.457 Y2.075 A0.73478 F3000.000
G1 X4.661 Y1.003 A0.76927
G1 X4.724 Y-0.000 A0.80102
G1 X4.661 Y-1.003 A0.83277
G1 X4.457 Y-2.075 A0.86726
G1 X8.722 Y-2.075 A1.00204
G1 X8.722 Y-4.000 A1.06286
G1 X10.322 Y-4.000 A1.11342
G1 X10.322 Y4.000 A1.36620
G1 X8.722 Y4.000 A1.41675
G1 X8.722 Y2.135 A1.47568
G1 X8.322 Y2.475 F4800.000
G1 X4.732 Y2.475 A1.58913 F3000.000
G1 X4.531 Y3.092 A1.60962
G1 X4.082 Y4.046 A1.64295
G1 X3.517 Y4.937 A1.67628
G1 X2.845 Y5.749 A1.70960
G1 X2.076 Y6.471 A1.74293
G1 X1.223 Y7.091 A1.77626
G1 X0.298 Y7.599 A1.80958
G1 X-0.682 Y7.988 A1.84291
G1 X-1.704 Y8.250 A1.87624
G1 X-2.750 Y8.382 A1.90956
G1 X-3.805 Y8.382 A1.94289
G1 X-4.851 Y8.250 A1.97622
G1 X-5.873 Y7.988 A2.00954
G1 X-6.854 Y7.599 A2.04287
G1 X-7.778 Y7.091 A2.07619
G1 X-8.631 Y6.471 A2.10952
G1 X-9.400 Y5.749 A2.14285
G1 X-9.689 Y5.400 A2.15718
G1 X-10.678 Y5.400 A2.18841
G1 X-10.678 Y4.600 A2.21369
G1 X-9.318 Y4.600 A2.25665
G1 X-8.819 Y5.203 A2.28140
G1 X-8.123 Y5.857 A2.31156
G1 X-7.351 Y6.418 A2.34172
G1 X-6.514 Y6.878 A2.37188
G1 X-5.627 Y7.229 A2.40204
G1 X-4.702 Y7.467 A2.43220
G1 X-3.755 Y7.586 A2.46236
G1 X-2.800 Y7.586 A2.49253
G1 X-1.853 Y7.467 A2.52269
G1 X-0.929 Y7.229 A2.55285
G1 X-0.041 Y6.878 A2.58301
G1 X0.795 Y6.418 A2.61317
G1 X1.568 Y5.857 A2.64333
G1 X2.263 Y5.203 A2.67350
G1 X2.872 Y4.468 A2.70366
G1 X3.383 Y3.662 A2.73382
G1 X3.790 Y2.798 A2.76398
G1 X4.085 Y1.890 A2.79414
G1 X4.264 Y0.953 A2.82430
G1 X4.324 Y-0.000 A2.85446
G1 X4.264 Y-0.953 A2.88463
G1 X4.085 Y-1.890 A2.91479
G1 X3.790 Y-2.798 A2.94495
G1 X3.383 Y-3.662 A2.97511
G1 X2.872 Y-4.468 A3.00527
G1 X2.263 Y-5.203 A3.03543
G1 X1.568 Y-5.857 A3.06559
G1 X0.795 Y-6.418 A3.09576
G1 X-0.041 Y-6.878 A3.12592
G1 X-0.929 Y-7.229 A3.15608
G1 X-1.853 Y-7.467 A3.18624
G1 X-2.800 Y-7.586 A3.21640
G1 X-3.755 Y-7.586 A3.24656
G1 X-4.702 Y-7.467 A3.27673
G1 X-5.627 Y-7.229 A3.30689
G1 X-6.514 Y-6.878 A3.33705
G1 X-7.351 Y-6.418 A3.36721
G1 X-8.123 Y-5.857 A3.39737
G1 X-8.819 Y-5.203 A3.42753
G1 X-9.318 Y-4.600 A3.45228
G1 X-10.678 Y-4.600 A3.49524
G1 X-10.678 Y-5.400 A3.52052
G1 X-9.689 Y-5.400 A3.55175
G1 X-9.400 Y-5.749 A3.56608
G1 X-8.631 Y-6.471 A3.59941
G1 X-7.778 Y-7.091 A3.63273
G1 X-6.854 Y-7.599 A3.66606
G1 X-5.873 Y-7.988 A3.69939
G1 X-4.851 Y-8.250 A3.73271
G1 X-3.805 Y-8.382 A3.76604
G1 X-2.750 Y-8.382 A3.79937
G1 X-1.704 Y-8.250 A3.83269
G1 X-0.682 Y-7.988 A3.86602
G1 X0.298 Y-7.599 A3.89935
G1 X1.223 Y-7.091 A3.93267
G1 X2.076 Y-6.471 A3.96600
G1 X2.845 Y-5.749 A3.99933
G1 X3.517 Y-4.937 A4.03265
G1 X4.082 Y-4.046 A4.06598
G1 X4.531 Y-3.092 A4.09930
G1 X4.732 Y-2.475 A4.11980
G1 X8.322 Y-2.475 A4.23325
G1 X8.322 Y-4.400 A4.29407
G1 X10.722 Y-4.400 A4.36991
G1 X10.722 Y4.400 A4.64796
G1 X8.322 Y4.400 A4.72379
G1 X8.322 Y2.535 A4.78272
G1 X7.922 Y2.875 F4800.000
G1 X5.022 Y2.875 A4.87435 F2100.000
G1 X4.904 Y3.239 A4.88646
G1 X4.434 Y4.239 A4.92137
G1 X3.841 Y5.172 A4.95629
G1 X3.137 Y6.024 A4.99121
G1 X2.331 Y6.780 A5.02613
G1 X1.437 Y7.430 A5.06104
G1 X0.469 Y7.962 A5.09596
G1 X-0.558 Y8.369 A5.13088
G1 X-1.629 Y8.644 A5.16579
G1 X-2.725 Y8.782 A5.20071
G1 X-3.830 Y8.782 A5.23563
G1 X-4.926 Y8.644 A5.27054
G1 X-5.997 Y8.369 A5.30546
G1 X-7.024 Y7.962 A5.34038
G1 X-7.993 Y7.430 A5.37529
G1 X-8.887 Y6.780 A5.41021
G1 X-9.692 Y6.024 A5.44513
G1 X-9.877 Y5.800 A5.45430
G1 X-11.078 Y5.800 A5.49223
G1 X-11.078 Y4.200 A5.54278
G1 X-9.130 Y4.200 A5.60434
G1 X-8.526 Y4.929 A5.63423
G1 X-7.867 Y5.548 A5.66280
G1 X-7.136 Y6.079 A5.69137
G1 X-6.343 Y6.515 A5.71994
G1 X-5.503 Y6.848 A5.74852
G1 X-4.627 Y7.073 A5.77709
G1 X-3.730 Y7.186 A5.80566
G1 X-2.825 Y7.186 A5.83423
G1 X-1.928 Y7.073 A5.86280
G1 X-1.053 Y6.848 A5.89137
G1 X-0.212 Y6.515 A5.91994
G1 X0.581 Y6.079 A5.94851
G1 X1.312 Y5.548 A5.97708
G1 X1.971 Y4.929 A6.00566
G1 X2.548 Y4.232 A6.03423
G1 X3.032 Y3.469 A6.06280
G1 X3.417 Y2.651 A6.09137
G1 X3.697 Y1.791 A6.11994
G1 X3.866 Y0.902 A6.14851
G1 X3.923 Y-0.000 A6.17708
G1 X3.866 Y-0.902 A6.20565
G1 X3.697 Y-1.791 A6.23423
G1 X3.417 Y-2.651 A6.26280
G1 X3.032 Y-3.469 A6.29137
G1 X2.548 Y-4.232 A6.31994
G1 X1.971 Y-4.929 A6.34851
G1 X1.312 Y-5.548 A6.37708
G1 X0.581 Y-6.079 A6.40565
G1 X-0.212 Y-6.515 A6.43422
G1 X-1.053 Y-6.848 A6.46279
G1 X-1.928 Y-7.073 A6.49137
G1 X-2.825 Y-7.186 A6.51994
G1 X-3.730 Y-7.186 A6.54851
G1 X-4.627 Y-7.073 A6.57708
G1 X-5.503 Y-6.848 A6.60565
G1 X-5.685 Y-6.776 A6.61183
G1 X-6.343 Y-6.515 A6.63422
G1 X-7.136 Y-6.079 A6.66279
G1 X-7.867 Y-5.548 A6.69136
G1 X-8.526 Y-4.929 A6.71994
G1 X-9.130 Y-4.200 A6.74983
G1 X-11.078 Y-4.200 A6.81138
G1 X-11.078 Y-5.800 A6.86194
G1 X-9.877 Y-5.800 A6.89986
G1 X-9.692 Y-6.024 A6.90904
G1 X-8.887 Y-6.780 A6.94396
G1 X-7.993 Y-7.430 A6.97887
G1 X-7.024 Y-7.962 A7.01379
G1 X-5.997 Y-8.369 A7.04871
G1 X-4.926 Y-8.644 A7.08362
G1 X-3.830 Y-8.782 A7.11854
G1 X-2.725 Y-8.782 A7.15346
G1 X-1.629 Y-8.644 A7.18837
G1 X-0.558 Y-8.369 A7.22329
G1 X0.469 Y-7.962 A7.25821
G1 X1.437 Y-7.430 A7.29312
G1 X2.331 Y-6.780 A7.32804
G1 X3.137 Y-6.024 A7.36296
G1 X3.841 Y-5.172 A7.39787
G1 X4.434 Y-4.239 A7.43279
G1 X4.904 Y-3.239 A7.46771
G1 X5.022 Y-2.875 A7.47981
G1 X7.922 Y-2.875 A7.57144
G1 X7.922 Y-4.800 A7.63227
G1 X11.122 Y-4.800 A7.73338
G1 X11.122 Y4.800 A8.03671
G1 X7.922 Y4.800 A8.13782
G1 X7.922 Y2.935 A8.19675
G1 X7.922 Y2.475 F4800.000
G1 X9.044 Y3.043 F4800.000
G1 X9.679 Y3.679 A8.24135 F4800.000
G1 X4.852 Y1.717 F4800.000
G1 X4.889 Y1.754 A8.24395 F4800.000
G1 X5.844 Y1.754 A8.29134
G1 X4.990 Y0.899 A8.35132
G1 X5.046 Y0.001 A8.39600
G1 X6.799 Y1.754 A8.51904
G1 X7.754 Y1.754 A8.56643
G1 X4.982 Y-1.018 A8.76099
G1 X5.202 Y-1.754 A8.79908
G1 X10.001 Y3.046 A9.13595
G1 X10.001 Y2.091 A9.18334
G1 X6.157 Y-1.754 A9.45319
G1 X7.112 Y-1.754 A9.50058
G1 X10.001 Y1.136 A9.70340
G1 X10.001 Y0.181 A9.75079
G1 X8.066 Y-1.754 A9.88659
G1 X9.021 Y-1.754 A9.93398
G1 X10.001 Y-0.774 A10.00275
G1 X10.001 Y-1.729 A10.05014
G1 X9.044 Y-2.686 A10.11733
G1 X9.044 Y-3.641 A10.16473
G1 X10.001 Y-2.684 A10.23192
G1 X10.001 Y-3.639 A10.27932
G1 X9.961 Y-3.679 A10.28212
G1 X4.378 Y2.275 F4800.000
G1 X4.160 Y2.945 A10.29564 F2400.000
G1 X3.738 Y3.843 A10.31468
G1 X3.194 Y4.702 A10.33419
G1 X2.554 Y5.476 A10.35347
G1 X1.822 Y6.164 A10.37275
G1 X1.009 Y6.754 A10.39203
G1 X0.129 Y7.238 A10.41131
G1 X-0.806 Y7.608 A10.43058
G1 X-1.779 Y7.858 A10.44986
G1 X-2.775 Y7.984 A10.46914
G1 X-3.780 Y7.984 A10.48842
G1 X-4.777 Y7.858 A10.50769
G1 X-5.750 Y7.608 A10.52697
G1 X-6.684 Y7.238 A10.54625
G1 X-7.564 Y6.754 A10.56553
G1 X-8.377 Y6.164 A10.58480
G1 X-9.109 Y5.476 A10.60408
G1 X-9.510 Y5.009 A10.61590
G1 X-10.478 Y5.000 A10.63446
G1 F3000.000 A10.03446
G92 A0
G1 X-9.338 Y-5.200 F4800.000
G1 A0.60000 F3000.000
G1 X-9.109 Y-5.476 A0.60688 F2400.000
G1 X-8.377 Y-6.164 A0.62616
G1 X-7.564 Y-6.754 A0.64544
G1 X-6.684 Y-7.238 A0.66472
G1 X-5.750 Y-7.608 A0.68399
G1 X-4.777 Y-7.858 A0.70327
