; generated by Slic3r 1.2.7-dev on 2015-03-23 at 15:39:08

; external perimeters extrusion width = 0.40mm
; perimeters extrusion width = 0.68mm
; infill extrusion width = 0.87mm
; solid infill extrusion width = 0.68mm
; top infill extrusion width = 0.68mm

M190 P80 ; set bed temperature
M104 P220 ; set temperature
G28; move extruder to 0
M420 R0.0 E0.0 D0.0 P0.8 ; turn the lights on
M107; turn off fan
G64 P0.1  Q0.1 ; blend tolerance
M109 P220 ; wait for temperature to be reached
G21 ; set units to millimeters
G90 ; use absolute coordinates
G22 ; retract
G1 Z0.350 F9000.000
G1 X0.000 Y-11.300 F9000.000
G23 ; unretract
M700 P0.157461
G1 X15.850 Y-11.300 F3600.000
G1 X17.451 Y-10.906
M700 P0.157461
G1 X18.687 Y-9.813 F3600.000
G1 X19.300 Y-7.850
G1 X19.300 Y7.850
G1 X18.906 Y9.451
G1 X17.813 Y10.687
G1 X15.850 Y11.300
G1 X-15.850 Y11.300
G1 X-17.451 Y10.906
G1 X-18.687 Y9.813
G1 X-19.300 Y7.850
G1 X-19.300 Y-7.850
G1 X-18.906 Y-9.451
G1 X-17.813 Y-10.687
G1 X-15.850 Y-11.300
G1 X-0.060 Y-11.300
G22 ; retract
G1 X-8.338 Y-2.612 F9000.000
G23 ; unretract
M700 P0.157461
G1 X-7.362 Y-2.612 F1200.000
G1 X-7.362 Y-6.662
G1 X-0.338 Y-6.662
G1 X-0.338 Y-2.612
G1 X0.637 Y-2.612
G1 X0.637 Y-6.662
G1 X7.662 Y-6.662
G1 X7.662 Y-2.612
G1 X8.637 Y-2.612
G1 X8.637 Y-6.662
G1 X14.662 Y-6.662
G1 X14.662 Y-0.338
G1 X10.912 Y-0.338
G1 X10.912 Y0.637
G1 X14.662 Y0.637
G1 X14.662 Y6.662
G1 X8.637 Y6.662
G1 X8.637 Y2.912
G1 X7.662 Y2.912
G1 X7.662 Y6.662
G1 X0.637 Y6.662
G1 X0.637 Y2.912
G1 X-0.338 Y2.912
G1 X-0.338 Y6.662
G1 X-7.362 Y6.662
G1 X-7.362 Y2.912
G1 X-8.338 Y2.912
G1 X-8.338 Y6.662
G1 X-14.663 Y6.662
G1 X-14.663 Y0.637
G1 X-10.612 Y0.637
G1 X-10.612 Y-0.338
G1 X-14.663 Y-0.338
G1 X-14.663 Y-6.662
G1 X-8.338 Y-6.662
G1 X-8.338 Y-2.673
M700 P0.000000
G1 X-7.991 Y-2.812 F9000.000
G22 ; retract
G1 X-15.588 Y-7.588 F9000.000
G23 ; unretract
M700 P0.157461
G1 X15.588 Y-7.588 F1200.000
G1 X15.588 Y7.588
G1 X-15.588 Y7.588
G1 X-15.588 Y-7.528
M700 P0.000000
G1 X-15.241 Y-7.388 F9000.000
G22 ; retract
G1 X9.412 Y-2.539 F9000.000
G23 ; unretract
M700 P0.157461
G1 X9.643 Y-2.436 F1440.000
G1 X10.148 Y-2.069
G1 X10.566 Y-1.605
G1 X10.850 Y-1.112
G1 X9.412 Y-1.112
G1 X9.412 Y-2.479
M700 P0.000000
G1 X9.588 Y-2.357 F9000.000
M700 P0.000000
G1 X6.887 Y-2.539 F9000.000
M700 P0.157461
G1 X6.887 Y-1.112 F1440.000
G1 X5.450 Y-1.112
G1 X5.734 Y-1.605
G1 X6.152 Y-2.069
G1 X6.657 Y-2.436
G1 X6.833 Y-2.514
M700 P0.000000
G1 X6.738 Y-2.168 F9000.000
G22 ; retract
G1 X5.387 Y-0.338 F9000.000
G23 ; unretract
M700 P0.157461
G1 X5.387 Y0.637 F1440.000
G1 X2.912 Y0.637
G1 X2.912 Y-0.338
G1 X5.327 Y-0.338
M700 P0.000000
G1 X5.187 Y0.009 F9000.000
M700 P0.000000
G1 X5.450 Y1.412 F9000.000
M700 P0.157461
G1 X6.887 Y1.412 F1440.000
G1 X6.887 Y2.839
G1 X6.657 Y2.736
G1 X6.152 Y2.369
G1 X5.734 Y1.905
G1 X5.480 Y1.464
M700 P0.000000
G1 X5.826 Y1.549 F9000.000
G22 ; retract
G1 X9.412 Y1.412 F9000.000
G23 ; unretract
M700 P0.157461
G1 X10.850 Y1.412 F1440.000
G1 X10.566 Y1.905
G1 X10.148 Y2.369
G1 X9.643 Y2.736
G1 X9.412 Y2.839
G1 X9.412 Y1.472
M700 P0.000000
G1 X9.759 Y1.612 F9000.000
G22 ; retract
G1 X2.850 Y1.412 F9000.000
G23 ; unretract
M700 P0.157461
G1 X2.566 Y1.905 F1440.000
G1 X2.148 Y2.369
G1 X1.643 Y2.736
G1 X1.412 Y2.839
G1 X1.412 Y1.412
G1 X2.790 Y1.412
M700 P0.000000
G1 X2.544 Y1.670 F9000.000
G22 ; retract
G1 X-1.112 Y1.412 F9000.000
G23 ; unretract
M700 P0.157461
G1 X-1.112 Y2.839 F1440.000
G1 X-1.343 Y2.736
G1 X-1.848 Y2.369
G1 X-2.266 Y1.905
G1 X-2.550 Y1.412
G1 X-1.172 Y1.412
M700 P0.000000
G1 X-1.312 Y1.759 F9000.000
M700 P0.000000
G1 X-2.612 Y0.637 F9000.000
M700 P0.157461
G1 X-5.087 Y0.637 F1440.000
G1 X-5.087 Y-0.338
G1 X-2.612 Y-0.338
G1 X-2.612 Y0.578
M700 P0.000000
G1 X-2.959 Y0.438 F9000.000
M700 P0.000000
G1 X-2.550 Y-1.112 F9000.000
M700 P0.157461
G1 X-2.266 Y-1.605 F1440.000
G1 X-1.848 Y-2.069
G1 X-1.343 Y-2.436
G1 X-1.112 Y-2.539
G1 X-1.112 Y-1.112
G1 X-2.490 Y-1.112
M700 P0.000000
G1 X-2.244 Y-1.370 F9000.000
G22 ; retract
G1 X1.412 Y-1.112 F9000.000
G23 ; unretract
M700 P0.157461
G1 X1.412 Y-2.539 F1440.000
G1 X1.643 Y-2.436
G1 X2.148 Y-2.069
G1 X2.566 Y-1.605
G1 X2.850 Y-1.112
G1 X1.472 Y-1.112
M700 P0.000000
G1 X1.612 Y-1.459 F9000.000
G22 ; retract
G1 X-5.150 Y-1.112 F9000.000
G23 ; unretract
M700 P0.157461
G1 X-6.587 Y-1.112 F1440.000
G1 X-6.587 Y-2.539
G1 X-6.357 Y-2.436
G1 X-5.852 Y-2.069
G1 X-5.434 Y-1.605
G1 X-5.180 Y-1.164
M700 P0.000000
G1 X-5.526 Y-1.249 F9000.000
G22 ; retract
G1 X-9.112 Y-1.112 F9000.000
G23 ; unretract
M700 P0.157461
G1 X-10.550 Y-1.112 F1440.000
G1 X-10.266 Y-1.605
G1 X-9.848 Y-2.069
G1 X-9.343 Y-2.436
G1 X-9.112 Y-2.539
G1 X-9.112 Y-1.173
M700 P0.000000
G1 X-9.459 Y-1.312 F9000.000
G22 ; retract
G1 X-9.112 Y1.412 F9000.000
G23 ; unretract
M700 P0.157461
G1 X-9.112 Y2.839 F1440.000
G1 X-9.343 Y2.736
G1 X-9.848 Y2.369
G1 X-10.266 Y1.905
G1 X-10.550 Y1.412
G1 X-9.172 Y1.412
M700 P0.000000
G1 X-9.312 Y1.759 F9000.000
G22 ; retract
G1 X-6.587 Y1.412 F9000.000
G23 ; unretract
M700 P0.157461
G1 X-5.150 Y1.412 F1440.000
G1 X-5.434 Y1.905
G1 X-5.852 Y2.369
G1 X-6.357 Y2.736
G1 X-6.587 Y2.839
G1 X-6.587 Y1.472
M700 P0.000000
G1 X-6.241 Y1.612 F9000.000
M700 P0.000000
G1 X-6.052 Y1.862 F9000.000
M700 P0.157461
G1 X-6.038 Y1.903 F3600.000
G22 ; retract
G1 X-4.863 Y0.150 F9000.000
G23 ; unretract
M700 P0.249336
G1 X-2.837 Y0.150 F1800.000
G22 ; retract
G1 X0.150 Y-2.837 F9000.000
G23 ; unretract
M700 P0.249336
G1 X0.150 Y-7.052 F1800.000
G1 X0.413 Y-7.125
G1 X7.887 Y-7.125
G1 X8.747 Y-6.887
M700 P0.000000
G1 X8.413 Y-7.125 F9000.000
M700 P0.065586
G1 X14.887 Y-7.125 F1800.000
G1 X15.084 Y-7.084
G1 X15.125 Y-6.887
G1 X15.125 Y-0.113
M700 P0.000000
G1 X15.125 Y0.413 F9000.000
M700 P0.065586
G1 X15.125 Y6.887 F1800.000
G1 X15.084 Y7.084
G1 X14.887 Y7.125
G1 X8.413 Y7.125
M700 P0.000000
G1 X8.747 Y6.887 F9000.000
M700 P0.249336
G1 X7.887 Y7.125 F1800.000
G1 X0.413 Y7.125
G1 X0.150 Y7.052
G1 X0.150 Y3.137
M700 P0.000000
G1 X0.747 Y6.887 F9000.000
M700 P0.249336
G1 X-0.113 Y7.125 F1800.000
G1 X-7.587 Y7.125
G1 X-7.850 Y7.052
G1 X-7.850 Y3.137
M700 P0.000000
G1 X-7.253 Y6.887 F9000.000
M700 P0.249336
G1 X-8.113 Y7.125 F1800.000
G1 X-14.887 Y7.125
G1 X-15.084 Y7.084
G1 X-15.125 Y6.887
G1 X-15.125 Y0.413
G1 X-15.052 Y0.150
G1 X-10.837 Y0.150
M700 P0.000000
G1 X-14.887 Y0.747 F9000.000
M700 P0.249336
G1 X-15.125 Y-0.113 F1800.000
G1 X-15.125 Y-6.887
G1 X-15.084 Y-7.084
G1 X-14.887 Y-7.125
G1 X-8.113 Y-7.125
G1 X-7.253 Y-6.887
M700 P0.000000
G1 X-7.587 Y-7.125 F9000.000
M700 P0.065586
G1 X-0.113 Y-7.125 F1800.000
M700 P0.000000
G1 X0.413 Y-7.125 F9000.000
M700 P0.065586
G1 X7.887 Y-7.125 F1800.000
M700 P0.000000
G1 X8.150 Y-2.837 F9000.000
M700 P0.249336
G1 X8.150 Y-7.052 F1800.000
G1 X8.413 Y-7.125
G1 X14.887 Y-7.125
G1 X15.084 Y-7.084
G1 X15.125 Y-6.887
G1 X15.125 Y-0.113
G1 X14.887 Y0.747
M700 P0.000000
G1 X11.137 Y0.150 F9000.000
M700 P0.249336
G1 X15.052 Y0.150 F1800.000
G1 X15.125 Y0.413
G1 X15.125 Y6.887
G1 X15.084 Y7.084
G1 X14.887 Y7.125
G1 X8.413 Y7.125
G1 X8.150 Y7.052
G1 X8.150 Y3.137
G22 ; retract
G1 X6.322 Y1.885 F9000.000
G23 ; unretract
M700 P0.157461
G1 X6.328 Y1.862 F3600.000
G22 ; retract
G1 X5.163 Y0.150 F9000.000
G23 ; unretract
M700 P0.249336
G1 X3.137 Y0.150 F1800.000
G22 ; retract
G1 X1.922 Y-1.562 F9000.000
G23 ; unretract
M700 P0.157461
G1 X1.862 Y-1.632 F3600.000
G22 ; retract
G1 X6.355 Y-1.622 F9000.000
G23 ; unretract
M700 P0.157461
G1 X6.371 Y-1.562 F3600.000
G22 ; retract
G1 X0.747 Y-6.887 F9000.000
G23 ; unretract
M700 P0.249336
G1 X-0.113 Y-7.125 F1800.000
G1 X-7.587 Y-7.125
G1 X-7.850 Y-7.052
G1 X-7.850 Y-2.837
M700 P0.000000
G1 X-8.113 Y-7.125 F9000.000
M700 P0.065586
G1 X-14.887 Y-7.125 F1800.000
G1 X-15.084 Y-7.084
G1 X-15.125 Y-6.887
G1 X-15.125 Y-0.113
M700 P0.000000
G1 X-15.125 Y0.413 F9000.000
M700 P0.065586
G1 X-15.125 Y6.887 F1800.000
G1 X-15.084 Y7.084
G1 X-14.887 Y7.125
G1 X-8.113 Y7.125
M700 P0.000000
G1 X-7.587 Y7.125 F9000.000
M700 P0.065586
G1 X-0.113 Y7.125 F1800.000
M700 P0.000000
G1 X0.413 Y7.125 F9000.000
M700 P0.065586
G1 X7.887 Y7.125 F1800.000
M106 P255
M104 P215 ; set temperature
G22 ; retract
G1 Z0.500 F9000.000
G1 X-7.280 Y2.850 F9000.000
G23 ; unretract
M700 P0.055171
G1 X-8.420 Y2.850 F2400.000
G1 X-8.448 Y3.123
G1 X-8.400 Y3.133
G1 X-8.400 Y6.600
G1 X-14.600 Y6.600
G1 X-14.600 Y0.700
G1 X-10.860 Y0.700
G1 X-10.807 Y0.862
G1 X-10.550 Y0.821
G1 X-10.550 Y-0.521
G1 X-10.807 Y-0.562
G1 X-10.860 Y-0.400
G1 X-14.600 Y-0.400
G1 X-14.600 Y-6.600
G1 X-8.400 Y-6.600
G1 X-8.400 Y-2.833
G1 X-8.448 Y-2.823
G1 X-8.419 Y-2.550
G1 X-7.281 Y-2.550
G1 X-7.252 Y-2.823
G1 X-7.300 Y-2.833
G1 X-7.300 Y-6.600
G1 X-0.400 Y-6.600
G1 X-0.400 Y-2.833
G1 X-0.448 Y-2.823
G1 X-0.419 Y-2.550
G1 X0.719 Y-2.550
G1 X0.748 Y-2.823
G1 X0.700 Y-2.833
G1 X0.700 Y-6.600
G1 X7.600 Y-6.600
G1 X7.600 Y-2.833
G1 X7.552 Y-2.823
G1 X7.581 Y-2.550
G1 X8.719 Y-2.550
G1 X8.748 Y-2.823
G1 X8.700 Y-2.833
G1 X8.700 Y-6.600
G1 X14.600 Y-6.600
G1 X14.600 Y-0.400
G1 X11.159 Y-0.400
G1 X11.107 Y-0.561
G1 X10.850 Y-0.521
G1 X10.850 Y0.821
G1 X11.107 Y0.861
G1 X11.159 Y0.700
G1 X14.600 Y0.700
G1 X14.600 Y6.600
G1 X8.700 Y6.600
G1 X8.700 Y3.133
G1 X8.748 Y3.123
G1 X8.720 Y2.850
G1 X7.580 Y2.850
G1 X7.552 Y3.123
G1 X7.600 Y3.133
G1 X7.600 Y6.600
G1 X0.700 Y6.600
G1 X0.700 Y3.133
G1 X0.748 Y3.123
G1 X0.720 Y2.850
G1 X-0.420 Y2.850
G1 X-0.448 Y3.123
G1 X-0.400 Y3.133
G1 X-0.400 Y6.600
G1 X-7.300 Y6.600
G1 X-7.300 Y3.133
G1 X-7.252 Y3.123
G1 X-7.274 Y2.910
M700 P0.000000
G1 X-7.620 Y3.062 F9000.000
G22 ; retract
G1 X-15.650 Y7.650 F9000.000
G23 ; unretract
M700 P0.055171
G1 X-15.650 Y-7.650 F2400.000
G1 X15.650 Y-7.650
G1 X15.650 Y7.650
G1 X-15.590 Y7.650
M700 P0.000000
G1 X-15.450 Y7.304 F9000.000
G22 ; retract
G1 X9.350 Y-1.050 F9000.000
G23 ; unretract
M700 P0.055171
G1 X9.350 Y-2.635 F2880.000
G1 X9.674 Y-2.490
G1 X10.190 Y-2.116
G1 X10.617 Y-1.642
G1 X10.958 Y-1.050
G1 X9.410 Y-1.050
M700 P0.000000
G1 X9.550 Y-1.396 F9000.000
G22 ; retract
G1 X6.950 Y-1.050 F9000.000
G23 ; unretract
M700 P0.055171
G1 X5.342 Y-1.050 F2880.000
G1 X5.683 Y-1.642
G1 X6.110 Y-2.116
G1 X6.626 Y-2.490
G1 X6.950 Y-2.635
G1 X6.950 Y-1.110
M700 P0.000000
G1 X6.604 Y-1.250 F9000.000
M700 P0.000000
G1 X5.450 Y-0.521 F9000.000
M700 P0.055171
G1 X5.450 Y0.821 F2880.000
G1 X5.193 Y0.861
G1 X5.141 Y0.700
G1 X3.159 Y0.700
G1 X3.107 Y0.861
G1 X2.850 Y0.821
G1 X2.850 Y-0.521
G1 X3.107 Y-0.561
G1 X3.159 Y-0.400
G1 X5.141 Y-0.400
G1 X5.193 Y-0.561
G1 X5.391 Y-0.530
M700 P0.000000
G1 X5.232 Y-0.185 F9000.000
G22 ; retract
G1 X2.958 Y1.350 F9000.000
G23 ; unretract
M700 P0.055171
G1 X2.617 Y1.942 F2880.000
G1 X2.190 Y2.416
G1 X1.674 Y2.790
G1 X1.350 Y2.935
G1 X1.350 Y1.350
G1 X2.898 Y1.350
M700 P0.000000
G1 X2.652 Y1.607 F9000.000
G22 ; retract
G1 X-1.050 Y1.350 F9000.000
G23 ; unretract
M700 P0.055171
G1 X-1.050 Y2.935 F2880.000
G1 X-1.374 Y2.790
G1 X-1.890 Y2.416
G1 X-2.317 Y1.942
G1 X-2.658 Y1.350
G1 X-1.110 Y1.350
M700 P0.000000
G1 X-1.250 Y1.696 F9000.000
M700 P0.000000
G1 X-2.550 Y0.821 F9000.000
M700 P0.055171
G1 X-2.807 Y0.861 F2880.000
G1 X-2.859 Y0.700
G1 X-4.841 Y0.700
G1 X-4.893 Y0.861
G1 X-5.150 Y0.821
G1 X-5.150 Y-0.521
G1 X-4.893 Y-0.561
G1 X-4.841 Y-0.400
G1 X-2.859 Y-0.400
G1 X-2.807 Y-0.561
G1 X-2.550 Y-0.521
G1 X-2.550 Y0.761
M700 P0.000000
G1 X-2.788 Y0.715 F9000.000
M700 P0.000000
G1 X-2.658 Y-1.050 F9000.000
M700 P0.055171
G1 X-2.317 Y-1.642 F2880.000
G1 X-1.890 Y-2.116
G1 X-1.374 Y-2.490
G1 X-1.050 Y-2.635
G1 X-1.050 Y-1.050
G1 X-2.598 Y-1.050
M700 P0.000000
G1 X-2.352 Y-1.307 F9000.000
G22 ; retract
G1 X1.350 Y-1.050 F9000.000
G23 ; unretract
M700 P0.055171
G1 X1.350 Y-2.635 F2880.000
G1 X1.674 Y-2.490
G1 X2.190 Y-2.116
G1 X2.617 Y-1.642
G1 X2.958 Y-1.050
G1 X1.410 Y-1.050
M700 P0.000000
G1 X1.550 Y-1.396 F9000.000
G22 ; retract
G1 X5.342 Y1.350 F9000.000
G23 ; unretract
M700 P0.055171
G1 X6.950 Y1.350 F2880.000
G1 X6.950 Y2.935
G1 X6.626 Y2.790
G1 X6.110 Y2.416
G1 X5.683 Y1.942
G1 X5.372 Y1.402
M700 P0.000000
G1 X5.717 Y1.487 F9000.000
G22 ; retract
G1 X9.350 Y1.350 F9000.000
G23 ; unretract
M700 P0.055171
G1 X10.958 Y1.350 F2880.000
G1 X10.617 Y1.942
G1 X10.190 Y2.416
G1 X9.674 Y2.790
G1 X9.350 Y2.935
G1 X9.350 Y1.410
M700 P0.000000
G1 X9.696 Y1.550 F9000.000
G22 ; retract
G1 X-5.042 Y1.350 F9000.000
G23 ; unretract
M700 P0.055171
G1 X-5.383 Y1.942 F2880.000
G1 X-5.810 Y2.416
G1 X-6.326 Y2.790
G1 X-6.650 Y2.935
G1 X-6.650 Y1.350
G1 X-5.102 Y1.350
M700 P0.000000
G1 X-5.348 Y1.607 F9000.000
G22 ; retract
G1 X-9.050 Y1.350 F9000.000
G23 ; unretract
M700 P0.055171
G1 X-9.050 Y2.935 F2880.000
G1 X-9.374 Y2.790
G1 X-9.890 Y2.416
G1 X-10.317 Y1.942
G1 X-10.658 Y1.350
G1 X-9.110 Y1.350
M700 P0.000000
G1 X-9.250 Y1.696 F9000.000
G22 ; retract
G1 X-9.050 Y-1.050 F9000.000
G23 ; unretract
M700 P0.055171
G1 X-10.658 Y-1.050 F2880.000
G1 X-10.317 Y-1.642
G1 X-9.890 Y-2.116
G1 X-9.374 Y-2.490
G1 X-9.050 Y-2.635
G1 X-9.050 Y-1.110
M700 P0.000000
G1 X-9.396 Y-1.250 F9000.000
G22 ; retract
G1 X-6.650 Y-1.050 F9000.000
G23 ; unretract
M700 P0.055171
G1 X-6.650 Y-2.635 F2880.000
G1 X-6.326 Y-2.490
G1 X-5.810 Y-2.116
G1 X-5.383 Y-1.642
G1 X-5.042 Y-1.050
G1 X-6.590 Y-1.050
M700 P0.000000
G1 X-6.450 Y-1.396 F9000.000
G22 ; retract
G1 X-4.826 Y0.150 F9000.000
G23 ; unretract
M700 P0.046171
G1 X-2.874 Y0.150 F3600.000
M700 P0.148171
G1 X-4.826 Y0.150 F3600.000
G22 ; retract
G1 X-7.850 Y-2.874 F9000.000
G23 ; unretract
M700 P0.046171
G1 X-7.850 Y-7.061 F3600.000
G1 X-7.624 Y-7.125
G1 X-0.076 Y-7.125
G1 X0.639 Y-6.924
M700 P0.000000
G1 X0.150 Y-7.326 F9000.000
M700 P0.148171
G1 X0.150 Y-2.874 F3600.000
M700 P0.046171
G1 X0.150 Y-7.061 F3600.000
G1 X0.376 Y-7.125
G1 X7.924 Y-7.125
G1 X8.639 Y-6.924
M700 P0.000000
G1 X8.150 Y-7.326 F9000.000
M700 P0.148171
G1 X8.150 Y-2.874 F3600.000
M700 P0.046171
G1 X8.150 Y-7.061 F3600.000
G1 X8.376 Y-7.125
G1 X14.924 Y-7.125
G1 X15.090 Y-7.090
G1 X15.125 Y-6.924
G1 X15.125 Y-0.076
G1 X14.924 Y0.639
M700 P0.000000
G1 X15.326 Y0.150 F9000.000
M700 P0.148171
G1 X11.174 Y0.150 F3600.000
M700 P0.046171
G1 X15.061 Y0.150 F3600.000
G1 X15.125 Y0.376
G1 X15.125 Y6.924
G1 X15.090 Y7.090
G1 X14.924 Y7.125
G1 X8.376 Y7.125
G1 X8.150 Y7.061
G1 X8.150 Y3.174
M700 P0.148171
G1 X8.150 Y7.326 F3600.000
M700 P0.000000
G1 X8.639 Y6.924 F9000.000
M700 P0.046171
G1 X7.924 Y7.125 F3600.000
G1 X0.376 Y7.125
G1 X0.150 Y7.061
G1 X0.150 Y3.174
M700 P0.000000
G1 X0.150 Y3.174 F9000.000
M700 P0.148171
G1 X0.150 Y7.326 F3600.000
M700 P0.000000
G1 X0.639 Y6.924 F9000.000
M700 P0.046171
G1 X-0.076 Y7.125 F3600.000
G1 X-7.624 Y7.125
G1 X-7.850 Y7.061
G1 X-7.850 Y3.174
M700 P0.148171
G1 X-7.850 Y7.326 F3600.000
M700 P0.000000
G1 X-7.361 Y6.924 F9000.000
M700 P0.046171
G1 X-8.076 Y7.125 F3600.000
G1 X-14.924 Y7.125
G1 X-15.090 Y7.090
G1 X-15.125 Y6.924
G1 X-15.125 Y0.376
G1 X-15.061 Y0.150
G1 X-10.874 Y0.150
M700 P0.148171
G1 X-15.326 Y0.150 F3600.000
M700 P0.000000
G1 X-14.924 Y0.639 F9000.000
M700 P0.046171
G1 X-15.125 Y-0.076 F3600.000
G1 X-15.125 Y-6.924
G1 X-15.090 Y-7.090
G1 X-14.924 Y-7.125
G1 X-8.076 Y-7.125
G1 X-7.361 Y-6.924
M700 P0.000000
G1 X-7.850 Y-7.326 F9000.000
M700 P0.148171
G1 X-7.850 Y-2.874 F3600.000
G22 ; retract
G1 X3.174 Y0.150 F9000.000
G23 ; unretract
M700 P0.046171
G1 X5.126 Y0.150 F3600.000
M700 P0.148171
G1 X3.174 Y0.150 F3600.000
G22 ; retract
G1 Z0.650 F9000.000
G1 X6.442 Y-1.558 F9000.000
G23 ; unretract
M700 P0.097171
G1 X6.442 Y-2.847 F2880.000
M700 P0.125664
G1 X6.442 Y-3.058 F2880.000
G1 X6.916 Y-3.058
M700 P0.097171
G1 X9.384 Y-3.058 F2880.000
M700 P0.125664
G1 X9.858 Y-3.058 F2880.000
G1 X9.858 Y-2.852
M700 P0.097171
G1 X9.858 Y-1.558 F2880.000
G1 X11.127 Y-1.558
M700 P0.125664
G1 X11.358 Y-1.558 F2880.000
G1 X11.358 Y-1.084
M700 P0.097171
G1 X11.358 Y1.384 F2880.000
M700 P0.125664
G1 X11.358 Y1.858 F2880.000
G1 X11.127 Y1.858
M700 P0.097171
G1 X9.858 Y1.858 F2880.000
G1 X9.858 Y3.147
M700 P0.125664
G1 X9.858 Y3.358 F2880.000
G1 X9.383 Y3.358
M700 P0.097171
G1 X6.917 Y3.358 F2880.000
M700 P0.125664
G1 X6.442 Y3.358 F2880.000
G1 X6.442 Y3.147
M700 P0.097171
G1 X6.442 Y1.858 F2880.000
G1 X5.173 Y1.858
M700 P0.125664
G1 X4.942 Y1.858 F2880.000
G1 X4.942 Y1.384
M700 P0.097171
G1 X4.942 Y-1.084 F2880.000
M700 P0.125664
G1 X4.942 Y-1.558 F2880.000
G1 X5.173 Y-1.558
M700 P0.097171
G1 X6.382 Y-1.558 F2880.000
M700 P0.000000
G1 X6.950 Y-1.050 F9000.000
M700 P0.055171
G1 X6.950 Y-2.550 F2880.000
G1 X9.350 Y-2.550
G1 X9.350 Y-1.050
G1 X10.850 Y-1.050
G1 X10.850 Y1.350
G1 X9.350 Y1.350
G1 X9.350 Y2.850
G1 X6.950 Y2.850
G1 X6.950 Y1.350
G1 X5.450 Y1.350
G1 X5.450 Y-1.050
G1 X6.890 Y-1.050
M700 P0.000000
G1 X6.750 Y-1.396 F9000.000
G22 ; retract
G1 X1.858 Y-1.558 F9000.000
G23 ; unretract
M700 P0.097171
G1 X3.127 Y-1.558 F2880.000
M700 P0.125664
G1 X3.358 Y-1.558 F2880.000
G1 X3.358 Y-1.084
M700 P0.097171
G1 X3.358 Y1.384 F2880.000
M700 P0.125664
G1 X3.358 Y1.858 F2880.000
G1 X3.127 Y1.858
M700 P0.097171
G1 X1.858 Y1.858 F2880.000
G1 X1.858 Y3.147
M700 P0.125664
G1 X1.858 Y3.358 F2880.000
G1 X1.383 Y3.358
M700 P0.097171
G1 X-1.083 Y3.358 F2880.000
M700 P0.125664
G1 X-1.558 Y3.358 F2880.000
G1 X-1.558 Y3.147
M700 P0.097171
G1 X-1.558 Y1.858 F2880.000
G1 X-2.827 Y1.858
M700 P0.125664
G1 X-3.058 Y1.858 F2880.000
G1 X-3.058 Y1.384
M700 P0.097171
G1 X-3.058 Y-1.084 F2880.000
M700 P0.125664
G1 X-3.058 Y-1.558 F2880.000
G1 X-2.827 Y-1.558
M700 P0.097171
G1 X-1.558 Y-1.558 F2880.000
G1 X-1.558 Y-2.847
M700 P0.125664
G1 X-1.558 Y-3.058 F2880.000
G1 X-1.084 Y-3.058
M700 P0.097171
G1 X1.384 Y-3.058 F2880.000
M700 P0.125664
G1 X1.858 Y-3.058 F2880.000
G1 X1.858 Y-2.852
M700 P0.097171
G1 X1.858 Y-1.618 F2880.000
M700 P0.000000
G1 X1.350 Y-1.050 F9000.000
M700 P0.055171
G1 X2.850 Y-1.050 F2880.000
G1 X2.850 Y1.350
G1 X1.350 Y1.350
G1 X1.350 Y2.850
G1 X-1.050 Y2.850
G1 X-1.050 Y1.350
G1 X-2.550 Y1.350
G1 X-2.550 Y-1.050
G1 X-1.050 Y-1.050
G1 X-1.050 Y-2.550
G1 X1.350 Y-2.550
G1 X1.350 Y-1.110
M700 P0.000000
G1 X1.696 Y-1.250 F9000.000
G22 ; retract
G1 X-1.850 Y-1.850 F9000.000
G1 X-4.350 Y-1.850 F9000.000
G1 X-6.142 Y-1.558 F9000.000
G23 ; unretract
M700 P0.097171
G1 X-4.873 Y-1.558 F2880.000
M700 P0.125664
G1 X-4.642 Y-1.558 F2880.000
G1 X-4.642 Y-1.084
M700 P0.097171
G1 X-4.642 Y1.384 F2880.000
M700 P0.125664
G1 X-4.642 Y1.858 F2880.000
G1 X-4.873 Y1.858
M700 P0.097171
G1 X-6.142 Y1.858 F2880.000
G1 X-6.142 Y3.147
M700 P0.125664
G1 X-6.142 Y3.358 F2880.000
G1 X-6.617 Y3.358
M700 P0.097171
G1 X-9.083 Y3.358 F2880.000
M700 P0.125664
G1 X-9.558 Y3.358 F2880.000
G1 X-9.558 Y3.147
M700 P0.097171
G1 X-9.558 Y1.858 F2880.000
G1 X-10.827 Y1.858
M700 P0.125664
G1 X-11.058 Y1.858 F2880.000
G1 X-11.058 Y1.384
M700 P0.097171
G1 X-11.058 Y-1.084 F2880.000
M700 P0.125664
G1 X-11.058 Y-1.558 F2880.000
G1 X-10.827 Y-1.558
M700 P0.097171
G1 X-9.558 Y-1.558 F2880.000
G1 X-9.558 Y-2.847
M700 P0.125664
G1 X-9.558 Y-3.058 F2880.000
G1 X-9.084 Y-3.058
M700 P0.097171
G1 X-6.616 Y-3.058 F2880.000
M700 P0.125664
G1 X-6.142 Y-3.058 F2880.000
G1 X-6.142 Y-2.847
M700 P0.097171
G1 X-6.142 Y-1.618 F2880.000
M700 P0.000000
G1 X-6.650 Y-1.050 F9000.000
M700 P0.055171
G1 X-5.150 Y-1.050 F2880.000
G1 X-5.150 Y1.350
G1 X-6.650 Y1.350
G1 X-6.650 Y2.850
G1 X-9.050 Y2.850
G1 X-9.050 Y1.350
G1 X-10.550 Y1.350
G1 X-10.550 Y-1.050
G1 X-9.050 Y-1.050
G1 X-9.050 Y-2.550
G1 X-6.650 Y-2.550
G1 X-6.650 Y-1.110
M700 P0.000000
G1 X-6.304 Y-1.250 F9000.000
G22 ; retract
G1 X-9.850 Y-3.350 F9000.000
G1 X-14.850 Y-6.850 F9000.000
G1 X-15.142 Y-7.142 F9000.000
G23 ; unretract
M700 P0.097171
G1 X15.142 Y-7.142 F4800.000
G1 X15.142 Y7.142
G1 X-15.142 Y7.142
G1 X-15.142 Y-7.082
M700 P0.000000
G1 X-15.650 Y-7.650 F9000.000
M700 P0.055171
G1 X15.650 Y-7.650 F2400.000
G1 X15.650 Y7.650
G1 X-15.650 Y7.650
G1 X-15.650 Y-7.590
M700 P0.000000
G1 X-15.304 Y-7.450 F9000.000
M700 P0.000000
G1 X-14.399 Y-6.534 F9000.000
M700 P0.135648
G1 X-14.399 Y6.534 F7200.000
G1 X-13.934 Y6.534
G1 X-13.934 Y-6.534
G1 X-13.468 Y-6.534
G1 X-13.468 Y6.534
G1 X-13.003 Y6.534
G1 X-13.003 Y-6.534
G1 X-12.537 Y-6.534
G1 X-12.537 Y6.534
G22 ; retract
G1 X-10.209 Y3.946 F9000.000
G23 ; unretract
M700 P0.135648
G1 X-10.209 Y6.534 F7200.000
G1 X-9.744 Y6.534
G1 X-9.744 Y3.946
G1 X-9.278 Y3.946
G1 X-9.278 Y6.534
G1 X-8.812 Y6.534
G1 X-8.812 Y3.946
G1 X-8.347 Y3.946
G1 X-8.347 Y6.534
G1 X-7.881 Y6.534
G1 X-7.881 Y3.946
G1 X-7.416 Y3.946
G1 X-7.416 Y6.534
G1 X-6.950 Y6.534
G1 X-6.950 Y3.946
G1 X-6.484 Y3.946
G1 X-6.484 Y6.534
G1 X-6.019 Y6.534
G1 X-6.019 Y3.946
G22 ; retract
G1 X-10.675 Y2.446 F9000.000
G23 ; unretract
M700 P0.135648
G1 X-10.675 Y6.534 F7200.000
G1 X-11.140 Y6.534
G1 X-11.140 Y2.446
G1 X-11.606 Y2.446
G1 X-11.606 Y6.534
G1 X-12.071 Y6.534
G1 X-12.071 Y-6.534
G1 X-11.606 Y-6.534
G1 X-11.606 Y-2.146
G1 X-11.140 Y-2.146
G1 X-11.140 Y-6.534
G1 X-10.675 Y-6.534
G1 X-10.675 Y-2.146
M700 P0.000000
G1 X-10.209 Y-3.646 F9000.000
M700 P0.135648
G1 X-10.209 Y-6.534 F7200.000
G1 X-9.744 Y-6.534
G1 X-9.744 Y-3.646
G1 X-9.278 Y-3.646
G1 X-9.278 Y-6.534
G1 X-8.812 Y-6.534
G1 X-8.812 Y-3.646
G1 X-8.347 Y-3.646
G1 X-8.347 Y-6.534
G1 X-7.881 Y-6.534
G1 X-7.881 Y-3.646
G1 X-7.416 Y-3.646
G1 X-7.416 Y-6.534
G1 X-6.950 Y-6.534
G1 X-6.950 Y-3.646
G1 X-6.484 Y-3.646
G1 X-6.484 Y-6.534
G1 X-6.019 Y-6.534
G1 X-6.019 Y-3.646
M700 P0.000000
G1 X-5.336 Y-3.686 F9000.000
M700 P0.129261
G1 X-2.146 Y-3.407 F7200.000
G1 X-2.146 Y-2.950
G1 X-5.336 Y-3.229
M700 P0.000000
G1 X-4.948 Y-2.280 F9000.000
M700 P0.129261
G1 X-5.336 Y-2.314 F7200.000
G1 X-5.336 Y-2.772
G1 X-2.146 Y-2.492
M700 P0.000000
G1 X-1.050 Y-3.769 F9000.000
M700 P0.129261
G1 X-5.336 Y-4.144 F7200.000
G1 X-5.336 Y-4.601
G1 X5.636 Y-3.641
G1 X5.636 Y-3.184
G1 X2.446 Y-3.463
G1 X2.446 Y-3.006
G1 X5.636 Y-2.727
G1 X5.614 Y-2.271
G1 X5.248 Y-2.303
M700 P0.000000
G1 X5.636 Y-4.099 F9000.000
M700 P0.129261
G1 X-5.336 Y-5.059 F7200.000
G1 X-5.336 Y-5.516
G1 X5.636 Y-4.556
G1 X5.636 Y-5.014
G1 X-5.336 Y-5.973
G1 X-5.314 Y-6.429
G1 X5.636 Y-5.471
M700 P0.000000
G1 X5.636 Y-6.386 F9000.000
M700 P0.129261
G1 X5.118 Y-6.431 F7200.000
G1 X5.636 Y-5.928
G1 X-0.110 Y-6.431
G22 ; retract
G1 X2.446 Y-2.548 F9000.000
G23 ; unretract
M700 P0.129261
G1 X3.052 Y-2.495 F7200.000
M700 P0.000000
G1 X4.150 Y-1.882 F9000.000
M700 P0.148171
G1 X4.150 Y2.182 F3600.000
M700 P0.000000
G1 X4.461 Y2.870 F9000.000
M700 P0.131520
G1 X2.450 Y3.408 F7200.000
G1 X2.450 Y3.884
G1 X5.632 Y3.031
G1 X5.632 Y3.507
G1 X-5.310 Y6.439
M700 P0.000000
G1 X-3.595 Y6.454 F9000.000
M700 P0.131520
G1 X5.632 Y3.982 F7200.000
G1 X5.632 Y4.457
G1 X-1.821 Y6.454
M700 P0.000000
G1 X-0.047 Y6.454 F9000.000
M700 P0.131520
G1 X5.632 Y4.933 F7200.000
G1 X5.632 Y5.408
G1 X1.728 Y6.454
M700 P0.000000
G1 X3.502 Y6.454 F9000.000
M700 P0.131520
G1 X5.632 Y5.884 F7200.000
G1 X5.632 Y6.359
G1 X5.276 Y6.454
G22 ; retract
G1 X5.252 Y2.657 F9000.000
G23 ; unretract
M700 P0.131520
G1 X5.610 Y2.561 F7200.000
M700 P0.000000
G1 X3.048 Y2.773 F9000.000
M700 P0.131520
G1 X2.450 Y2.933 F7200.000
M700 P0.000000
G1 X1.846 Y4.046 F9000.000
M700 P0.131520
G1 X-5.332 Y5.969 F7200.000
G1 X-5.332 Y5.493
G1 X0.071 Y4.046
M700 P0.000000
G1 X-1.703 Y4.046 F9000.000
M700 P0.131520
G1 X-5.332 Y5.018 F7200.000
G1 X-5.332 Y4.543
G1 X-2.150 Y3.690
G1 X-2.150 Y3.215
G1 X-5.332 Y4.067
G1 X-5.332 Y3.592
G1 X-2.150 Y2.739
M700 P0.000000
G1 X-4.411 Y2.870 F9000.000
M700 P0.131520
G1 X-5.332 Y3.116 F7200.000
G1 X-5.332 Y2.641
G1 X-4.976 Y2.546
M700 P0.000000
G1 X-3.850 Y2.182 F9000.000
M700 P0.148171
G1 X-3.850 Y-1.882 F3600.000
G22 ; retract
G1 X-3.850 Y4.625 F9000.000
G1 X7.495 Y4.069 F9000.000
G23 ; unretract
M700 P0.150159
G1 X6.164 Y4.185 F7200.000
G1 X6.164 Y4.674
G1 X14.554 Y3.940
G1 X14.554 Y4.429
G1 X6.164 Y5.163
G1 X6.164 Y5.653
G1 X14.554 Y4.919
G1 X14.554 Y5.408
G1 X6.164 Y6.142
G22 ; retract
G1 X8.446 Y6.431 F9000.000
G23 ; unretract
M700 P0.150159
G1 X14.554 Y5.897 F7200.000
G1 X14.554 Y6.386
G1 X14.036 Y6.431
G22 ; retract
G1 X10.446 Y3.811 F9000.000
G23 ; unretract
M700 P0.150159
G1 X14.554 Y3.451 F7200.000
G1 X14.548 Y2.963
G1 X10.446 Y3.322
G1 X10.446 Y2.832
G1 X10.964 Y2.787
M700 P0.000000
G1 X11.946 Y1.981 F9000.000
M700 P0.135648
G1 X14.534 Y1.981 F7200.000
G1 X14.534 Y1.516
G1 X11.946 Y1.516
G1 X11.946 Y1.050
G1 X14.534 Y1.050
G1 X14.534 Y0.584
G1 X11.946 Y0.584
G1 X11.946 Y0.119
G1 X14.534 Y0.119
G1 X14.534 Y-0.347
G1 X11.946 Y-0.347
G1 X11.946 Y-0.812
G1 X14.534 Y-0.812
G1 X14.534 Y-1.278
G1 X11.946 Y-1.278
G1 X11.946 Y-1.744
G1 X14.534 Y-1.744
G1 X14.534 Y-2.209
G1 X11.946 Y-2.209
M700 P0.000000
G1 X10.446 Y-2.675 F9000.000
M700 P0.135648
G1 X14.534 Y-2.675 F7200.000
G1 X14.534 Y-3.140
G1 X10.446 Y-3.140
G1 X10.446 Y-3.606
G1 X14.534 Y-3.606
G1 X14.534 Y-4.071
G1 X6.184 Y-4.071
G1 X6.184 Y-4.537
G1 X14.534 Y-4.537
G1 X14.534 Y-5.003
G1 X6.184 Y-5.003
G1 X6.184 Y-5.468
G1 X14.534 Y-5.468
G1 X14.534 Y-5.934
G1 X6.184 Y-5.934
G1 X6.184 Y-6.399
G1 X14.534 Y-6.399
G22 ; retract
G1 Z0.800 F9000.000
G1 X6.442 Y-1.558 F9000.000
G23 ; unretract
M700 P0.097171
G1 X6.442 Y-3.058 F2880.000
G1 X9.858 Y-3.058
G1 X9.858 Y-1.558
G1 X11.358 Y-1.558
G1 X11.358 Y1.858
G1 X9.858 Y1.858
G1 X9.858 Y3.358
G1 X6.442 Y3.358
G1 X6.442 Y1.858
G1 X4.942 Y1.858
G1 X4.942 Y-1.558
G1 X6.382 Y-1.558
M700 P0.000000
G1 X6.950 Y-1.050 F9000.000
M700 P0.055171
G1 X6.950 Y-2.550 F2880.000
G1 X9.350 Y-2.550
G1 X9.350 Y-1.050
G1 X10.850 Y-1.050
G1 X10.850 Y1.350
G1 X9.350 Y1.350
G1 X9.350 Y2.850
G1 X6.950 Y2.850
G1 X6.950 Y1.350
G1 X5.450 Y1.350
G1 X5.450 Y-1.050
G1 X6.890 Y-1.050
M700 P0.000000
G1 X6.750 Y-1.396 F9000.000
M700 P0.000000
G1 X1.858 Y-1.558 F9000.000
M700 P0.097171
G1 X3.358 Y-1.558 F2880.000
G1 X3.358 Y1.858
G1 X1.858 Y1.858
G1 X1.858 Y3.358
G1 X-1.558 Y3.358
G1 X-1.558 Y1.858
G1 X-3.058 Y1.858
G1 X-3.058 Y-1.558
G1 X-1.558 Y-1.558
G1 X-1.558 Y-3.058
G1 X1.858 Y-3.058
G1 X1.858 Y-1.618
M700 P0.000000
G1 X1.350 Y-1.050 F9000.000
M700 P0.055171
G1 X2.850 Y-1.050 F2880.000
G1 X2.850 Y1.350
G1 X1.350 Y1.350
G1 X1.350 Y2.850
G1 X-1.050 Y2.850
G1 X-1.050 Y1.350
G1 X-2.550 Y1.350
G1 X-2.550 Y-1.050
G1 X-1.050 Y-1.050
G1 X-1.050 Y-2.550
G1 X1.350 Y-2.550
G1 X1.350 Y-1.110
M700 P0.000000
G1 X1.696 Y-1.250 F9000.000
G22 ; retract
G1 X-1.850 Y-1.850 F9000.000
G1 X-4.350 Y-1.850 F9000.000
G1 X-6.142 Y-1.558 F9000.000
G23 ; unretract
M700 P0.097171
G1 X-4.642 Y-1.558 F2880.000
G1 X-4.642 Y1.858
G1 X-6.142 Y1.858
G1 X-6.142 Y3.358
G1 X-9.558 Y3.358
G1 X-9.558 Y1.858
G1 X-11.058 Y1.858
G1 X-11.058 Y-1.558
G1 X-9.558 Y-1.558
G1 X-9.558 Y-3.058
G1 X-6.142 Y-3.058
G1 X-6.142 Y-1.618
M700 P0.000000
G1 X-6.650 Y-1.050 F9000.000
M700 P0.055171
G1 X-5.150 Y-1.050 F2880.000
G1 X-5.150 Y1.350
G1 X-6.650 Y1.350
G1 X-6.650 Y2.850
G1 X-9.050 Y2.850
G1 X-9.050 Y1.350
G1 X-10.550 Y1.350
G1 X-10.550 Y-1.050
G1 X-9.050 Y-1.050
G1 X-9.050 Y-2.550
G1 X-6.650 Y-2.550
G1 X-6.650 Y-1.110
M700 P0.000000
G1 X-6.304 Y-1.250 F9000.000
G22 ; retract
G1 X-9.850 Y-3.350 F9000.000
G1 X-14.850 Y-6.850 F9000.000
G1 X-15.142 Y-7.142 F9000.000
G23 ; unretract
M700 P0.097171
G1 X15.142 Y-7.142 F4800.000
G1 X15.142 Y7.142
G1 X-15.142 Y7.142
G1 X-15.142 Y-7.082
M700 P0.000000
G1 X-15.650 Y-7.650 F9000.000
M700 P0.055171
G1 X15.650 Y-7.650 F2400.000
G1 X15.650 Y7.650
G1 X-15.650 Y7.650
G1 X-15.650 Y-7.590
M700 P0.000000
G1 X-15.304 Y-7.450 F9000.000
M700 P0.000000
G1 X-3.850 Y-1.882 F9000.000
M700 P0.148171
G1 X-3.850 Y2.182 F3600.000
M700 P0.000000
G1 X-5.557 Y3.246 F9000.000
M700 P0.098047
G1 X-4.945 Y2.634 F7200.000
G1 X-4.154 Y2.767
G1 X-7.943 Y6.557
G1 X-7.019 Y6.557
G1 X-3.229 Y2.767
G1 X-2.143 Y2.605
G1 X-6.095 Y6.557
G1 X-5.170 Y6.557
G1 X-2.143 Y3.530
M700 P0.000000
G1 X-1.632 Y3.943 F9000.000
M700 P0.098047
G1 X-4.246 Y6.557 F7200.000
G1 X-3.321 Y6.557
G1 X-0.708 Y3.943
G1 X0.217 Y3.943
G1 X-2.397 Y6.557
G1 X-1.473 Y6.557
G1 X1.141 Y3.943
M700 P0.000000
G1 X2.065 Y3.943 F9000.000
M700 P0.098047
G1 X-0.548 Y6.557 F7200.000
G1 X0.376 Y6.557
G1 X4.166 Y2.767
G1 X5.090 Y2.767
G1 X1.300 Y6.557
G1 X2.225 Y6.557
G1 X5.857 Y2.925
G1 X5.857 Y3.849
G1 X3.149 Y6.557
G1 X4.074 Y6.557
G1 X6.687 Y3.943
G1 X7.612 Y3.943
G1 X4.998 Y6.557
G1 X5.922 Y6.557
G1 X8.536 Y3.943
G1 X9.461 Y3.943
G1 X6.847 Y6.557
G1 X7.771 Y6.557
G1 X14.557 Y-0.229
G1 X14.557 Y0.696
G1 X8.696 Y6.557
G1 X9.620 Y6.557
G1 X14.557 Y1.620
G1 X14.557 Y2.544
G1 X10.544 Y6.557
G1 X11.469 Y6.557
G1 X14.557 Y3.469
G1 X14.557 Y4.393
G1 X12.393 Y6.557
G1 X13.318 Y6.557
G1 X14.557 Y5.318
G1 X14.557 Y6.242
G1 X14.242 Y6.557
M700 P0.000000
G1 X10.443 Y2.961 F9000.000
M700 P0.098047
G1 X10.961 Y2.443 F7200.000
M700 P0.000000
G1 X11.943 Y1.461 F9000.000
M700 P0.098047
G1 X14.557 Y-1.153 F7200.000
G1 X14.557 Y-2.078
G1 X11.943 Y0.536
G1 X11.943 Y-0.388
G1 X14.557 Y-3.002
G1 X14.557 Y-3.926
G1 X11.943 Y-1.313
G1 X11.849 Y-2.143
G1 X14.557 Y-4.851
G1 X14.557 Y-5.775
G1 X10.925 Y-2.143
G1 X10.443 Y-2.586
G1 X14.414 Y-6.557
G1 X13.490 Y-6.557
G1 X10.443 Y-3.510
G1 X9.652 Y-3.643
G1 X12.565 Y-6.557
G1 X11.641 Y-6.557
G1 X8.727 Y-3.643
G1 X7.803 Y-3.643
G1 X10.717 Y-6.557
G1 X9.792 Y-6.557
G1 X6.879 Y-3.643
M700 P0.000000
G1 X5.857 Y-2.621 F9000.000
M700 P0.098047
G1 X5.379 Y-2.143 F7200.000
G1 X4.778 Y-2.467
G1 X8.868 Y-6.557
G1 X7.943 Y-6.557
G1 X3.854 Y-2.467
G1 X2.605 Y-2.143
G1 X7.019 Y-6.557
G1 X6.095 Y-6.557
G1 X2.443 Y-2.905
G1 X2.257 Y-3.643
G1 X5.170 Y-6.557
G1 X4.246 Y-6.557
G1 X1.332 Y-3.643
G1 X0.408 Y-3.643
G1 X3.321 Y-6.557
G1 X2.397 Y-6.557
G1 X-0.517 Y-3.643
G1 X-1.441 Y-3.643
G1 X1.473 Y-6.557
G1 X0.548 Y-6.557
G1 X-3.542 Y-2.467
G1 X-4.466 Y-2.467
G1 X-0.376 Y-6.557
G1 X-1.301 Y-6.557
G1 X-5.557 Y-2.301
G1 X-5.557 Y-3.225
G1 X-2.225 Y-6.557
G1 X-3.149 Y-6.557
G1 X-6.063 Y-3.643
G1 X-6.987 Y-3.643
G1 X-4.074 Y-6.557
G1 X-4.998 Y-6.557
G1 X-7.912 Y-3.643
G1 X-8.836 Y-3.643
G1 X-5.923 Y-6.557
G1 X-6.847 Y-6.557
G1 X-9.761 Y-3.643
M700 P0.000000
G1 X-10.143 Y-3.261 F9000.000
M700 P0.098047
G1 X-11.261 Y-2.143 F7200.000
M700 P0.000000
G1 X-11.643 Y1.937 F9000.000
M700 P0.098047
G1 X-14.557 Y4.851 F7200.000
G1 X-14.557 Y3.926
G1 X-11.643 Y1.013
G1 X-11.643 Y0.088
G1 X-14.557 Y3.002
G1 X-14.557 Y2.077
G1 X-11.643 Y-0.836
G1 X-11.643 Y-1.761
G1 X-14.557 Y1.153
G1 X-14.557 Y0.229
G1 X-7.771 Y-6.557
G1 X-8.696 Y-6.557
G1 X-14.557 Y-0.696
G1 X-14.557 Y-1.620
G1 X-9.620 Y-6.557
G1 X-10.544 Y-6.557
G1 X-14.557 Y-2.544
G1 X-14.557 Y-3.469
G1 X-11.469 Y-6.557
G1 X-12.393 Y-6.557
G1 X-14.557 Y-4.393
G1 X-14.557 Y-5.318
G1 X-13.318 Y-6.557
G1 X-14.242 Y-6.557
G1 X-14.557 Y-6.242
M700 P0.000000
G1 X-11.225 Y2.443 F9000.000
M700 P0.098047
G1 X-14.557 Y5.775 F7200.000
G1 X-14.414 Y6.557
G1 X-10.301 Y2.443
G1 X-10.143 Y3.210
G1 X-13.490 Y6.557
G1 X-12.565 Y6.557
G1 X-9.952 Y3.943
G1 X-9.027 Y3.943
G1 X-11.641 Y6.557
G1 X-10.717 Y6.557
G1 X-8.103 Y3.943
G1 X-7.179 Y3.943
G1 X-9.792 Y6.557
G1 X-8.868 Y6.557
G1 X-6.254 Y3.943
M700 P0.000000
G1 X-2.755 Y-2.330 F9000.000
M700 P0.098047
G1 X-2.143 Y-2.941 F7200.000
M700 P0.000000
G1 X-1.850 Y-5.100 F9000.000
G1 X4.150 Y-3.850 F9000.000
G1 X3.650 Y2.150 F9000.000
G1 X3.241 Y2.767 F9000.000
M700 P0.098047
G1 X2.443 Y3.565 F7200.000
M700 P0.000000
G1 X4.150 Y2.182 F9000.000
M700 P0.148171
G1 X4.150 Y-1.882 F3600.000
G22 ; retract
G1 Z0.950 F9000.000
M700 P0.000000
G1 X6.442 Y-1.558 F9000.000
G23 ; unretract
M700 P0.097171
G1 X6.442 Y-3.058 F2880.000
G1 X9.858 Y-3.058
G1 X9.858 Y-1.558
G1 X11.358 Y-1.558
G1 X11.358 Y1.858
G1 X9.858 Y1.858
G1 X9.858 Y3.358
G1 X6.442 Y3.358
G1 X6.442 Y1.858
G1 X4.942 Y1.858
G1 X4.942 Y-1.558
G1 X6.382 Y-1.558
M700 P0.000000
G1 X6.950 Y-1.050 F9000.000
M700 P0.055171
G1 X6.950 Y-2.550 F2880.000
G1 X9.350 Y-2.550
G1 X9.350 Y-1.050
G1 X10.850 Y-1.050
G1 X10.850 Y1.350
G1 X9.350 Y1.350
G1 X9.350 Y2.850
G1 X6.950 Y2.850
G1 X6.950 Y1.350
G1 X5.450 Y1.350
G1 X5.450 Y-1.050
G1 X6.890 Y-1.050
M700 P0.000000
G1 X6.750 Y-1.396 F9000.000
M700 P0.000000
G1 X1.858 Y-1.558 F9000.000
M700 P0.097171
G1 X3.358 Y-1.558 F2880.000
G1 X3.358 Y1.858
G1 X1.858 Y1.858
G1 X1.858 Y3.358
G1 X-1.558 Y3.358
G1 X-1.558 Y1.858
G1 X-3.058 Y1.858
G1 X-3.058 Y-1.558
G1 X-1.558 Y-1.558
G1 X-1.558 Y-3.058
G1 X1.858 Y-3.058
G1 X1.858 Y-1.618
M700 P0.000000
G1 X1.350 Y-1.050 F9000.000
M700 P0.055171
G1 X2.850 Y-1.050 F2880.000
G1 X2.850 Y1.350
G1 X1.350 Y1.350
G1 X1.350 Y2.850
G1 X-1.050 Y2.850
G1 X-1.050 Y1.350
G1 X-2.550 Y1.350
G1 X-2.550 Y-1.050
G1 X-1.050 Y-1.050
G1 X-1.050 Y-2.550
G1 X1.350 Y-2.550
G1 X1.350 Y-1.110
M700 P0.000000
G1 X1.696 Y-1.250 F9000.000
G22 ; retract
G1 X-1.850 Y-1.850 F9000.000
G1 X-4.350 Y-1.850 F9000.000
G1 X-6.142 Y-1.558 F9000.000
G23 ; unretract
M700 P0.097171
G1 X-4.642 Y-1.558 F2880.000
G1 X-4.642 Y1.858
G1 X-6.142 Y1.858
G1 X-6.142 Y3.358
G1 X-9.558 Y3.358
G1 X-9.558 Y1.858
G1 X-11.058 Y1.858
G1 X-11.058 Y-1.558
G1 X-9.558 Y-1.558
G1 X-9.558 Y-3.058
G1 X-6.142 Y-3.058
G1 X-6.142 Y-1.618
M700 P0.000000
G1 X-6.650 Y-1.050 F9000.000
M700 P0.055171
G1 X-5.150 Y-1.050 F2880.000
G1 X-5.150 Y1.350
G1 X-6.650 Y1.350
G1 X-6.650 Y2.850
G1 X-9.050 Y2.850
G1 X-9.050 Y1.350
G1 X-10.550 Y1.350
G1 X-10.550 Y-1.050
G1 X-9.050 Y-1.050
G1 X-9.050 Y-2.550
G1 X-6.650 Y-2.550
G1 X-6.650 Y-1.110
M700 P0.000000
G1 X-6.304 Y-1.250 F9000.000
G22 ; retract
G1 X-9.850 Y-3.350 F9000.000
G1 X-14.850 Y-6.850 F9000.000
G1 X-15.142 Y-7.142 F9000.000
G23 ; unretract
M700 P0.097171
G1 X15.142 Y-7.142 F4800.000
G1 X15.142 Y7.142
G1 X-15.142 Y7.142
G1 X-15.142 Y-7.082
M700 P0.000000
G1 X-15.650 Y-7.650 F9000.000
M700 P0.055171
G1 X15.650 Y-7.650 F2400.000
G1 X15.650 Y7.650
G1 X-15.650 Y7.650
G1 X-15.650 Y-7.590
M700 P0.000000
G1 X-15.304 Y-7.450 F9000.000
M700 P0.000000
G1 X-10.143 Y-3.210 F9000.000
M700 P0.098047
G1 X-13.490 Y-6.557 F7200.000
G1 X-14.414 Y-6.557
G1 X-10.143 Y-2.286
G1 X-10.925 Y-2.143
G1 X-14.557 Y-5.775
G1 X-14.557 Y-4.851
G1 X-11.643 Y-1.937
G1 X-11.643 Y-1.013
G1 X-14.557 Y-3.926
G1 X-14.557 Y-3.002
G1 X-11.643 Y-0.088
G1 X-11.643 Y0.836
G1 X-14.557 Y-2.077
G1 X-14.557 Y-1.153
G1 X-11.643 Y1.761
M700 P0.000000
G1 X-10.961 Y2.443 F9000.000
M700 P0.098047
G1 X-10.143 Y3.261 F7200.000
M700 P0.000000
G1 X-14.242 Y6.557 F9000.000
M700 P0.098047
G1 X-14.557 Y6.242 F7200.000
G1 X-14.557 Y5.318
G1 X-13.318 Y6.557
G1 X-12.393 Y6.557
G1 X-14.557 Y4.393
G1 X-14.557 Y3.469
G1 X-11.469 Y6.557
G1 X-10.544 Y6.557
G1 X-14.557 Y2.544
G1 X-14.557 Y1.620
G1 X-9.620 Y6.557
G1 X-8.696 Y6.557
G1 X-14.557 Y0.696
G1 X-14.557 Y-0.229
G1 X-7.771 Y6.557
G1 X-6.847 Y6.557
G1 X-9.461 Y3.943
G1 X-8.536 Y3.943
G1 X-5.923 Y6.557
G1 X-4.998 Y6.557
G1 X-7.612 Y3.943
G1 X-6.687 Y3.943
G1 X-4.074 Y6.557
G1 X-3.149 Y6.557
G1 X-5.763 Y3.943
G1 X-5.557 Y3.225
G1 X-2.225 Y6.557
G1 X-1.301 Y6.557
G1 X-5.414 Y2.443
G1 X-4.945 Y2.912
G1 X-4.166 Y2.767
G1 X-0.376 Y6.557
G1 X0.548 Y6.557
G1 X-2.065 Y3.943
G1 X-1.141 Y3.943
G1 X1.473 Y6.557
G1 X2.397 Y6.557
G1 X-0.217 Y3.943
G1 X0.708 Y3.943
G1 X3.321 Y6.557
G1 X4.246 Y6.557
G1 X1.632 Y3.943
G1 X2.443 Y3.830
G1 X5.170 Y6.557
G1 X6.095 Y6.557
G1 X2.443 Y2.905
G1 X3.229 Y2.767
G1 X7.019 Y6.557
G1 X7.943 Y6.557
G1 X4.154 Y2.767
G1 X5.078 Y2.767
G1 X5.857 Y3.546
M700 P0.000000
G1 X6.254 Y3.943 F9000.000
M700 P0.098047
G1 X8.868 Y6.557 F7200.000
G1 X9.792 Y6.557
G1 X7.179 Y3.943
G1 X8.103 Y3.943
G1 X10.717 Y6.557
G1 X11.641 Y6.557
G1 X9.027 Y3.943
G1 X9.952 Y3.943
G1 X12.565 Y6.557
G1 X13.490 Y6.557
G1 X10.443 Y3.510
G1 X10.443 Y2.586
G1 X14.414 Y6.557
G1 X14.557 Y5.775
G1 X11.225 Y2.443
G1 X11.943 Y2.237
G1 X14.557 Y4.851
G1 X14.557 Y3.926
G1 X11.943 Y1.313
G1 X11.943 Y0.388
G1 X14.557 Y3.002
G1 X14.557 Y2.078
G1 X11.943 Y-0.536
G1 X11.943 Y-1.461
G1 X14.557 Y1.153
G1 X14.557 Y0.229
G1 X7.771 Y-6.557
G1 X8.696 Y-6.557
G1 X14.557 Y-0.696
G1 X14.557 Y-1.620
G1 X9.620 Y-6.557
G1 X10.544 Y-6.557
G1 X14.557 Y-2.544
G1 X14.557 Y-3.469
G1 X11.469 Y-6.557
G1 X12.393 Y-6.557
G1 X14.557 Y-4.393
G1 X14.557 Y-5.318
G1 X13.318 Y-6.557
G1 X14.242 Y-6.557
G1 X14.557 Y-6.242
M700 P0.000000
G1 X11.261 Y-2.143 F9000.000
M700 P0.098047
G1 X10.443 Y-2.961 F7200.000
M700 P0.000000
G1 X9.761 Y-3.643 F9000.000
M700 P0.098047
G1 X6.847 Y-6.557 F7200.000
G1 X5.922 Y-6.557
G1 X8.836 Y-3.643
G1 X7.912 Y-3.643
G1 X4.998 Y-6.557
G1 X4.074 Y-6.557
G1 X6.987 Y-3.643
G1 X6.063 Y-3.643
G1 X3.149 Y-6.557
G1 X2.225 Y-6.557
G1 X5.857 Y-2.925
G1 X5.714 Y-2.143
G1 X1.300 Y-6.557
G1 X0.376 Y-6.557
G1 X4.466 Y-2.467
M700 P0.000000
G1 X3.541 Y-2.467 F9000.000
M700 P0.098047
G1 X-0.548 Y-6.557 F7200.000
G1 X-1.473 Y-6.557
G1 X1.441 Y-3.643
G1 X0.517 Y-3.643
G1 X-2.397 Y-6.557
G1 X-3.321 Y-6.557
G1 X-0.408 Y-3.643
G1 X-1.332 Y-3.643
G1 X-4.246 Y-6.557
G1 X-5.170 Y-6.557
G1 X-2.143 Y-3.530
G1 X-2.143 Y-2.605
G1 X-6.095 Y-6.557
G1 X-7.019 Y-6.557
G1 X-2.929 Y-2.467
G1 X-3.854 Y-2.467
G1 X-7.943 Y-6.557
G1 X-8.868 Y-6.557
G1 X-5.954 Y-3.643
G1 X-6.879 Y-3.643
G1 X-9.792 Y-6.557
G1 X-10.717 Y-6.557
G1 X-7.803 Y-3.643
G1 X-8.727 Y-3.643
G1 X-11.641 Y-6.557
G1 X-12.565 Y-6.557
G1 X-9.652 Y-3.643
M700 P0.000000
G1 X-5.557 Y-3.246 F9000.000
M700 P0.098047
G1 X-4.778 Y-2.467 F7200.000
M700 P0.000000
G1 X-2.641 Y2.443 F9000.000
M700 P0.098047
G1 X-2.143 Y2.941 F7200.000
M700 P0.000000
G1 X-2.143 Y3.865 F9000.000
M700 P0.098047
G1 X-3.242 Y2.767 F7200.000
M700 P0.000000
G1 X-3.850 Y2.150 F9000.000
G1 X-3.850 Y-4.529 F9000.000
G1 X2.150 Y-3.350 F9000.000
G1 X2.443 Y-2.641 F9000.000
M700 P0.098047
G1 X2.941 Y-2.143 F7200.000
M700 P0.000000
G1 X4.150 Y-1.882 F9000.000
M700 P0.148171
G1 X4.150 Y2.182 F3600.000
M700 P0.000000
G1 X2.150 Y5.250 F9000.000
G1 X-3.850 Y4.150 F9000.000
G1 X-3.850 Y2.182 F9000.000
M700 P0.148171
G1 X-3.850 Y-1.882 F3600.000
G22 ; retract
G1 Z1.100 F9000.000
G1 X6.442 Y-1.558 F9000.000
G23 ; unretract
M700 P0.097171
G1 X6.442 Y-3.058 F2880.000
G1 X9.858 Y-3.058
G1 X9.858 Y-1.558
G1 X11.358 Y-1.558
G1 X11.358 Y1.858
G1 X9.858 Y1.858
G1 X9.858 Y3.358
G1 X6.442 Y3.358
G1 X6.442 Y1.858
G1 X4.942 Y1.858
G1 X4.942 Y-1.558
G1 X6.382 Y-1.558
M700 P0.000000
G1 X6.950 Y-1.050 F9000.000
M700 P0.055171
G1 X6.950 Y-2.550 F2880.000
G1 X9.350 Y-2.550
G1 X9.350 Y-1.050
G1 X10.850 Y-1.050
G1 X10.850 Y1.350
G1 X9.350 Y1.350
G1 X9.350 Y2.850
G1 X6.950 Y2.850
G1 X6.950 Y1.350
G1 X5.450 Y1.350
G1 X5.450 Y-1.050
G1 X6.890 Y-1.050
M700 P0.000000
G1 X6.750 Y-1.396 F9000.000
M700 P0.000000
G1 X1.858 Y-1.558 F9000.000
M700 P0.097171
G1 X3.358 Y-1.558 F2880.000
G1 X3.358 Y1.858
G1 X1.858 Y1.858
G1 X1.858 Y3.358
G1 X-1.558 Y3.358
G1 X-1.558 Y1.858
G1 X-3.058 Y1.858
G1 X-3.058 Y-1.558
G1 X-1.558 Y-1.558
G1 X-1.558 Y-3.058
G1 X1.858 Y-3.058
G1 X1.858 Y-1.618
M700 P0.000000
G1 X1.350 Y-1.050 F9000.000
M700 P0.055171
G1 X2.850 Y-1.050 F2880.000
G1 X2.850 Y1.350
G1 X1.350 Y1.350
G1 X1.350 Y2.850
G1 X-1.050 Y2.850
G1 X-1.050 Y1.350
G1 X-2.550 Y1.350
G1 X-2.550 Y-1.050
G1 X-1.050 Y-1.050
G1 X-1.050 Y-2.550
G1 X1.350 Y-2.550
G1 X1.350 Y-1.110
M700 P0.000000
G1 X1.696 Y-1.250 F9000.000
G22 ; retract
G1 X-1.850 Y-1.850 F9000.000
G1 X-4.350 Y-1.850 F9000.000
G1 X-6.142 Y-1.558 F9000.000
G23 ; unretract
M700 P0.097171
G1 X-4.642 Y-1.558 F2880.000
G1 X-4.642 Y1.858
G1 X-6.142 Y1.858
G1 X-6.142 Y3.358
G1 X-9.558 Y3.358
G1 X-9.558 Y1.858
G1 X-11.058 Y1.858
G1 X-11.058 Y-1.558
G1 X-9.558 Y-1.558
G1 X-9.558 Y-3.058
G1 X-6.142 Y-3.058
G1 X-6.142 Y-1.618
M700 P0.000000
G1 X-6.650 Y-1.050 F9000.000
M700 P0.055171
G1 X-5.150 Y-1.050 F2880.000
G1 X-5.150 Y1.350
G1 X-6.650 Y1.350
G1 X-6.650 Y2.850
G1 X-9.050 Y2.850
G1 X-9.050 Y1.350
G1 X-10.550 Y1.350
G1 X-10.550 Y-1.050
G1 X-9.050 Y-1.050
G1 X-9.050 Y-2.550
G1 X-6.650 Y-2.550
G1 X-6.650 Y-1.110
M700 P0.000000
G1 X-6.304 Y-1.250 F9000.000
G22 ; retract
G1 X-9.850 Y-3.350 F9000.000
G1 X-14.850 Y-6.850 F9000.000
G1 X-15.142 Y-7.142 F9000.000
G23 ; unretract
M700 P0.097171
G1 X15.142 Y-7.142 F4800.000
G1 X15.142 Y7.142
G1 X-15.142 Y7.142
G1 X-15.142 Y-7.082
M700 P0.000000
G1 X-15.650 Y-7.650 F9000.000
M700 P0.055171
G1 X15.650 Y-7.650 F2400.000
G1 X15.650 Y7.650
G1 X-15.650 Y7.650
G1 X-15.650 Y-7.590
M700 P0.000000
G1 X-15.304 Y-7.450 F9000.000
M700 P0.000000
G1 X-11.801 Y0.388 F9000.000
M700 P0.125664
G1 X-11.931 Y0.258 F7200.000
G1 X-14.399 Y0.258
G1 X-14.399 Y-3.392
G1 X-11.931 Y-3.392
G1 X-11.392 Y-3.931
G1 X-7.742 Y-3.931
G1 X-7.612 Y-3.801
M700 P0.000000
G1 X-5.399 Y-3.392 F9000.000
M700 P0.125664
G1 X-3.553 Y-3.392 F7200.000
G1 X-3.014 Y-3.931
G1 X0.636 Y-3.931
G1 X0.766 Y-3.801
M700 P0.000000
G1 X2.601 Y-3.392 F9000.000
M700 P0.125664
G1 X4.825 Y-3.392 F7200.000
G1 X5.363 Y-3.931
G1 X9.013 Y-3.931
G1 X9.143 Y-3.801
G1 X14.399 Y-3.931
G1 X13.741 Y-3.931
G1 X13.202 Y-3.392
G1 X10.601 Y-3.392
M700 P0.000000
G1 X12.101 Y0.258 F9000.000
M700 P0.125664
G1 X13.202 Y0.258 F7200.000
G1 X13.741 Y0.797
G1 X14.399 Y0.797
G1 X14.399 Y4.447
G1 X13.741 Y4.447
G1 X13.202 Y4.986
G1 X9.552 Y4.986
G1 X9.013 Y4.447
G1 X5.363 Y4.447
G1 X4.825 Y4.986
G1 X1.175 Y4.986
G1 X0.636 Y4.447
G1 X-3.014 Y4.447
G1 X-3.553 Y4.986
G1 X-7.203 Y4.986
G1 X-7.742 Y4.447
G1 X-11.392 Y4.447
G1 X-11.931 Y4.986
G1 X-14.399 Y4.986
M700 P0.000000
G1 X-3.850 Y2.182 F9000.000
M700 P0.148171
G1 X-3.850 Y-1.882 F3600.000
M700 P0.000000
G1 X-1.850 Y-5.100 F9000.000
G1 X4.150 Y-3.850 F9000.000
G1 X4.150 Y-1.882 F9000.000
M700 P0.148171
G1 X4.150 Y2.182 F3600.000
G22 ; retract
G1 Z1.250 F9000.000
G1 X6.442 Y-1.558 F9000.000
G23 ; unretract
M700 P0.097171
G1 X6.442 Y-3.058 F2880.000
G1 X9.858 Y-3.058
G1 X9.858 Y-1.558
G1 X11.358 Y-1.558
G1 X11.358 Y1.858
G1 X9.858 Y1.858
G1 X9.858 Y3.358
G1 X6.442 Y3.358
G1 X6.442 Y1.858
G1 X4.942 Y1.858
G1 X4.942 Y-1.558
G1 X6.382 Y-1.558
M700 P0.000000
G1 X6.950 Y-1.050 F9000.000
M700 P0.055171
G1 X6.950 Y-2.550 F2880.000
G1 X9.350 Y-2.550
G1 X9.350 Y-1.050
G1 X10.850 Y-1.050
G1 X10.850 Y1.350
G1 X9.350 Y1.350
G1 X9.350 Y2.850
G1 X6.950 Y2.850
G1 X6.950 Y1.350
G1 X5.450 Y1.350
G1 X5.450 Y-1.050
G1 X6.890 Y-1.050
M700 P0.000000
G1 X6.750 Y-1.396 F9000.000
M700 P0.000000
G1 X1.858 Y-1.558 F9000.000
M700 P0.097171
G1 X3.358 Y-1.558 F2880.000
G1 X3.358 Y1.858
G1 X1.858 Y1.858
G1 X1.858 Y3.358
G1 X-1.558 Y3.358
G1 X-1.558 Y1.858
G1 X-3.058 Y1.858
G1 X-3.058 Y-1.558
G1 X-1.558 Y-1.558
G1 X-1.558 Y-3.058
G1 X1.858 Y-3.058
G1 X1.858 Y-1.618
M700 P0.000000
G1 X1.350 Y-1.050 F9000.000
M700 P0.055171
G1 X2.850 Y-1.050 F2880.000
G1 X2.850 Y1.350
G1 X1.350 Y1.350
G1 X1.350 Y2.850
G1 X-1.050 Y2.850
G1 X-1.050 Y1.350
G1 X-2.550 Y1.350
G1 X-2.550 Y-1.050
G1 X-1.050 Y-1.050
G1 X-1.050 Y-2.550
G1 X1.350 Y-2.550
G1 X1.350 Y-1.110
M700 P0.000000
G1 X1.696 Y-1.250 F9000.000
G22 ; retract
G1 X-1.850 Y-1.850 F9000.000
G1 X-4.350 Y-1.850 F9000.000
G1 X-6.142 Y-1.558 F9000.000
G23 ; unretract
M700 P0.097171
G1 X-4.642 Y-1.558 F2880.000
G1 X-4.642 Y1.858
G1 X-6.142 Y1.858
G1 X-6.142 Y3.358
G1 X-9.558 Y3.358
G1 X-9.558 Y1.858
G1 X-11.058 Y1.858
G1 X-11.058 Y-1.558
G1 X-9.558 Y-1.558
G1 X-9.558 Y-3.058
G1 X-6.142 Y-3.058
G1 X-6.142 Y-1.618
M700 P0.000000
G1 X-6.650 Y-1.050 F9000.000
M700 P0.055171
G1 X-5.150 Y-1.050 F2880.000
G1 X-5.150 Y1.350
G1 X-6.650 Y1.350
G1 X-6.650 Y2.850
G1 X-9.050 Y2.850
G1 X-9.050 Y1.350
G1 X-10.550 Y1.350
G1 X-10.550 Y-1.050
G1 X-9.050 Y-1.050
G1 X-9.050 Y-2.550
G1 X-6.650 Y-2.550
G1 X-6.650 Y-1.110
M700 P0.000000
G1 X-6.304 Y-1.250 F9000.000
G22 ; retract
G1 X-9.850 Y-3.350 F9000.000
G1 X-14.850 Y-6.850 F9000.000
G1 X-15.142 Y-7.142 F9000.000
G23 ; unretract
M700 P0.097171
G1 X15.142 Y-7.142 F4800.000
G1 X15.142 Y7.142
G1 X-15.142 Y7.142
G1 X-15.142 Y-7.082
M700 P0.000000
G1 X-15.650 Y-7.650 F9000.000
M700 P0.055171
G1 X15.650 Y-7.650 F2400.000
G1 X15.650 Y7.650
G1 X-15.650 Y7.650
G1 X-15.650 Y-7.590
M700 P0.000000
G1 X-15.304 Y-7.450 F9000.000
M700 P0.000000
G1 X-3.850 Y-1.882 F9000.000
M700 P0.148171
G1 X-3.850 Y2.182 F3600.000
M700 P0.000000
G1 X-3.911 Y2.809 F9000.000
M700 P0.127254
G1 X-0.205 Y6.515 F7200.000
G1 X-0.845 Y6.515
G1 X-4.551 Y2.809
M700 P0.000000
G1 X-5.515 Y3.125 F9000.000
M700 P0.127254
G1 X-2.125 Y6.515 F7200.000
G1 X-2.765 Y6.515
G1 X-5.515 Y3.765
M700 P0.000000
G1 X-5.934 Y3.985 F9000.000
M700 P0.127254
G1 X-3.405 Y6.515 F7200.000
G1 X-4.045 Y6.515
G1 X-6.574 Y3.985
G1 X-7.214 Y3.985
G1 X-4.684 Y6.515
G1 X-5.324 Y6.515
G1 X-7.854 Y3.985
G1 X-8.494 Y3.985
G1 X-5.964 Y6.515
G1 X-6.604 Y6.515
G1 X-9.134 Y3.985
G1 X-9.774 Y3.985
G1 X-7.244 Y6.515
G1 X-7.884 Y6.515
G1 X-14.515 Y-0.116
G1 X-14.515 Y0.524
G1 X-8.524 Y6.515
G1 X-9.164 Y6.515
G1 X-14.515 Y1.164
G1 X-14.515 Y1.804
G1 X-9.804 Y6.515
G1 X-10.444 Y6.515
G1 X-14.515 Y2.444
G1 X-14.515 Y3.084
G1 X-11.084 Y6.515
G1 X-11.724 Y6.515
G1 X-14.515 Y3.724
G1 X-14.515 Y4.364
G1 X-12.364 Y6.515
G1 X-13.004 Y6.515
G1 X-14.515 Y5.004
G1 X-14.515 Y5.644
G1 X-13.644 Y6.515
G1 X-14.284 Y6.515
G1 X-14.515 Y6.284
M700 P0.000000
G1 X-11.274 Y2.485 F9000.000
M700 P0.127254
G1 X-10.185 Y3.574 F7200.000
G1 X-10.185 Y2.934
G1 X-10.634 Y2.485
M700 P0.000000
G1 X-11.685 Y2.074 F9000.000
M700 P0.127254
G1 X-14.515 Y-0.756 F7200.000
G1 X-14.515 Y-1.396
G1 X-11.685 Y1.434
G1 X-11.685 Y0.794
G1 X-14.515 Y-2.036
G1 X-14.515 Y-2.676
G1 X-11.685 Y0.154
G1 X-11.685 Y-0.486
G1 X-14.515 Y-3.316
G1 X-14.515 Y-3.955
G1 X-11.685 Y-1.126
G1 X-11.685 Y-1.766
G1 X-14.515 Y-4.595
G1 X-14.515 Y-5.235
G1 X-11.465 Y-2.185
G1 X-10.825 Y-2.185
G1 X-14.515 Y-5.875
G1 X-14.495 Y-6.495
G1 X-10.185 Y-2.186
G1 X-10.185 Y-2.826
G1 X-13.874 Y-6.515
G1 X-13.235 Y-6.515
G1 X-10.185 Y-3.465
M700 P0.000000
G1 X-9.765 Y-3.685 F9000.000
M700 P0.127254
G1 X-12.595 Y-6.515 F7200.000
G1 X-11.955 Y-6.515
G1 X-9.125 Y-3.685
G1 X-8.485 Y-3.685
G1 X-11.315 Y-6.515
G1 X-10.675 Y-6.515
G1 X-7.845 Y-3.685
G1 X-7.205 Y-3.685
G1 X-10.035 Y-6.515
G1 X-9.395 Y-6.515
G1 X-6.565 Y-3.685
G1 X-5.925 Y-3.685
G1 X-8.755 Y-6.515
G1 X-8.115 Y-6.515
G1 X-4.109 Y-2.509
G1 X-3.469 Y-2.509
G1 X-7.475 Y-6.515
G1 X-6.835 Y-6.515
G1 X-2.505 Y-2.185
G1 X-2.185 Y-2.505
G1 X-6.195 Y-6.515
G1 X-5.555 Y-6.515
G1 X-2.185 Y-3.145
G1 X-2.085 Y-3.685
G1 X-4.915 Y-6.515
G1 X-4.275 Y-6.515
G1 X-1.445 Y-3.685
G1 X-0.805 Y-3.685
G1 X-3.635 Y-6.515
G1 X-2.995 Y-6.515
G1 X-0.165 Y-3.685
G1 X0.475 Y-3.685
G1 X-2.355 Y-6.515
G1 X-1.715 Y-6.515
G1 X1.115 Y-3.685
G1 X1.755 Y-3.685
G1 X-1.075 Y-6.515
G1 X-0.435 Y-6.515
G1 X3.571 Y-2.509
G1 X3.013 Y-2.427
G1 X2.485 Y-2.955
M700 P0.000000
G1 X4.211 Y-2.509 F9000.000
M700 P0.127254
G1 X0.205 Y-6.515 F7200.000
G1 X0.845 Y-6.515
G1 X4.851 Y-2.509
M700 P0.000000
G1 X5.815 Y-2.825 F9000.000
M700 P0.127254
G1 X2.125 Y-6.515 F7200.000
G1 X2.765 Y-6.515
G1 X5.815 Y-3.465
M700 P0.000000
G1 X6.234 Y-3.685 F9000.000
M700 P0.127254
G1 X3.405 Y-6.515 F7200.000
G1 X4.045 Y-6.515
G1 X6.874 Y-3.685
G1 X7.514 Y-3.685
G1 X4.684 Y-6.515
G1 X5.324 Y-6.515
G1 X8.154 Y-3.685
G1 X8.794 Y-3.685
G1 X5.964 Y-6.515
G1 X6.604 Y-6.515
G1 X9.434 Y-3.685
M700 P0.000000
G1 X10.074 Y-3.685 F9000.000
M700 P0.127254
G1 X7.244 Y-6.515 F7200.000
G1 X7.884 Y-6.515
G1 X14.515 Y0.116
G1 X14.515 Y-0.524
G1 X8.524 Y-6.515
G1 X9.164 Y-6.515
G1 X14.515 Y-1.164
G1 X14.515 Y-1.804
G1 X9.804 Y-6.515
G1 X10.444 Y-6.515
G1 X14.515 Y-2.444
G1 X14.515 Y-3.084
G1 X11.084 Y-6.515
G1 X11.724 Y-6.515
G1 X14.515 Y-3.724
G1 X14.515 Y-4.364
G1 X12.364 Y-6.515
G1 X13.004 Y-6.515
G1 X14.515 Y-5.004
G1 X14.515 Y-5.644
G1 X13.644 Y-6.515
G1 X14.284 Y-6.515
G1 X14.515 Y-6.284
M700 P0.000000
G1 X10.485 Y-3.274 F9000.000
M700 P0.127254
G1 X11.574 Y-2.185 F7200.000
M700 P0.000000
G1 X11.985 Y-1.774 F9000.000
M700 P0.127254
G1 X14.515 Y0.756 F7200.000
G1 X14.515 Y1.396
G1 X11.985 Y-1.134
G1 X11.985 Y-0.494
G1 X14.515 Y2.036
G1 X14.515 Y2.676
G1 X11.985 Y0.146
G1 X11.985 Y0.786
G1 X14.515 Y3.316
G1 X14.515 Y3.955
G1 X11.985 Y1.426
G1 X11.985 Y2.066
G1 X14.515 Y4.595
G1 X14.515 Y5.235
G1 X11.765 Y2.485
G1 X11.125 Y2.485
G1 X14.515 Y5.875
G1 X14.495 Y6.495
G1 X10.485 Y2.486
G1 X10.485 Y3.126
G1 X13.874 Y6.515
G1 X13.235 Y6.515
G1 X10.485 Y3.765
M700 P0.000000
G1 X10.065 Y3.985 F9000.000
M700 P0.127254
G1 X12.595 Y6.515 F7200.000
G1 X11.955 Y6.515
G1 X9.425 Y3.985
G1 X8.785 Y3.985
G1 X11.315 Y6.515
G1 X10.675 Y6.515
G1 X8.145 Y3.985
G1 X7.505 Y3.985
G1 X10.035 Y6.515
G1 X9.395 Y6.515
G1 X6.865 Y3.985
G1 X6.225 Y3.985
G1 X8.755 Y6.515
G1 X8.115 Y6.515
G1 X4.409 Y2.809
G1 X5.049 Y2.809
G1 X5.815 Y3.575
G1 X5.815 Y2.935
G1 X5.365 Y2.485
M700 P0.000000
G1 X3.769 Y2.809 F9000.000
M700 P0.127254
G1 X7.475 Y6.515 F7200.000
G1 X6.835 Y6.515
G1 X2.805 Y2.485
G1 X2.485 Y2.805
G1 X6.195 Y6.515
G1 X5.555 Y6.515
G1 X2.485 Y3.445
G1 X2.385 Y3.985
G1 X4.915 Y6.515
G1 X4.275 Y6.515
G1 X1.745 Y3.985
G1 X1.105 Y3.985
G1 X3.635 Y6.515
G1 X2.995 Y6.515
G1 X0.465 Y3.985
G1 X-0.175 Y3.985
G1 X2.355 Y6.515
G1 X1.715 Y6.515
G1 X-0.815 Y3.985
G1 X-1.455 Y3.985
G1 X1.075 Y6.515
G1 X0.435 Y6.515
G1 X-3.271 Y2.809
G1 X-2.713 Y2.727
G1 X-2.185 Y3.255
M700 P0.000000
G1 X-1.485 Y6.515 F9000.000
M700 P0.127254
G1 X-5.514 Y2.485 F7200.000
M700 P0.000000
G1 X-3.850 Y2.150 F9000.000
G1 X-4.350 Y-1.850 F9000.000
G1 X-5.065 Y-2.185 F9000.000
M700 P0.127254
G1 X-5.515 Y-2.635 F7200.000
G1 X-5.515 Y-3.275
G1 X-4.749 Y-2.509
M700 P0.000000
G1 X1.485 Y-6.515 F9000.000
M700 P0.127254
G1 X5.814 Y-2.185 F7200.000
M700 P0.000000
G1 X6.150 Y-5.100 F9000.000
G1 X10.150 Y-3.350 F9000.000
G1 X10.485 Y-2.634 F9000.000
M700 P0.127254
G1 X10.934 Y-2.185 F7200.000
M700 P0.000000
G1 X10.150 Y-5.100 F9000.000
G1 X4.150 Y-3.850 F9000.000
G1 X4.150 Y-1.882 F9000.000
M700 P0.148171
G1 X4.150 Y2.182 F3600.000
G22 ; retract
G1 Z1.400 F9000.000
G1 X6.442 Y-1.558 F9000.000
G23 ; unretract
M700 P0.097171
G1 X6.442 Y-3.058 F2880.000
G1 X9.858 Y-3.058
G1 X9.858 Y-1.558
G1 X11.358 Y-1.558
G1 X11.358 Y1.858
G1 X9.858 Y1.858
G1 X9.858 Y3.358
G1 X6.442 Y3.358
G1 X6.442 Y1.858
G1 X4.942 Y1.858
G1 X4.942 Y-1.558
G1 X6.382 Y-1.558
M700 P0.000000
G1 X6.950 Y-1.050 F9000.000
M700 P0.055171
G1 X6.950 Y-2.550 F2880.000
G1 X9.350 Y-2.550
G1 X9.350 Y-1.050
G1 X10.850 Y-1.050
G1 X10.850 Y1.350
G1 X9.350 Y1.350
G1 X9.350 Y2.850
G1 X6.950 Y2.850
G1 X6.950 Y1.350
G1 X5.450 Y1.350
G1 X5.450 Y-1.050
G1 X6.890 Y-1.050
M700 P0.000000
G1 X6.750 Y-1.396 F9000.000
M700 P0.000000
G1 X1.858 Y-1.558 F9000.000
M700 P0.097171
G1 X3.358 Y-1.558 F2880.000
G1 X3.358 Y1.858
G1 X1.858 Y1.858
G1 X1.858 Y3.358
G1 X-1.558 Y3.358
G1 X-1.558 Y1.858
G1 X-3.058 Y1.858
G1 X-3.058 Y-1.558
G1 X-1.558 Y-1.558
G1 X-1.558 Y-3.058
G1 X1.858 Y-3.058
G1 X1.858 Y-1.618
M700 P0.000000
G1 X1.350 Y-1.050 F9000.000
M700 P0.055171
G1 X2.850 Y-1.050 F2880.000
G1 X2.850 Y1.350
G1 X1.350 Y1.350
G1 X1.350 Y2.850
G1 X-1.050 Y2.850
G1 X-1.050 Y1.350
G1 X-2.550 Y1.350
G1 X-2.550 Y-1.050
G1 X-1.050 Y-1.050
G1 X-1.050 Y-2.550
G1 X1.350 Y-2.550
G1 X1.350 Y-1.110
M700 P0.000000
G1 X1.696 Y-1.250 F9000.000
G22 ; retract
G1 X-1.850 Y-1.850 F9000.000
G1 X-4.350 Y-1.850 F9000.000
G1 X-6.142 Y-1.558 F9000.000
G23 ; unretract
M700 P0.097171
G1 X-4.642 Y-1.558 F2880.000
G1 X-4.642 Y1.858
G1 X-6.142 Y1.858
G1 X-6.142 Y3.358
G1 X-9.558 Y3.358
G1 X-9.558 Y1.858
G1 X-11.058 Y1.858
G1 X-11.058 Y-1.558
G1 X-9.558 Y-1.558
G1 X-9.558 Y-3.058
G1 X-6.142 Y-3.058
G1 X-6.142 Y-1.618
M700 P0.000000
G1 X-6.650 Y-1.050 F9000.000
M700 P0.055171
G1 X-5.150 Y-1.050 F2880.000
G1 X-5.150 Y1.350
G1 X-6.650 Y1.350
G1 X-6.650 Y2.850
G1 X-9.050 Y2.850
G1 X-9.050 Y1.350
G1 X-10.550 Y1.350
G1 X-10.550 Y-1.050
G1 X-9.050 Y-1.050
G1 X-9.050 Y-2.550
G1 X-6.650 Y-2.550
G1 X-6.650 Y-1.110
M700 P0.000000
G1 X-6.304 Y-1.250 F9000.000
G22 ; retract
G1 X-9.850 Y-3.350 F9000.000
G1 X-14.850 Y-6.850 F9000.000
G1 X-15.142 Y-7.142 F9000.000
G23 ; unretract
M700 P0.097171
G1 X15.142 Y-7.142 F4800.000
G1 X15.142 Y7.142
G1 X-15.142 Y7.142
G1 X-15.142 Y-7.082
M700 P0.000000
G1 X-15.650 Y-7.650 F9000.000
M700 P0.055171
G1 X15.650 Y-7.650 F2400.000
G1 X15.650 Y7.650
G1 X-15.650 Y7.650
G1 X-15.650 Y-7.590
M700 P0.000000
G1 X-15.304 Y-7.450 F9000.000
M700 P0.000000
G1 X-14.557 Y-6.242 F9000.000
M700 P0.098047
G1 X-14.242 Y-6.557 F7200.000
G1 X-13.318 Y-6.557
G1 X-14.557 Y-5.318
G1 X-14.557 Y-4.393
G1 X-12.393 Y-6.557
G1 X-11.469 Y-6.557
G1 X-14.557 Y-3.469
G1 X-14.557 Y-2.544
G1 X-10.544 Y-6.557
G1 X-9.620 Y-6.557
G1 X-11.706 Y-4.471
M700 P0.000000
G1 X-12.473 Y-3.704 F9000.000
M700 P0.098047
G1 X-14.557 Y-1.620 F7200.000
G1 X-14.557 Y-0.696
G1 X-8.696 Y-6.557
G1 X-7.771 Y-6.557
G1 X-14.557 Y0.229
G1 X-14.557 Y1.153
G1 X-11.643 Y-1.761
G1 X-11.643 Y-0.836
G1 X-14.557 Y2.077
G1 X-14.557 Y3.002
G1 X-11.643 Y0.088
G1 X-11.643 Y1.013
G1 X-14.557 Y3.926
M700 P0.000000
G1 X-14.414 Y6.557 F9000.000
M700 P0.098047
G1 X-12.314 Y4.456 F7200.000
G1 X-12.609 Y3.827
G1 X-14.557 Y5.775
G1 X-14.557 Y4.851
G1 X-11.643 Y1.937
M700 P0.000000
G1 X-11.225 Y2.443 F9000.000
M700 P0.098047
G1 X-12.173 Y3.392 F7200.000
G1 X-11.542 Y3.684
G1 X-10.301 Y2.443
G1 X-10.143 Y3.210
G1 X-13.490 Y6.557
G1 X-12.565 Y6.557
G1 X-9.952 Y3.943
G1 X-9.027 Y3.943
G1 X-11.641 Y6.557
G1 X-10.717 Y6.557
G1 X-8.103 Y3.943
G1 X-7.179 Y3.943
G1 X-9.792 Y6.557
G1 X-8.868 Y6.557
G1 X-6.254 Y3.943
M700 P0.000000
G1 X-5.557 Y3.246 F9000.000
M700 P0.098047
G1 X-4.945 Y2.634 F7200.000
M700 P0.000000
G1 X-3.422 Y3.884 F9000.000
M700 P0.098047
G1 X-2.143 Y2.605 F7200.000
G1 X-3.229 Y2.767
G1 X-3.871 Y3.409
G1 X-4.154 Y2.767
G1 X-7.943 Y6.557
G1 X-7.019 Y6.557
G1 X-4.568 Y4.106
G1 X-4.108 Y4.570
G1 X-6.095 Y6.557
G1 X-5.170 Y6.557
G1 X-2.143 Y3.530
M700 P0.000000
G1 X-1.632 Y3.943 F9000.000
M700 P0.098047
G1 X-4.246 Y6.557 F7200.000
G1 X-3.321 Y6.557
G1 X-0.708 Y3.943
G1 X0.217 Y3.943
G1 X-2.397 Y6.557
G1 X-1.473 Y6.557
G1 X1.141 Y3.943
M700 P0.000000
G1 X2.065 Y3.943 F9000.000
M700 P0.098047
G1 X-0.548 Y6.557 F7200.000
G1 X0.376 Y6.557
G1 X4.166 Y2.767
G1 X5.090 Y2.767
G1 X4.314 Y3.543
M700 P0.000000
G1 X3.542 Y4.316 F9000.000
M700 P0.098047
G1 X1.300 Y6.557 F7200.000
G1 X2.225 Y6.557
G1 X5.857 Y2.925
G1 X5.857 Y3.849
G1 X3.149 Y6.557
G1 X4.074 Y6.557
G1 X6.687 Y3.943
G1 X7.612 Y3.943
G1 X4.998 Y6.557
G1 X5.922 Y6.557
G1 X8.536 Y3.943
G1 X9.461 Y3.943
G1 X6.847 Y6.557
G1 X7.771 Y6.557
G1 X14.557 Y-0.229
G1 X14.557 Y0.696
G1 X11.861 Y3.392
G1 X12.473 Y3.704
G1 X14.557 Y1.620
G1 X14.557 Y2.544
G1 X10.544 Y6.557
G1 X11.469 Y6.557
G1 X14.557 Y3.469
G1 X14.557 Y4.393
G1 X12.393 Y6.557
G1 X13.318 Y6.557
G1 X14.557 Y5.318
G1 X14.557 Y6.242
G1 X14.242 Y6.557
M700 P0.000000
G1 X11.706 Y4.471 F9000.000
M700 P0.098047
G1 X9.620 Y6.557 F7200.000
G1 X8.696 Y6.557
G1 X11.388 Y3.865
M700 P0.000000
G1 X10.443 Y2.961 F9000.000
M700 P0.098047
G1 X10.961 Y2.443 F7200.000
M700 P0.000000
G1 X14.557 Y-1.153 F9000.000
M700 P0.098047
G1 X11.943 Y1.461 F7200.000
G1 X11.943 Y0.536
G1 X14.557 Y-2.078
G1 X14.557 Y-3.002
G1 X11.943 Y-0.388
G1 X11.943 Y-1.313
G1 X14.557 Y-3.926
G1 X14.557 Y-4.851
G1 X11.849 Y-2.143
G1 X10.925 Y-2.143
G1 X12.173 Y-3.392
G1 X11.542 Y-3.684
G1 X10.443 Y-2.586
G1 X10.443 Y-3.510
G1 X13.490 Y-6.557
G1 X12.565 Y-6.557
G1 X9.652 Y-3.643
G1 X8.727 Y-3.643
G1 X11.641 Y-6.557
G1 X10.717 Y-6.557
G1 X7.803 Y-3.643
G1 X6.879 Y-3.643
G1 X9.792 Y-6.557
G1 X8.868 Y-6.557
G1 X4.778 Y-2.467
M700 P0.000000
G1 X5.379 Y-2.143 F9000.000
M700 P0.098047
G1 X5.857 Y-2.621 F7200.000
M700 P0.000000
G1 X2.443 Y-2.905 F9000.000
M700 P0.098047
G1 X3.432 Y-3.894 F7200.000
G1 X3.892 Y-3.430
G1 X2.605 Y-2.143
G1 X3.055 Y-2.592
G1 X3.854 Y-2.467
G1 X7.943 Y-6.557
G1 X7.019 Y-6.557
G1 X4.568 Y-4.106
G1 X4.108 Y-4.570
G1 X6.095 Y-6.557
G1 X5.170 Y-6.557
G1 X2.257 Y-3.643
G1 X1.332 Y-3.643
G1 X4.246 Y-6.557
G1 X3.321 Y-6.557
G1 X0.408 Y-3.643
G1 X-0.517 Y-3.643
G1 X2.397 Y-6.557
G1 X1.473 Y-6.557
G1 X-1.441 Y-3.643
M700 P0.000000
G1 X-2.143 Y-2.941 F9000.000
M700 P0.098047
G1 X-2.755 Y-2.330 F7200.000
G1 X-3.542 Y-2.467
G1 X0.548 Y-6.557
G1 X-0.376 Y-6.557
G1 X-4.466 Y-2.467
G1 X-4.314 Y-3.544
G1 X-5.557 Y-2.301
G1 X-5.557 Y-3.225
G1 X-2.225 Y-6.557
G1 X-3.149 Y-6.557
G1 X-6.063 Y-3.643
G1 X-6.987 Y-3.643
G1 X-4.074 Y-6.557
G1 X-4.998 Y-6.557
G1 X-7.912 Y-3.643
G1 X-8.836 Y-3.643
G1 X-5.923 Y-6.557
G1 X-6.847 Y-6.557
G1 X-9.761 Y-3.643
M700 P0.000000
G1 X-10.143 Y-3.261 F9000.000
M700 P0.098047
G1 X-11.261 Y-2.143 F7200.000
M700 P0.000000
G1 X-3.542 Y-4.316 F9000.000
M700 P0.098047
G1 X-1.301 Y-6.557 F7200.000
M700 P0.000000
G1 X4.150 Y-1.850 F9000.000
G1 X3.650 Y2.150 F9000.000
G1 X3.241 Y2.767 F9000.000
M700 P0.098047
G1 X2.443 Y3.565 F7200.000
M700 P0.000000
G1 X4.150 Y2.150 F9000.000
G1 X4.150 Y-4.529 F9000.000
G1 X12.609 Y-3.827 F9000.000
M700 P0.098047
G1 X14.557 Y-5.775 F7200.000
G1 X14.414 Y-6.557
G1 X12.314 Y-4.457
M700 P0.000000
G1 X4.150 Y-1.882 F9000.000
M700 P0.148171
G1 X4.150 Y2.182 F3600.000
M700 P0.000000
G1 X2.150 Y5.250 F9000.000
G1 X-3.850 Y4.150 F9000.000
G1 X-3.850 Y2.182 F9000.000
M700 P0.148171
G1 X-3.850 Y-1.882 F3600.000
G22 ; retract
G1 Z1.550 F9000.000
G1 X-10.853 Y-2.853 F9000.000
G23 ; unretract
M700 P0.097171
G1 X-10.853 Y-4.353 F4800.000
G1 X-4.847 Y-4.353
G1 X-4.847 Y-2.853
G1 X-2.853 Y-2.853
G1 X-2.853 Y-4.353
G1 X3.153 Y-4.353
G1 X3.153 Y-2.853
G1 X5.147 Y-2.853
G1 X5.147 Y-4.353
G1 X11.153 Y-4.353
G1 X11.153 Y-2.853
G1 X12.653 Y-2.853
G1 X12.653 Y3.153
G1 X11.153 Y3.153
G1 X11.153 Y4.653
G1 X5.147 Y4.653
G1 X5.147 Y3.153
G1 X3.153 Y3.153
G1 X3.153 Y4.653
G1 X-2.853 Y4.653
G1 X-2.853 Y3.153
G1 X-4.847 Y3.153
G1 X-4.847 Y4.653
G1 X-10.853 Y4.653
G1 X-10.853 Y3.153
G1 X-12.353 Y3.153
G1 X-12.353 Y-2.853
G1 X-10.913 Y-2.853
M700 P0.000000
G1 X-10.206 Y-2.206 F9000.000
M700 P0.097171
G1 X-10.206 Y-3.706 F4800.000
G1 X-5.494 Y-3.706
G1 X-5.494 Y-2.206
G1 X-2.206 Y-2.206
G1 X-2.206 Y-3.706
G1 X2.506 Y-3.706
G1 X2.506 Y-2.206
G1 X5.794 Y-2.206
G1 X5.794 Y-3.706
G1 X10.506 Y-3.706
G1 X10.506 Y-2.206
G1 X12.006 Y-2.206
G1 X12.006 Y2.506
G1 X10.506 Y2.506
G1 X10.506 Y4.006
G1 X5.794 Y4.006
G1 X5.794 Y2.506
G1 X2.506 Y2.506
G1 X2.506 Y4.006
G1 X-2.206 Y4.006
G1 X-2.206 Y2.506
G1 X-5.494 Y2.506
G1 X-5.494 Y4.006
G1 X-10.206 Y4.006
G1 X-10.206 Y2.506
G1 X-11.706 Y2.506
G1 X-11.706 Y-2.206
G1 X-10.266 Y-2.206
G22 ; retract
G1 X-9.850 Y-5.100 F9000.000
G1 X4.650 Y-3.350 F9000.000
G1 X4.650 Y-1.850 F9000.000
G1 X6.442 Y-1.558 F9000.000
G23 ; unretract
M700 P0.097171
G1 X6.442 Y-3.058 F2880.000
G1 X9.858 Y-3.058
G1 X9.858 Y-1.558
G1 X11.358 Y-1.558
G1 X11.358 Y1.858
G1 X9.858 Y1.858
G1 X9.858 Y3.358
G1 X6.442 Y3.358
G1 X6.442 Y1.858
G1 X4.942 Y1.858
G1 X4.942 Y-1.558
G1 X6.382 Y-1.558
M700 P0.000000
G1 X6.950 Y-1.050 F9000.000
M700 P0.055171
G1 X6.950 Y-2.550 F2880.000
G1 X9.350 Y-2.550
G1 X9.350 Y-1.050
G1 X10.850 Y-1.050
G1 X10.850 Y1.350
G1 X9.350 Y1.350
G1 X9.350 Y2.850
G1 X6.950 Y2.850
G1 X6.950 Y1.350
G1 X5.450 Y1.350
G1 X5.450 Y-1.050
G1 X6.890 Y-1.050
M700 P0.000000
G1 X6.750 Y-1.396 F9000.000
G22 ; retract
G1 X1.858 Y-1.558 F9000.000
G23 ; unretract
M700 P0.097171
G1 X3.358 Y-1.558 F2880.000
G1 X3.358 Y1.858
G1 X1.858 Y1.858
G1 X1.858 Y3.358
G1 X-1.558 Y3.358
G1 X-1.558 Y1.858
G1 X-3.058 Y1.858
G1 X-3.058 Y-1.558
G1 X-1.558 Y-1.558
G1 X-1.558 Y-3.058
G1 X1.858 Y-3.058
G1 X1.858 Y-1.618
M700 P0.000000
G1 X1.350 Y-1.050 F9000.000
M700 P0.055171
G1 X2.850 Y-1.050 F2880.000
G1 X2.850 Y1.350
G1 X1.350 Y1.350
G1 X1.350 Y2.850
G1 X-1.050 Y2.850
G1 X-1.050 Y1.350
G1 X-2.550 Y1.350
G1 X-2.550 Y-1.050
G1 X-1.050 Y-1.050
G1 X-1.050 Y-2.550
G1 X1.350 Y-2.550
G1 X1.350 Y-1.110
M700 P0.000000
G1 X1.696 Y-1.250 F9000.000
G22 ; retract
G1 X-1.850 Y-1.850 F9000.000
G1 X-4.350 Y-1.850 F9000.000
G1 X-6.142 Y-1.558 F9000.000
G23 ; unretract
M700 P0.097171
G1 X-4.642 Y-1.558 F2880.000
G1 X-4.642 Y1.858
G1 X-6.142 Y1.858
G1 X-6.142 Y3.358
G1 X-9.558 Y3.358
G1 X-9.558 Y1.858
G1 X-11.058 Y1.858
G1 X-11.058 Y-1.558
G1 X-9.558 Y-1.558
G1 X-9.558 Y-3.058
G1 X-6.142 Y-3.058
G1 X-6.142 Y-1.618
M700 P0.000000
G1 X-6.650 Y-1.050 F9000.000
M700 P0.055171
G1 X-5.150 Y-1.050 F2880.000
G1 X-5.150 Y1.350
G1 X-6.650 Y1.350
G1 X-6.650 Y2.850
G1 X-9.050 Y2.850
G1 X-9.050 Y1.350
G1 X-10.550 Y1.350
G1 X-10.550 Y-1.050
G1 X-9.050 Y-1.050
G1 X-9.050 Y-2.550
G1 X-6.650 Y-2.550
G1 X-6.650 Y-1.110
M700 P0.000000
G1 X-6.304 Y-1.250 F9000.000
G22 ; retract
G1 X-9.850 Y-3.350 F9000.000
G1 X-13.847 Y-5.847 F9000.000
G23 ; unretract
M700 P0.097171
G1 X13.847 Y-5.847 F4800.000
G1 X13.847 Y5.847
G1 X-13.847 Y5.847
G1 X-13.847 Y-5.787
M700 P0.000000
G1 X-14.494 Y-6.494 F9000.000
M700 P0.097171
G1 X14.494 Y-6.494 F4800.000
G1 X14.494 Y6.494
G1 X-14.494 Y6.494
G1 X-14.494 Y-6.434
M700 P0.000000
G1 X-15.142 Y-7.142 F9000.000
M700 P0.097171
G1 X15.142 Y-7.142 F4800.000
G1 X15.142 Y7.142
G1 X-15.142 Y7.142
G1 X-15.142 Y-7.082
M700 P0.000000
G1 X-15.650 Y-7.650 F9000.000
M700 P0.055171
G1 X15.650 Y-7.650 F2400.000
G1 X15.650 Y7.650
G1 X-15.650 Y7.650
G1 X-15.650 Y-7.590
M700 P0.000000
G1 X-15.304 Y-7.450 F9000.000
G22 ; retract
G1 X-12.946 Y-3.763 F9000.000
G23 ; unretract
M700 P0.125551
G1 X-13.261 Y-4.078 F7200.000
G1 X-13.241 Y-5.241
G1 X-12.391 Y-4.391
G1 X-12.078 Y-5.261
G1 X-11.763 Y-4.946
M700 P0.000000
G1 X-11.177 Y-5.100 F9000.000
M700 P0.148171
G1 X-4.523 Y-5.100 F3600.000
M700 P0.000000
G1 X-3.754 Y-4.005 F9000.000
M700 P0.097171
G1 X-3.439 Y-3.690 F7200.000
M700 P0.000000
G1 X-3.177 Y-5.100 F9000.000
M700 P0.148171
G1 X3.477 Y-5.100 F3600.000
M700 P0.000000
G1 X4.246 Y-4.005 F9000.000
M700 P0.097171
G1 X4.561 Y-3.690 F7200.000
M700 P0.000000
G1 X4.823 Y-5.100 F9000.000
M700 P0.148171
G1 X11.477 Y-5.100 F3600.000
M700 P0.000000
G1 X13.261 Y-4.946 F9000.000
M700 P0.161847
G1 X12.946 Y-5.261 F7200.000
G1 X12.606 Y-4.076
G1 X12.919 Y-3.763
M700 P0.000000
G1 X13.250 Y-3.177 F9000.000
M700 P0.046171
G1 X13.250 Y3.477 F3600.000
M700 P0.148171
G1 X13.250 Y-3.177 F3600.000
G22 ; retract
G1 X11.783 Y3.739 F9000.000
G23 ; unretract
M700 P0.097171
G1 X12.092 Y4.048 F7200.000
M700 P0.000000
G1 X13.261 Y4.378 F9000.000
M700 P0.187463
G1 X12.946 Y4.063 F7200.000
G1 X12.063 Y4.946
G1 X12.378 Y5.261
M700 P0.000000
G1 X11.477 Y5.250 F9000.000
M700 P0.046171
G1 X4.823 Y5.250 F3600.000
M700 P0.148171
G1 X11.477 Y5.250 F3600.000
G22 ; retract
G1 X4.561 Y4.054 F9000.000
G23 ; unretract
M700 P0.097171
G1 X4.246 Y3.739 F7200.000
M700 P0.000000
G1 X4.150 Y2.182 F9000.000
M700 P0.148171
G1 X4.150 Y-1.882 F3600.000
G22 ; retract
G1 X3.477 Y5.250 F9000.000
G23 ; unretract
M700 P0.046171
G1 X-3.177 Y5.250 F3600.000
M700 P0.148171
G1 X3.477 Y5.250 F3600.000
G22 ; retract
G1 X-3.439 Y4.054 F9000.000
G23 ; unretract
M700 P0.097171
G1 X-3.754 Y3.739 F7200.000
M700 P0.000000
G1 X-3.850 Y2.182 F9000.000
M700 P0.148171
G1 X-3.850 Y-1.882 F3600.000
G22 ; retract
G1 X-4.523 Y5.250 F9000.000
G23 ; unretract
M700 P0.046171
G1 X-11.177 Y5.250 F3600.000
M700 P0.148171
G1 X-4.523 Y5.250 F3600.000
G22 ; retract
G1 X-11.763 Y4.923 F9000.000
G23 ; unretract
M700 P0.161401
G1 X-12.078 Y4.608 F7200.000
G1 X-12.946 Y5.261
G1 X-13.261 Y4.946
M700 P0.000000
G1 X-13.100 Y3.477 F9000.000
M700 P0.148171
G1 X-13.100 Y-3.177 F3600.000
M700 P0.000000
G1 X-11.754 Y-4.005 F9000.000
M700 P0.097171
G1 X-11.439 Y-3.690 F7200.000
G22 ; retract
G1 Z1.700 F9000.000
G1 X10.458 Y3.313 F9000.000
G23 ; unretract
M700 P0.097171
G1 X10.634 Y3.008 F2880.000
G1 X10.870 Y2.745
G1 X11.156 Y2.538
G1 X11.478 Y2.394
G1 X11.823 Y2.321
G1 X12.177 Y2.321
G1 X12.495 Y2.389
M700 P0.097171
G1 X12.848 Y2.540 F2880.000
G1 X13.130 Y2.745
G1 X13.366 Y3.008
G1 X13.542 Y3.313
G1 X13.651 Y3.649
G1 X13.688 Y4.000
G1 X13.651 Y4.351
G1 X13.542 Y4.687
G1 X13.366 Y4.992
G1 X13.130 Y5.255
G1 X12.844 Y5.462
G1 X12.522 Y5.606
G1 X12.176 Y5.679
G1 X11.824 Y5.679
G1 X11.478 Y5.606
G1 X11.156 Y5.462
G1 X10.870 Y5.255
G1 X10.634 Y4.992
G1 X10.458 Y4.687
G1 X10.349 Y4.351
G1 X10.312 Y4.000
G1 X10.349 Y3.649
G1 X10.439 Y3.370
M700 P0.000000
G1 X10.018 Y3.059 F9000.000
M700 P0.055171
G1 X10.221 Y2.708 F2880.000
G1 X10.529 Y2.366
G1 X10.901 Y2.096
G1 X11.321 Y1.909
G1 X11.770 Y1.813
G1 X12.230 Y1.813
G1 X12.650 Y1.902
M700 P0.055171
G1 X13.100 Y2.096 F2880.000
G1 X13.471 Y2.366
G1 X13.779 Y2.708
G1 X14.009 Y3.106
G1 X14.151 Y3.543
G1 X14.199 Y4.000
G1 X14.151 Y4.457
G1 X14.009 Y4.894
G1 X13.779 Y5.292
G1 X13.471 Y5.634
G1 X13.099 Y5.904
G1 X12.679 Y6.091
G1 X12.230 Y6.187
G1 X11.770 Y6.187
G1 X11.321 Y6.091
G1 X10.901 Y5.904
G1 X10.529 Y5.634
G1 X10.221 Y5.292
G1 X9.991 Y4.894
G1 X9.849 Y4.457
G1 X9.801 Y4.000
G1 X9.849 Y3.543
G1 X9.989 Y3.112
M700 P0.000000
G1 X10.417 Y3.034 F9000.000
M700 P0.000000
G1 X11.598 Y3.073 F9000.000
M700 P0.141015
G1 X11.066 Y3.604 F7200.000
G1 X11.198 Y4.802
G1 X12.802 Y3.198
G1 X12.934 Y4.396
G1 X12.402 Y4.928
G22 ; retract
G1 X9.600 Y4.000 F9000.000
G1 X6.400 Y4.000 F9000.000
G1 X5.651 Y3.649 F9000.000
G23 ; unretract
M700 P0.097171
G1 X5.688 Y4.000 F2880.000
G1 X5.651 Y4.351
G1 X5.542 Y4.687
G1 X5.366 Y4.992
G1 X5.130 Y5.255
G1 X4.844 Y5.462
G1 X4.522 Y5.606
G1 X4.176 Y5.679
G1 X3.824 Y5.679
G1 X3.478 Y5.606
G1 X3.156 Y5.462
G1 X2.870 Y5.255
G1 X2.634 Y4.992
G1 X2.458 Y4.687
G1 X2.349 Y4.351
G1 X2.312 Y4.000
G1 X2.349 Y3.649
G1 X2.458 Y3.313
G1 X2.634 Y3.008
G1 X2.870 Y2.745
G1 X3.156 Y2.538
G1 X3.478 Y2.394
G1 X3.823 Y2.321
G1 X4.177 Y2.321
G1 X4.495 Y2.389
M700 P0.097171
G1 X4.848 Y2.540 F2880.000
G1 X5.130 Y2.745
G1 X5.366 Y3.008
G1 X5.542 Y3.313
G1 X5.633 Y3.592
M700 P0.000000
G1 X6.156 Y3.596 F9000.000
M700 P0.055171
G1 X6.199 Y4.000 F2880.000
G1 X6.151 Y4.457
G1 X6.009 Y4.894
G1 X5.779 Y5.292
G1 X5.471 Y5.634
G1 X5.099 Y5.904
G1 X4.679 Y6.091
G1 X4.230 Y6.187
G1 X3.770 Y6.187
G1 X3.321 Y6.091
G1 X2.901 Y5.904
G1 X2.529 Y5.634
G1 X2.221 Y5.292
G1 X1.991 Y4.894
G1 X1.849 Y4.457
G1 X1.801 Y4.000
G1 X1.849 Y3.543
G1 X1.991 Y3.106
G1 X2.221 Y2.708
G1 X2.529 Y2.366
G1 X2.901 Y2.096
G1 X3.321 Y1.909
G1 X3.770 Y1.813
G1 X4.230 Y1.813
G1 X4.650 Y1.902
M700 P0.055171
G1 X5.100 Y2.096 F2880.000
G1 X5.471 Y2.366
G1 X5.779 Y2.708
G1 X6.009 Y3.106
G1 X6.149 Y3.537
M700 P0.000000
G1 X5.848 Y3.851 F9000.000
M700 P0.000000
G1 X4.402 Y4.928 F9000.000
M700 P0.141015
G1 X4.934 Y4.396 F7200.000
G1 X4.802 Y3.198
G1 X3.198 Y4.802
G1 X3.066 Y3.604
G1 X3.598 Y3.073
G22 ; retract
G1 X4.251 Y1.613 F9000.000
G1 X4.251 Y-1.613 F9000.000
G1 X4.522 Y-2.394 F9000.000
G23 ; unretract
M700 P0.097171
G1 X4.177 Y-2.321 F2880.000
G1 X3.823 Y-2.321
G1 X3.478 Y-2.394
G1 X3.156 Y-2.538
G1 X2.870 Y-2.745
G1 X2.634 Y-3.008
G1 X2.458 Y-3.313
G1 X2.349 Y-3.649
G1 X2.312 Y-4.000
G1 X2.349 Y-4.351
G1 X2.458 Y-4.687
G1 X2.634 Y-4.992
G1 X2.870 Y-5.255
G1 X3.156 Y-5.462
G1 X3.478 Y-5.606
G1 X3.823 Y-5.679
G1 X4.177 Y-5.679
G1 X4.495 Y-5.611
M700 P0.097171
G1 X4.848 Y-5.460 F2880.000
G1 X5.130 Y-5.255
G1 X5.366 Y-4.992
G1 X5.542 Y-4.687
G1 X5.651 Y-4.351
G1 X5.688 Y-4.000
G1 X5.651 Y-3.649
G1 X5.542 Y-3.313
G1 X5.366 Y-3.008
G1 X5.130 Y-2.745
G1 X4.844 Y-2.538
G1 X4.576 Y-2.419
M700 P0.000000
G1 X4.728 Y-1.930 F9000.000
M700 P0.055171
G1 X4.230 Y-1.813 F2880.000
G1 X3.770 Y-1.813
G1 X3.321 Y-1.909
G1 X2.901 Y-2.096
G1 X2.529 Y-2.366
G1 X2.221 Y-2.708
G1 X1.991 Y-3.106
G1 X1.849 Y-3.543
G1 X1.801 Y-4.000
G1 X1.849 Y-4.457
G1 X1.991 Y-4.894
G1 X2.221 Y-5.292
G1 X2.529 Y-5.634
G1 X2.901 Y-5.904
G1 X3.321 Y-6.091
G1 X3.770 Y-6.187
G1 X4.230 Y-6.187
G1 X4.650 Y-6.098
M700 P0.055171
G1 X5.100 Y-5.904 F2880.000
G1 X5.471 Y-5.634
G1 X5.779 Y-5.292
G1 X6.009 Y-4.894
G1 X6.151 Y-4.457
G1 X6.199 Y-4.000
G1 X6.151 Y-3.543
G1 X6.009 Y-3.106
G1 X5.779 Y-2.708
G1 X5.471 Y-2.366
G1 X5.099 Y-2.096
G1 X4.783 Y-1.955
M700 P0.000000
G1 X4.436 Y-2.204 F9000.000
M700 P0.000000
G1 X4.402 Y-3.073 F9000.000
M700 P0.141019
G1 X4.934 Y-3.604 F7200.000
G1 X4.802 Y-4.802
G1 X3.198 Y-3.198
G1 X3.066 Y-4.396
G1 X3.598 Y-4.927
G22 ; retract
G1 X6.400 Y-4.000 F9000.000
G1 X9.600 Y-4.000 F9000.000
G1 X10.349 Y-3.649 F9000.000
G23 ; unretract
M700 P0.097171
G1 X10.312 Y-4.000 F2880.000
G1 X10.349 Y-4.351
G1 X10.458 Y-4.687
G1 X10.634 Y-4.992
G1 X10.870 Y-5.255
G1 X11.156 Y-5.462
G1 X11.478 Y-5.606
G1 X11.823 Y-5.679
G1 X12.177 Y-5.679
G1 X12.495 Y-5.611
M700 P0.097171
G1 X12.848 Y-5.460 F2880.000
G1 X13.130 Y-5.255
G1 X13.366 Y-4.992
G1 X13.542 Y-4.687
G1 X13.651 Y-4.351
G1 X13.688 Y-4.000
G1 X13.651 Y-3.649
G1 X13.542 Y-3.313
G1 X13.366 Y-3.008
G1 X13.130 Y-2.745
G1 X12.844 Y-2.538
G1 X12.522 Y-2.394
G1 X12.177 Y-2.321
G1 X11.823 Y-2.321
G1 X11.478 Y-2.394
G1 X11.156 Y-2.538
G1 X10.870 Y-2.745
G1 X10.634 Y-3.008
G1 X10.458 Y-3.313
G1 X10.367 Y-3.592
M700 P0.000000
G1 X9.866 Y-3.492 F9000.000
M700 P0.055171
G1 X9.801 Y-4.000 F2880.000
G1 X9.849 Y-4.457
G1 X9.991 Y-4.894
G1 X10.221 Y-5.292
G1 X10.529 Y-5.634
G1 X10.901 Y-5.904
G1 X11.321 Y-6.091
G1 X11.770 Y-6.187
G1 X12.230 Y-6.187
G1 X12.650 Y-6.098
M700 P0.055171
G1 X13.100 Y-5.904 F2880.000
G1 X13.471 Y-5.634
G1 X13.779 Y-5.292
G1 X14.009 Y-4.894
G1 X14.151 Y-4.457
G1 X14.199 Y-4.000
G1 X14.151 Y-3.543
G1 X14.009 Y-3.106
G1 X13.779 Y-2.708
G1 X13.471 Y-2.366
G1 X13.099 Y-2.096
G1 X12.679 Y-1.909
G1 X12.230 Y-1.813
G1 X11.770 Y-1.813
G1 X11.321 Y-1.909
G1 X10.901 Y-2.096
G1 X10.529 Y-2.366
G1 X10.221 Y-2.708
G1 X9.991 Y-3.106
G1 X9.884 Y-3.435
M700 P0.000000
G1 X10.168 Y-3.754 F9000.000
M700 P0.000000
G1 X11.598 Y-4.927 F9000.000
M700 P0.141019
G1 X11.066 Y-4.396 F7200.000
G1 X11.198 Y-3.198
G1 X12.802 Y-4.802
G1 X12.934 Y-3.604
G1 X12.402 Y-3.073
G22 ; retract
G1 X9.600 Y-4.000 F9000.000
G1 X2.811 Y-7.287 F9000.000
G1 X-1.600 Y-4.000 F9000.000
G1 X-2.312 Y-4.000 F9000.000
G23 ; unretract
M700 P0.097171
G1 X-2.349 Y-3.649 F2880.000
G1 X-2.458 Y-3.313
G1 X-2.634 Y-3.008
G1 X-2.870 Y-2.745
G1 X-3.156 Y-2.538
G1 X-3.478 Y-2.394
G1 X-3.823 Y-2.321
G1 X-4.177 Y-2.321
G1 X-4.522 Y-2.394
G1 X-4.844 Y-2.538
G1 X-5.130 Y-2.745
G1 X-5.366 Y-3.008
G1 X-5.542 Y-3.313
G1 X-5.651 Y-3.649
G1 X-5.688 Y-4.000
G1 X-5.651 Y-4.351
G1 X-5.542 Y-4.687
G1 X-5.366 Y-4.992
G1 X-5.130 Y-5.255
G1 X-4.844 Y-5.462
G1 X-4.522 Y-5.606
G1 X-4.177 Y-5.679
G1 X-3.823 Y-5.679
G1 X-3.505 Y-5.611
M700 P0.097171
G1 X-3.152 Y-5.460 F2880.000
G1 X-2.870 Y-5.255
G1 X-2.634 Y-4.992
G1 X-2.458 Y-4.687
G1 X-2.349 Y-4.351
G1 X-2.318 Y-4.060
M700 P0.000000
G1 X-1.807 Y-4.053 F9000.000
M700 P0.055171
G1 X-1.849 Y-3.543 F2880.000
G1 X-1.991 Y-3.106
G1 X-2.221 Y-2.708
G1 X-2.529 Y-2.366
G1 X-2.901 Y-2.096
G1 X-3.321 Y-1.909
G1 X-3.770 Y-1.813
G1 X-4.230 Y-1.813
G1 X-4.679 Y-1.909
G1 X-5.099 Y-2.096
G1 X-5.471 Y-2.366
G1 X-5.779 Y-2.708
G1 X-6.009 Y-3.106
G1 X-6.151 Y-3.543
G1 X-6.199 Y-4.000
G1 X-6.151 Y-4.457
G1 X-6.009 Y-4.894
G1 X-5.779 Y-5.292
G1 X-5.471 Y-5.634
G1 X-5.099 Y-5.904
G1 X-4.679 Y-6.091
G1 X-4.230 Y-6.187
G1 X-3.770 Y-6.187
G1 X-3.350 Y-6.098
M700 P0.055171
G1 X-2.900 Y-5.904 F2880.000
G1 X-2.529 Y-5.634
G1 X-2.221 Y-5.292
G1 X-1.991 Y-4.894
G1 X-1.849 Y-4.457
G1 X-1.813 Y-4.113
M700 P0.000000
G1 X-2.157 Y-3.860 F9000.000
M700 P0.000000
G1 X-3.598 Y-3.073 F9000.000
M700 P0.141019
G1 X-3.066 Y-3.604 F7200.000
G1 X-3.198 Y-4.802
G1 X-4.802 Y-3.198
G1 X-4.934 Y-4.396
G1 X-4.402 Y-4.927
G22 ; retract
G1 X-6.348 Y-4.499 F9000.000
G1 X-9.600 Y-4.000 F9000.000
G1 X-10.312 Y-4.000 F9000.000
G23 ; unretract
M700 P0.097171
G1 X-10.349 Y-3.649 F2880.000
G1 X-10.458 Y-3.313
G1 X-10.634 Y-3.008
G1 X-10.870 Y-2.745
G1 X-11.156 Y-2.538
G1 X-11.478 Y-2.394
G1 X-11.824 Y-2.321
G1 X-12.176 Y-2.321
G1 X-12.522 Y-2.394
G1 X-12.844 Y-2.538
G1 X-13.130 Y-2.745
G1 X-13.366 Y-3.008
G1 X-13.542 Y-3.313
G1 X-13.651 Y-3.649
G1 X-13.688 Y-4.000
G1 X-13.651 Y-4.351
G1 X-13.542 Y-4.687
G1 X-13.366 Y-4.992
G1 X-13.130 Y-5.255
G1 X-12.844 Y-5.462
G1 X-12.522 Y-5.606
G1 X-12.176 Y-5.679
G1 X-11.824 Y-5.679
G1 X-11.505 Y-5.611
M700 P0.097171
G1 X-11.152 Y-5.460 F2880.000
G1 X-10.870 Y-5.255
G1 X-10.634 Y-4.992
G1 X-10.458 Y-4.687
G1 X-10.349 Y-4.351
G1 X-10.318 Y-4.060
M700 P0.000000
G1 X-9.807 Y-4.053 F9000.000
M700 P0.055171
G1 X-9.849 Y-3.543 F2880.000
G1 X-9.991 Y-3.106
G1 X-10.221 Y-2.708
G1 X-10.529 Y-2.366
G1 X-10.901 Y-2.096
G1 X-11.321 Y-1.909
G1 X-11.770 Y-1.813
G1 X-12.230 Y-1.813
G1 X-12.679 Y-1.909
G1 X-13.099 Y-2.096
G1 X-13.471 Y-2.366
G1 X-13.779 Y-2.708
G1 X-14.009 Y-3.106
G1 X-14.151 Y-3.543
G1 X-14.199 Y-4.000
G1 X-14.151 Y-4.457
G1 X-14.009 Y-4.894
G1 X-13.779 Y-5.292
G1 X-13.471 Y-5.634
G1 X-13.099 Y-5.904
G1 X-12.679 Y-6.091
G1 X-12.230 Y-6.187
G1 X-11.770 Y-6.187
G1 X-11.350 Y-6.098
M700 P0.055171
G1 X-10.900 Y-5.904 F2880.000
G1 X-10.529 Y-5.634
G1 X-10.221 Y-5.292
G1 X-9.991 Y-4.894
G1 X-9.849 Y-4.457
G1 X-9.813 Y-4.113
M700 P0.000000
G1 X-10.157 Y-3.860 F9000.000
M700 P0.000000
G1 X-11.598 Y-3.073 F9000.000
M700 P0.141020
G1 X-11.066 Y-3.604 F7200.000
G1 X-11.198 Y-4.802
G1 X-12.802 Y-3.198
G1 X-12.934 Y-4.396
G1 X-12.402 Y-4.927
G22 ; retract
G1 X-11.749 Y-1.613 F9000.000
G1 X-11.749 Y1.613 F9000.000
G1 X-11.505 Y2.389 F9000.000
G23 ; unretract
M700 P0.097171
G1 X-11.152 Y2.540 F2880.000
G1 X-10.870 Y2.745
G1 X-10.634 Y3.008
G1 X-10.458 Y3.313
G1 X-10.349 Y3.649
G1 X-10.312 Y4.000
G1 X-10.349 Y4.351
G1 X-10.458 Y4.687
G1 X-10.634 Y4.992
G1 X-10.870 Y5.255
G1 X-11.156 Y5.462
G1 X-11.478 Y5.606
G1 X-11.824 Y5.679
G1 X-12.176 Y5.679
G1 X-12.522 Y5.606
G1 X-12.844 Y5.462
G1 X-13.130 Y5.255
G1 X-13.366 Y4.992
G1 X-13.542 Y4.687
G1 X-13.651 Y4.351
G1 X-13.688 Y4.000
G1 X-13.651 Y3.649
G1 X-13.542 Y3.313
G1 X-13.366 Y3.008
G1 X-13.130 Y2.745
G1 X-12.844 Y2.538
G1 X-12.522 Y2.394
G1 X-12.176 Y2.321
G1 X-11.824 Y2.321
G1 X-11.563 Y2.376
M700 P0.000000
G1 X-11.399 Y1.892 F9000.000
M700 P0.055171
G1 X-11.350 Y1.902 F2880.000
M700 P0.055171
G1 X-10.900 Y2.096 F2880.000
G1 X-10.529 Y2.366
G1 X-10.221 Y2.708
G1 X-9.991 Y3.106
G1 X-9.849 Y3.543
G1 X-9.801 Y4.000
G1 X-9.849 Y4.457
G1 X-9.991 Y4.894
G1 X-10.221 Y5.292
G1 X-10.529 Y5.634
G1 X-10.901 Y5.904
G1 X-11.321 Y6.091
G1 X-11.770 Y6.187
G1 X-12.230 Y6.187
G1 X-12.679 Y6.091
G1 X-13.099 Y5.904
G1 X-13.471 Y5.634
G1 X-13.779 Y5.292
G1 X-14.009 Y4.894
G1 X-14.151 Y4.457
G1 X-14.199 Y4.000
G1 X-14.151 Y3.543
G1 X-14.009 Y3.106
G1 X-13.779 Y2.708
G1 X-13.471 Y2.366
G1 X-13.099 Y2.096
G1 X-12.679 Y1.909
G1 X-12.230 Y1.813
G1 X-11.770 Y1.813
G1 X-11.458 Y1.880
M700 P0.000000
G1 X-11.384 Y1.940 F9000.000
M700 P0.000000
G1 X-12.402 Y3.073 F9000.000
M700 P0.141017
G1 X-12.934 Y3.604 F7200.000
G1 X-12.802 Y4.802
G1 X-11.198 Y3.198
G1 X-11.066 Y4.396
G1 X-11.598 Y4.928
G22 ; retract
G1 X-9.600 Y4.000 F9000.000
G1 X-6.400 Y4.000 F9000.000
G1 X-5.651 Y3.649 F9000.000
G23 ; unretract
M700 P0.097171
G1 X-5.542 Y3.313 F2880.000
G1 X-5.366 Y3.008
G1 X-5.130 Y2.745
G1 X-4.844 Y2.538
G1 X-4.522 Y2.394
G1 X-4.177 Y2.321
G1 X-3.824 Y2.321
G1 X-3.505 Y2.389
M700 P0.097171
G1 X-3.152 Y2.540 F2880.000
G1 X-2.870 Y2.745
G1 X-2.634 Y3.008
G1 X-2.458 Y3.313
G1 X-2.349 Y3.649
G1 X-2.312 Y4.000
G1 X-2.349 Y4.351
G1 X-2.458 Y4.687
G1 X-2.634 Y4.992
G1 X-2.870 Y5.255
G1 X-3.156 Y5.462
G1 X-3.478 Y5.606
G1 X-3.824 Y5.679
G1 X-4.176 Y5.679
G1 X-4.522 Y5.606
G1 X-4.844 Y5.462
G1 X-5.130 Y5.255
G1 X-5.366 Y4.992
G1 X-5.542 Y4.687
G1 X-5.651 Y4.351
G1 X-5.688 Y4.000
G1 X-5.658 Y3.709
M700 P0.000000
G1 X-6.134 Y3.492 F9000.000
M700 P0.055171
G1 X-6.009 Y3.106 F2880.000
G1 X-5.779 Y2.708
G1 X-5.471 Y2.366
G1 X-5.099 Y2.096
G1 X-4.679 Y1.909
G1 X-4.230 Y1.813
G1 X-3.770 Y1.813
G1 X-3.350 Y1.902
M700 P0.055171
G1 X-2.900 Y2.096 F2880.000
G1 X-2.529 Y2.366
G1 X-2.221 Y2.708
G1 X-1.991 Y3.106
G1 X-1.849 Y3.543
G1 X-1.801 Y4.000
G1 X-1.849 Y4.457
G1 X-1.991 Y4.894
G1 X-2.221 Y5.292
G1 X-2.529 Y5.634
G1 X-2.901 Y5.904
G1 X-3.321 Y6.091
G1 X-3.770 Y6.187
G1 X-4.230 Y6.187
G1 X-4.679 Y6.091
G1 X-5.099 Y5.904
G1 X-5.471 Y5.634
G1 X-5.779 Y5.292
G1 X-6.009 Y4.894
G1 X-6.151 Y4.457
G1 X-6.199 Y4.000
G1 X-6.152 Y3.549
M700 P0.000000
G1 X-5.749 Y3.385 F9000.000
M700 P0.000000
G1 X-4.402 Y3.073 F9000.000
M700 P0.141016
G1 X-4.934 Y3.604 F7200.000
G1 X-4.802 Y4.802
G1 X-3.198 Y3.198
G1 X-3.066 Y4.396
G1 X-3.598 Y4.928
G22 ; retract
G1 Z1.850 F9000.000
G1 X10.312 Y4.000 F9000.000
G23 ; unretract
M700 P0.097171
G1 X10.349 Y3.649 F2880.000
G1 X10.458 Y3.313
G1 X10.634 Y3.008
G1 X10.870 Y2.745
G1 X11.156 Y2.538
G1 X11.478 Y2.394
G1 X11.823 Y2.321
G1 X12.177 Y2.321
G1 X12.522 Y2.394
M700 P0.097171
G1 X12.844 Y2.538 F2880.000
G1 X13.130 Y2.745
G1 X13.366 Y3.008
G1 X13.542 Y3.313
G1 X13.651 Y3.649
G1 X13.688 Y4.000
G1 X13.651 Y4.351
G1 X13.542 Y4.687
G1 X13.366 Y4.992
G1 X13.130 Y5.255
G1 X12.844 Y5.462
G1 X12.522 Y5.606
G1 X12.176 Y5.679
G1 X11.824 Y5.679
G1 X11.478 Y5.606
G1 X11.156 Y5.462
G1 X10.870 Y5.255
G1 X10.634 Y4.992
G1 X10.458 Y4.687
G1 X10.349 Y4.351
G1 X10.318 Y4.060
M700 P0.000000
G1 X9.807 Y4.053 F9000.000
M700 P0.055171
G1 X9.849 Y3.543 F2880.000
G1 X9.991 Y3.106
G1 X10.221 Y2.708
G1 X10.529 Y2.366
G1 X10.901 Y2.096
G1 X11.321 Y1.909
G1 X11.770 Y1.813
G1 X12.230 Y1.813
G1 X12.633 Y1.899
M700 P0.055171
G1 X13.099 Y2.096 F2880.000
G1 X13.471 Y2.366
G1 X13.779 Y2.708
G1 X14.009 Y3.106
G1 X14.151 Y3.543
G1 X14.199 Y4.000
G1 X14.151 Y4.457
G1 X14.009 Y4.894
G1 X13.779 Y5.292
G1 X13.471 Y5.634
G1 X13.099 Y5.904
G1 X12.679 Y6.091
G1 X12.230 Y6.187
G1 X11.770 Y6.187
G1 X11.321 Y6.091
G1 X10.901 Y5.904
G1 X10.529 Y5.634
G1 X10.221 Y5.292
G1 X9.991 Y4.894
G1 X9.849 Y4.457
G1 X9.813 Y4.113
M700 P0.000000
G1 X10.157 Y3.860 F9000.000
M700 P0.000000
G1 X11.066 Y4.396 F9000.000
M700 P0.141015
G1 X11.598 Y4.928 F7200.000
G1 X12.802 Y4.802
G1 X11.198 Y3.198
G1 X12.402 Y3.073
G1 X12.934 Y3.604
G22 ; retract
G1 X12.251 Y1.613 F9000.000
G1 X11.749 Y-1.613 F9000.000
G1 X11.478 Y-2.394 F9000.000
G23 ; unretract
M700 P0.097171
G1 X11.156 Y-2.538 F2880.000
G1 X10.870 Y-2.745
G1 X10.634 Y-3.008
G1 X10.458 Y-3.313
G1 X10.349 Y-3.649
G1 X10.312 Y-4.000
G1 X10.349 Y-4.351
G1 X10.458 Y-4.687
G1 X10.634 Y-4.992
G1 X10.870 Y-5.255
G1 X11.156 Y-5.462
G1 X11.478 Y-5.606
G1 X11.823 Y-5.679
G1 X12.177 Y-5.679
G1 X12.522 Y-5.606
M700 P0.097171
G1 X12.844 Y-5.462 F2880.000
G1 X13.130 Y-5.255
G1 X13.366 Y-4.992
G1 X13.542 Y-4.687
G1 X13.651 Y-4.351
G1 X13.688 Y-4.000
G1 X13.651 Y-3.649
G1 X13.542 Y-3.313
G1 X13.366 Y-3.008
G1 X13.130 Y-2.745
G1 X12.844 Y-2.538
G1 X12.522 Y-2.394
G1 X12.177 Y-2.321
G1 X11.823 Y-2.321
G1 X11.537 Y-2.382
M700 P0.000000
G1 X11.272 Y-1.930 F9000.000
M700 P0.055171
G1 X10.901 Y-2.096 F2880.000
G1 X10.529 Y-2.366
G1 X10.221 Y-2.708
G1 X9.991 Y-3.106
G1 X9.849 Y-3.543
G1 X9.801 Y-4.000
G1 X9.849 Y-4.457
G1 X9.991 Y-4.894
G1 X10.221 Y-5.292
G1 X10.529 Y-5.634
G1 X10.901 Y-5.904
G1 X11.321 Y-6.091
G1 X11.770 Y-6.187
G1 X12.230 Y-6.187
G1 X12.633 Y-6.101
M700 P0.055171
G1 X13.099 Y-5.904 F2880.000
G1 X13.471 Y-5.634
G1 X13.779 Y-5.292
G1 X14.009 Y-4.894
G1 X14.151 Y-4.457
G1 X14.199 Y-4.000
G1 X14.151 Y-3.543
G1 X14.009 Y-3.106
G1 X13.779 Y-2.708
G1 X13.471 Y-2.366
G1 X13.099 Y-2.096
G1 X12.679 Y-1.909
G1 X12.230 Y-1.813
G1 X11.770 Y-1.813
G1 X11.327 Y-1.907
M700 P0.000000
G1 X11.205 Y-2.325 F9000.000
M700 P0.000000
G1 X11.066 Y-3.604 F9000.000
M700 P0.141019
G1 X11.598 Y-3.073 F7200.000
G1 X12.802 Y-3.198
G1 X11.198 Y-4.802
G1 X12.402 Y-4.927
G1 X12.934 Y-4.396
G22 ; retract
G1 X9.600 Y-4.000 F9000.000
G1 X6.400 Y-4.000 F9000.000
G1 X5.651 Y-3.649 F9000.000
G23 ; unretract
M700 P0.097171
G1 X5.542 Y-3.313 F2880.000
G1 X5.366 Y-3.008
G1 X5.130 Y-2.745
G1 X4.844 Y-2.538
G1 X4.522 Y-2.394
G1 X4.177 Y-2.321
G1 X3.823 Y-2.321
G1 X3.478 Y-2.394
G1 X3.156 Y-2.538
G1 X2.870 Y-2.745
G1 X2.634 Y-3.008
G1 X2.458 Y-3.313
G1 X2.349 Y-3.649
G1 X2.312 Y-4.000
G1 X2.349 Y-4.351
G1 X2.458 Y-4.687
G1 X2.634 Y-4.992
G1 X2.870 Y-5.255
G1 X3.156 Y-5.462
G1 X3.478 Y-5.606
G1 X3.823 Y-5.679
G1 X4.177 Y-5.679
G1 X4.522 Y-5.606
M700 P0.097171
G1 X4.844 Y-5.462 F2880.000
G1 X5.130 Y-5.255
G1 X5.366 Y-4.992
G1 X5.542 Y-4.687
G1 X5.651 Y-4.351
G1 X5.688 Y-4.000
G1 X5.658 Y-3.709
M700 P0.000000
G1 X6.156 Y-3.596 F9000.000
M700 P0.055171
G1 X6.009 Y-3.106 F2880.000
G1 X5.779 Y-2.708
G1 X5.471 Y-2.366
G1 X5.099 Y-2.096
G1 X4.679 Y-1.909
G1 X4.230 Y-1.813
G1 X3.770 Y-1.813
G1 X3.321 Y-1.909
G1 X2.901 Y-2.096
G1 X2.529 Y-2.366
G1 X2.221 Y-2.708
G1 X1.991 Y-3.106
G1 X1.849 Y-3.543
G1 X1.801 Y-4.000
G1 X1.849 Y-4.457
G1 X1.991 Y-4.894
G1 X2.221 Y-5.292
G1 X2.529 Y-5.634
G1 X2.901 Y-5.904
G1 X3.321 Y-6.091
G1 X3.770 Y-6.187
G1 X4.230 Y-6.187
G1 X4.633 Y-6.101
M700 P0.055171
G1 X5.099 Y-5.904 F2880.000
G1 X5.471 Y-5.634
G1 X5.779 Y-5.292
G1 X6.009 Y-4.894
G1 X6.151 Y-4.457
G1 X6.199 Y-4.000
G1 X6.163 Y-3.656
M700 P0.000000
G1 X5.774 Y-3.480 F9000.000
M700 P0.000000
G1 X4.934 Y-4.396 F9000.000
M700 P0.141019
G1 X4.402 Y-4.927 F7200.000
G1 X3.198 Y-4.802
G1 X4.802 Y-3.198
G1 X3.598 Y-3.073
G1 X3.066 Y-3.604
G22 ; retract
G1 X1.600 Y-4.000 F9000.000
G1 X-1.600 Y-4.000 F9000.000
G1 X-2.312 Y-4.000 F9000.000
G23 ; unretract
M700 P0.097171
G1 X-2.349 Y-3.649 F2880.000
G1 X-2.458 Y-3.313
G1 X-2.634 Y-3.008
G1 X-2.870 Y-2.745
G1 X-3.156 Y-2.538
G1 X-3.478 Y-2.394
G1 X-3.823 Y-2.321
G1 X-4.177 Y-2.321
G1 X-4.522 Y-2.394
G1 X-4.844 Y-2.538
G1 X-5.130 Y-2.745
G1 X-5.366 Y-3.008
G1 X-5.542 Y-3.313
G1 X-5.651 Y-3.649
G1 X-5.688 Y-4.000
G1 X-5.651 Y-4.351
G1 X-5.542 Y-4.687
G1 X-5.366 Y-4.992
G1 X-5.130 Y-5.255
G1 X-4.844 Y-5.462
G1 X-4.522 Y-5.606
G1 X-4.177 Y-5.679
G1 X-3.823 Y-5.679
G1 X-3.478 Y-5.606
M700 P0.097171
G1 X-3.156 Y-5.462 F2880.000
G1 X-2.870 Y-5.255
G1 X-2.634 Y-4.992
G1 X-2.458 Y-4.687
G1 X-2.349 Y-4.351
G1 X-2.318 Y-4.060
M700 P0.000000
G1 X-1.807 Y-4.053 F9000.000
M700 P0.055171
G1 X-1.849 Y-3.543 F2880.000
G1 X-1.991 Y-3.106
G1 X-2.221 Y-2.708
G1 X-2.529 Y-2.366
G1 X-2.901 Y-2.096
G1 X-3.321 Y-1.909
G1 X-3.770 Y-1.813
G1 X-4.230 Y-1.813
G1 X-4.679 Y-1.909
G1 X-5.099 Y-2.096
G1 X-5.471 Y-2.366
G1 X-5.779 Y-2.708
G1 X-6.009 Y-3.106
G1 X-6.151 Y-3.543
G1 X-6.199 Y-4.000
G1 X-6.151 Y-4.457
G1 X-6.009 Y-4.894
G1 X-5.779 Y-5.292
G1 X-5.471 Y-5.634
G1 X-5.099 Y-5.904
G1 X-4.679 Y-6.091
G1 X-4.230 Y-6.187
G1 X-3.770 Y-6.187
G1 X-3.367 Y-6.101
M700 P0.055171
G1 X-2.901 Y-5.904 F2880.000
G1 X-2.529 Y-5.634
G1 X-2.221 Y-5.292
G1 X-1.991 Y-4.894
G1 X-1.849 Y-4.457
G1 X-1.813 Y-4.113
M700 P0.000000
G1 X-2.157 Y-3.860 F9000.000
M700 P0.000000
G1 X-3.066 Y-4.396 F9000.000
M700 P0.141019
G1 X-3.598 Y-4.927 F7200.000
G1 X-4.802 Y-4.802
G1 X-3.198 Y-3.198
G1 X-4.402 Y-3.073
G1 X-4.934 Y-3.604
G22 ; retract
G1 X-6.400 Y-4.000 F9000.000
G1 X-9.600 Y-4.000 F9000.000
G1 X-10.312 Y-4.000 F9000.000
G23 ; unretract
M700 P0.097171
G1 X-10.349 Y-3.649 F2880.000
G1 X-10.458 Y-3.313
G1 X-10.634 Y-3.008
G1 X-10.870 Y-2.745
G1 X-11.156 Y-2.538
G1 X-11.478 Y-2.394
G1 X-11.824 Y-2.321
G1 X-12.176 Y-2.321
G1 X-12.522 Y-2.394
G1 X-12.844 Y-2.538
G1 X-13.130 Y-2.745
G1 X-13.366 Y-3.008
G1 X-13.542 Y-3.313
G1 X-13.651 Y-3.649
G1 X-13.688 Y-4.000
G1 X-13.651 Y-4.351
G1 X-13.542 Y-4.687
G1 X-13.366 Y-4.992
G1 X-13.130 Y-5.255
G1 X-12.844 Y-5.462
G1 X-12.522 Y-5.606
G1 X-12.176 Y-5.679
G1 X-11.824 Y-5.679
G1 X-11.478 Y-5.606
M700 P0.097171
G1 X-11.156 Y-5.462 F2880.000
G1 X-10.870 Y-5.255
G1 X-10.634 Y-4.992
G1 X-10.458 Y-4.687
G1 X-10.349 Y-4.351
G1 X-10.318 Y-4.060
M700 P0.000000
G1 X-9.807 Y-4.053 F9000.000
M700 P0.055171
G1 X-9.849 Y-3.543 F2880.000
G1 X-9.991 Y-3.106
G1 X-10.221 Y-2.708
G1 X-10.529 Y-2.366
G1 X-10.901 Y-2.096
G1 X-11.321 Y-1.909
G1 X-11.770 Y-1.813
G1 X-12.230 Y-1.813
G1 X-12.679 Y-1.909
G1 X-13.099 Y-2.096
G1 X-13.471 Y-2.366
G1 X-13.779 Y-2.708
G1 X-14.009 Y-3.106
G1 X-14.151 Y-3.543
G1 X-14.199 Y-4.000
G1 X-14.151 Y-4.457
G1 X-14.009 Y-4.894
G1 X-13.779 Y-5.292
G1 X-13.471 Y-5.634
G1 X-13.099 Y-5.904
G1 X-12.679 Y-6.091
G1 X-12.230 Y-6.187
G1 X-11.770 Y-6.187
G1 X-11.367 Y-6.101
M700 P0.055171
G1 X-10.901 Y-5.904 F2880.000
G1 X-10.529 Y-5.634
G1 X-10.221 Y-5.292
G1 X-9.991 Y-4.894
G1 X-9.849 Y-4.457
G1 X-9.813 Y-4.113
M700 P0.000000
G1 X-10.157 Y-3.860 F9000.000
M700 P0.000000
G1 X-11.066 Y-4.396 F9000.000
M700 P0.141020
G1 X-11.598 Y-4.927 F7200.000
G1 X-12.802 Y-4.802
G1 X-11.198 Y-3.198
G1 X-12.402 Y-3.073
G1 X-12.934 Y-3.604
G22 ; retract
G1 X-12.251 Y-1.613 F9000.000
G1 X-11.749 Y1.613 F9000.000
G1 X-11.478 Y2.394 F9000.000
G23 ; unretract
M700 P0.097171
G1 X-11.156 Y2.538 F2880.000
G1 X-10.870 Y2.745
G1 X-10.634 Y3.008
G1 X-10.458 Y3.313
G1 X-10.349 Y3.649
G1 X-10.312 Y4.000
G1 X-10.349 Y4.351
G1 X-10.458 Y4.687
G1 X-10.634 Y4.992
G1 X-10.870 Y5.255
G1 X-11.156 Y5.462
G1 X-11.478 Y5.606
G1 X-11.824 Y5.679
G1 X-12.176 Y5.679
G1 X-12.522 Y5.606
G1 X-12.844 Y5.462
G1 X-13.130 Y5.255
G1 X-13.366 Y4.992
G1 X-13.542 Y4.687
G1 X-13.651 Y4.351
G1 X-13.688 Y4.000
G1 X-13.651 Y3.649
G1 X-13.542 Y3.313
G1 X-13.366 Y3.008
G1 X-13.130 Y2.745
G1 X-12.844 Y2.538
G1 X-12.522 Y2.394
G1 X-12.176 Y2.321
G1 X-11.824 Y2.321
G1 X-11.537 Y2.382
M700 P0.000000
G1 X-11.272 Y1.930 F9000.000
M700 P0.055171
G1 X-10.901 Y2.096 F2880.000
G1 X-10.529 Y2.366
G1 X-10.221 Y2.708
G1 X-9.991 Y3.106
G1 X-9.849 Y3.543
G1 X-9.801 Y4.000
G1 X-9.849 Y4.457
G1 X-9.991 Y4.894
G1 X-10.221 Y5.292
G1 X-10.529 Y5.634
G1 X-10.901 Y5.904
G1 X-11.321 Y6.091
G1 X-11.770 Y6.187
G1 X-12.230 Y6.187
G1 X-12.679 Y6.091
G1 X-13.099 Y5.904
G1 X-13.471 Y5.634
G1 X-13.779 Y5.292
G1 X-14.009 Y4.894
G1 X-14.151 Y4.457
G1 X-14.199 Y4.000
G1 X-14.151 Y3.543
G1 X-14.009 Y3.106
G1 X-13.779 Y2.708
G1 X-13.471 Y2.366
G1 X-13.099 Y2.096
G1 X-12.679 Y1.909
G1 X-12.230 Y1.813
G1 X-11.770 Y1.813
G1 X-11.367 Y1.899
M700 P0.055171
G1 X-11.327 Y1.907 F2880.000
M700 P0.000000
G1 X-11.217 Y2.327 F9000.000
M700 P0.000000
G1 X-11.066 Y3.604 F9000.000
M700 P0.141017
G1 X-11.598 Y3.073 F7200.000
G1 X-12.802 Y3.198
G1 X-11.198 Y4.802
G1 X-12.402 Y4.928
G1 X-12.934 Y4.396
G22 ; retract
G1 X-9.600 Y4.000 F9000.000
G1 X-6.400 Y4.000 F9000.000
G1 X-5.651 Y3.649 F9000.000
G23 ; unretract
M700 P0.097171
G1 X-5.542 Y3.313 F2880.000
G1 X-5.366 Y3.008
G1 X-5.130 Y2.745
G1 X-4.844 Y2.538
G1 X-4.522 Y2.394
G1 X-4.177 Y2.321
G1 X-3.823 Y2.321
G1 X-3.478 Y2.394
M700 P0.097171
G1 X-3.156 Y2.538 F2880.000
G1 X-2.870 Y2.745
G1 X-2.634 Y3.008
G1 X-2.458 Y3.313
G1 X-2.349 Y3.649
G1 X-2.312 Y4.000
G1 X-2.349 Y4.351
G1 X-2.458 Y4.687
G1 X-2.634 Y4.992
G1 X-2.870 Y5.255
G1 X-3.156 Y5.462
G1 X-3.478 Y5.606
G1 X-3.824 Y5.679
G1 X-4.176 Y5.679
G1 X-4.522 Y5.606
G1 X-4.844 Y5.462
G1 X-5.130 Y5.255
G1 X-5.366 Y4.992
G1 X-5.542 Y4.687
G1 X-5.651 Y4.351
G1 X-5.688 Y4.000
G1 X-5.658 Y3.709
M700 P0.000000
G1 X-6.156 Y3.596 F9000.000
M700 P0.055171
G1 X-6.009 Y3.106 F2880.000
G1 X-5.779 Y2.708
G1 X-5.471 Y2.366
G1 X-5.099 Y2.096
G1 X-4.679 Y1.909
G1 X-4.230 Y1.813
G1 X-3.770 Y1.813
G1 X-3.367 Y1.899
M700 P0.055171
G1 X-2.901 Y2.096 F2880.000
G1 X-2.529 Y2.366
G1 X-2.221 Y2.708
G1 X-1.991 Y3.106
G1 X-1.849 Y3.543
G1 X-1.801 Y4.000
G1 X-1.849 Y4.457
G1 X-1.991 Y4.894
G1 X-2.221 Y5.292
G1 X-2.529 Y5.634
G1 X-2.901 Y5.904
G1 X-3.321 Y6.091
G1 X-3.770 Y6.187
G1 X-4.230 Y6.187
G1 X-4.679 Y6.091
G1 X-5.099 Y5.904
G1 X-5.471 Y5.634
G1 X-5.779 Y5.292
G1 X-6.009 Y4.894
G1 X-6.151 Y4.457
G1 X-6.199 Y4.000
G1 X-6.163 Y3.656
M700 P0.000000
G1 X-5.774 Y3.480 F9000.000
M700 P0.000000
G1 X-4.934 Y4.396 F9000.000
M700 P0.141016
G1 X-4.402 Y4.928 F7200.000
G1 X-3.198 Y4.802
G1 X-4.802 Y3.198
G1 X-3.598 Y3.073
G1 X-3.066 Y3.604
G22 ; retract
G1 X-1.600 Y4.000 F9000.000
G1 X1.600 Y4.000 F9000.000
G1 X2.312 Y4.000 F9000.000
G23 ; unretract
M700 P0.097171
G1 X2.349 Y3.649 F2880.000
G1 X2.458 Y3.313
G1 X2.634 Y3.008
G1 X2.870 Y2.745
G1 X3.156 Y2.538
G1 X3.478 Y2.394
G1 X3.823 Y2.321
G1 X4.177 Y2.321
G1 X4.522 Y2.394
M700 P0.097171
G1 X4.844 Y2.538 F2880.000
G1 X5.130 Y2.745
G1 X5.366 Y3.008
G1 X5.542 Y3.313
G1 X5.651 Y3.649
G1 X5.688 Y4.000
G1 X5.651 Y4.351
G1 X5.542 Y4.687
G1 X5.366 Y4.992
G1 X5.130 Y5.255
G1 X4.844 Y5.462
G1 X4.522 Y5.606
G1 X4.176 Y5.679
G1 X3.824 Y5.679
G1 X3.478 Y5.606
G1 X3.156 Y5.462
G1 X2.870 Y5.255
G1 X2.634 Y4.992
G1 X2.458 Y4.687
G1 X2.349 Y4.351
G1 X2.318 Y4.060
M700 P0.000000
G1 X1.807 Y4.053 F9000.000
M700 P0.055171
G1 X1.849 Y3.543 F2880.000
G1 X1.991 Y3.106
G1 X2.221 Y2.708
G1 X2.529 Y2.366
G1 X2.901 Y2.096
G1 X3.321 Y1.909
G1 X3.770 Y1.813
G1 X4.230 Y1.813
G1 X4.633 Y1.899
M700 P0.055171
G1 X5.099 Y2.096 F2880.000
G1 X5.471 Y2.366
G1 X5.779 Y2.708
G1 X6.009 Y3.106
G1 X6.151 Y3.543
G1 X6.199 Y4.000
G1 X6.151 Y4.457
G1 X6.009 Y4.894
G1 X5.779 Y5.292
G1 X5.471 Y5.634
G1 X5.099 Y5.904
G1 X4.679 Y6.091
G1 X4.230 Y6.187
G1 X3.770 Y6.187
G1 X3.321 Y6.091
G1 X2.901 Y5.904
G1 X2.529 Y5.634
G1 X2.221 Y5.292
G1 X1.991 Y4.894
G1 X1.849 Y4.457
G1 X1.813 Y4.113
M700 P0.000000
G1 X2.157 Y3.860 F9000.000
M700 P0.000000
G1 X3.066 Y4.396 F9000.000
M700 P0.141015
G1 X3.598 Y4.928 F7200.000
G1 X4.802 Y4.802
G1 X3.198 Y3.198
G1 X4.402 Y3.073
G1 X4.934 Y3.604
G22 ; retract
G1 Z2.000 F9000.000
G1 X10.312 Y4.000 F9000.000
G23 ; unretract
M700 P0.097171
G1 X10.349 Y3.649 F2880.000
G1 X10.458 Y3.313
G1 X10.634 Y3.008
G1 X10.870 Y2.745
G1 X11.156 Y2.538
G1 X11.478 Y2.394
G1 X11.823 Y2.321
G1 X12.177 Y2.321
G1 X12.490 Y2.388
M700 P0.097171
G1 X12.844 Y2.538 F2880.000
G1 X13.130 Y2.745
G1 X13.366 Y3.008
G1 X13.542 Y3.313
G1 X13.651 Y3.649
G1 X13.688 Y4.000
G1 X13.651 Y4.351
G1 X13.542 Y4.687
G1 X13.366 Y4.992
G1 X13.130 Y5.255
G1 X12.844 Y5.462
G1 X12.522 Y5.606
G1 X12.176 Y5.679
G1 X11.824 Y5.679
G1 X11.478 Y5.606
G1 X11.156 Y5.462
G1 X10.870 Y5.255
G1 X10.634 Y4.992
G1 X10.458 Y4.687
G1 X10.349 Y4.351
G1 X10.318 Y4.060
M700 P0.000000
G1 X9.807 Y4.053 F9000.000
M700 P0.055171
G1 X9.849 Y3.543 F2880.000
G1 X9.991 Y3.106
G1 X10.221 Y2.708
G1 X10.529 Y2.366
G1 X10.901 Y2.096
G1 X11.321 Y1.909
G1 X11.770 Y1.813
G1 X12.230 Y1.813
G1 X12.596 Y1.891
M700 P0.055171
G1 X12.679 Y1.909 F2880.000
G1 X13.099 Y2.096
G1 X13.471 Y2.366
G1 X13.779 Y2.708
G1 X14.009 Y3.106
G1 X14.151 Y3.543
G1 X14.199 Y4.000
G1 X14.151 Y4.457
G1 X14.009 Y4.894
G1 X13.779 Y5.292
G1 X13.471 Y5.634
G1 X13.099 Y5.904
G1 X12.679 Y6.091
G1 X12.230 Y6.187
G1 X11.770 Y6.187
G1 X11.321 Y6.091
G1 X10.901 Y5.904
G1 X10.529 Y5.634
G1 X10.221 Y5.292
G1 X9.991 Y4.894
G1 X9.849 Y4.457
G1 X9.813 Y4.113
M700 P0.000000
G1 X10.157 Y3.860 F9000.000
M700 P0.000000
G1 X11.598 Y3.073 F9000.000
M700 P0.141016
G1 X11.066 Y3.604 F7200.000
G1 X11.198 Y4.802
G1 X12.802 Y3.198
G1 X12.934 Y4.396
G1 X12.402 Y4.928
G22 ; retract
G1 X11.749 Y1.613 F9000.000
G1 X11.749 Y-1.613 F9000.000
G1 X11.478 Y-2.394 F9000.000
G23 ; unretract
M700 P0.097171
G1 X11.156 Y-2.538 F2880.000
G1 X10.870 Y-2.745
G1 X10.634 Y-3.008
G1 X10.458 Y-3.313
G1 X10.349 Y-3.649
G1 X10.312 Y-4.000
G1 X10.349 Y-4.351
G1 X10.458 Y-4.687
G1 X10.634 Y-4.992
G1 X10.870 Y-5.255
G1 X11.156 Y-5.462
G1 X11.478 Y-5.606
G1 X11.823 Y-5.679
G1 X12.177 Y-5.679
G1 X12.490 Y-5.612
M700 P0.097171
G1 X12.844 Y-5.462 F2880.000
G1 X13.130 Y-5.255
G1 X13.366 Y-4.992
G1 X13.542 Y-4.687
G1 X13.651 Y-4.351
G1 X13.688 Y-4.000
G1 X13.651 Y-3.649
G1 X13.542 Y-3.313
G1 X13.366 Y-3.008
G1 X13.130 Y-2.745
G1 X12.844 Y-2.538
G1 X12.522 Y-2.394
G1 X12.177 Y-2.321
G1 X11.823 Y-2.321
G1 X11.537 Y-2.382
M700 P0.000000
G1 X11.373 Y-1.898 F9000.000
M700 P0.055171
G1 X10.901 Y-2.096 F2880.000
G1 X10.529 Y-2.366
G1 X10.221 Y-2.708
G1 X9.991 Y-3.106
G1 X9.849 Y-3.543
G1 X9.801 Y-4.000
G1 X9.849 Y-4.457
G1 X9.991 Y-4.894
G1 X10.221 Y-5.292
G1 X10.529 Y-5.634
G1 X10.901 Y-5.904
G1 X11.321 Y-6.091
G1 X11.770 Y-6.187
G1 X12.230 Y-6.187
G1 X12.596 Y-6.109
M700 P0.055171
G1 X12.679 Y-6.091 F2880.000
G1 X13.099 Y-5.904
G1 X13.471 Y-5.634
G1 X13.779 Y-5.292
G1 X14.009 Y-4.894
G1 X14.151 Y-4.457
G1 X14.199 Y-4.000
G1 X14.151 Y-3.543
G1 X14.009 Y-3.106
G1 X13.779 Y-2.708
G1 X13.471 Y-2.366
G1 X13.099 Y-2.096
G1 X12.679 Y-1.909
G1 X12.230 Y-1.813
G1 X11.770 Y-1.813
G1 X11.431 Y-1.885
M700 P0.000000
G1 X11.298 Y-2.291 F9000.000
M700 P0.000000
G1 X12.402 Y-3.073 F9000.000
M700 P0.141019
G1 X12.934 Y-3.604 F7200.000
G1 X12.802 Y-4.802
G1 X11.198 Y-3.198
G1 X11.066 Y-4.396
G1 X11.598 Y-4.927
G22 ; retract
G1 X9.600 Y-4.000 F9000.000
G1 X6.400 Y-4.000 F9000.000
G1 X5.651 Y-3.649 F9000.000
G23 ; unretract
M700 P0.097171
G1 X5.542 Y-3.313 F2880.000
G1 X5.366 Y-3.008
G1 X5.130 Y-2.745
G1 X4.844 Y-2.538
G1 X4.522 Y-2.394
G1 X4.177 Y-2.321
G1 X3.823 Y-2.321
G1 X3.478 Y-2.394
G1 X3.156 Y-2.538
G1 X2.870 Y-2.745
G1 X2.634 Y-3.008
G1 X2.458 Y-3.313
G1 X2.349 Y-3.649
G1 X2.312 Y-4.000
G1 X2.349 Y-4.351
G1 X2.458 Y-4.687
G1 X2.634 Y-4.992
G1 X2.870 Y-5.255
G1 X3.156 Y-5.462
G1 X3.478 Y-5.606
G1 X3.823 Y-5.679
G1 X4.177 Y-5.679
G1 X4.490 Y-5.612
M700 P0.097171
G1 X4.844 Y-5.462 F2880.000
G1 X5.130 Y-5.255
G1 X5.366 Y-4.992
G1 X5.542 Y-4.687
G1 X5.651 Y-4.351
G1 X5.688 Y-4.000
G1 X5.658 Y-3.709
M700 P0.000000
G1 X6.134 Y-3.492 F9000.000
M700 P0.055171
G1 X6.009 Y-3.106 F2880.000
G1 X5.779 Y-2.708
G1 X5.471 Y-2.366
G1 X5.099 Y-2.096
G1 X4.679 Y-1.909
G1 X4.230 Y-1.813
G1 X3.770 Y-1.813
G1 X3.321 Y-1.909
G1 X2.901 Y-2.096
G1 X2.529 Y-2.366
G1 X2.221 Y-2.708
G1 X1.991 Y-3.106
G1 X1.849 Y-3.543
G1 X1.801 Y-4.000
G1 X1.849 Y-4.457
G1 X1.991 Y-4.894
G1 X2.221 Y-5.292
G1 X2.529 Y-5.634
G1 X2.901 Y-5.904
G1 X3.321 Y-6.091
G1 X3.770 Y-6.187
G1 X4.230 Y-6.187
G1 X4.596 Y-6.109
M700 P0.055171
G1 X4.679 Y-6.091 F2880.000
G1 X5.099 Y-5.904
G1 X5.471 Y-5.634
G1 X5.779 Y-5.292
G1 X6.009 Y-4.894
G1 X6.151 Y-4.457
G1 X6.199 Y-4.000
G1 X6.152 Y-3.549
M700 P0.000000
G1 X5.749 Y-3.385 F9000.000
M700 P0.000000
G1 X4.402 Y-3.073 F9000.000
M700 P0.141019
G1 X4.934 Y-3.604 F7200.000
G1 X4.802 Y-4.802
G1 X3.198 Y-3.198
G1 X3.066 Y-4.396
G1 X3.598 Y-4.927
G22 ; retract
G1 X4.251 Y-1.613 F9000.000
G1 X4.251 Y1.613 F9000.000
G1 X4.522 Y2.394 F9000.000
G23 ; unretract
M700 P0.097171
G1 X4.844 Y2.538 F2880.000
G1 X5.130 Y2.745
G1 X5.366 Y3.008
G1 X5.542 Y3.313
G1 X5.651 Y3.649
G1 X5.688 Y4.000
G1 X5.651 Y4.351
G1 X5.542 Y4.687
G1 X5.366 Y4.992
G1 X5.130 Y5.255
G1 X4.844 Y5.462
G1 X4.522 Y5.606
G1 X4.176 Y5.679
G1 X3.824 Y5.679
G1 X3.478 Y5.606
G1 X3.156 Y5.462
G1 X2.870 Y5.255
G1 X2.634 Y4.992
G1 X2.458 Y4.687
G1 X2.349 Y4.351
G1 X2.312 Y4.000
G1 X2.349 Y3.649
G1 X2.458 Y3.313
G1 X2.634 Y3.008
G1 X2.870 Y2.745
G1 X3.156 Y2.538
G1 X3.478 Y2.394
G1 X3.823 Y2.321
G1 X4.177 Y2.321
G1 X4.463 Y2.382
M700 P0.000000
G1 X4.627 Y1.898 F9000.000
M700 P0.055171
G1 X5.099 Y2.096 F2880.000
G1 X5.471 Y2.366
G1 X5.779 Y2.708
G1 X6.009 Y3.106
G1 X6.151 Y3.543
G1 X6.199 Y4.000
G1 X6.151 Y4.457
G1 X6.009 Y4.894
G1 X5.779 Y5.292
G1 X5.471 Y5.634
G1 X5.099 Y5.904
G1 X4.679 Y6.091
G1 X4.230 Y6.187
G1 X3.770 Y6.187
G1 X3.321 Y6.091
G1 X2.901 Y5.904
G1 X2.529 Y5.634
G1 X2.221 Y5.292
G1 X1.991 Y4.894
G1 X1.849 Y4.457
G1 X1.801 Y4.000
G1 X1.849 Y3.543
G1 X1.991 Y3.106
G1 X2.221 Y2.708
G1 X2.529 Y2.366
G1 X2.901 Y2.096
G1 X3.321 Y1.909
G1 X3.770 Y1.813
G1 X4.230 Y1.813
G1 X4.569 Y1.885
M700 P0.000000
G1 X4.702 Y2.290 F9000.000
M700 P0.000000
G1 X3.598 Y3.073 F9000.000
M700 P0.141016
G1 X3.066 Y3.604 F7200.000
G1 X3.198 Y4.802
G1 X4.802 Y3.198
G1 X4.934 Y4.396
G1 X4.402 Y4.928
G22 ; retract
G1 X1.600 Y4.000 F9000.000
G1 X-1.600 Y4.000 F9000.000
G1 X-2.349 Y3.649 F9000.000
G23 ; unretract
M700 P0.097171
G1 X-2.312 Y4.000 F2880.000
G1 X-2.349 Y4.351
G1 X-2.458 Y4.687
G1 X-2.634 Y4.992
G1 X-2.870 Y5.255
G1 X-3.156 Y5.462
G1 X-3.478 Y5.606
G1 X-3.824 Y5.679
G1 X-4.176 Y5.679
G1 X-4.522 Y5.606
G1 X-4.844 Y5.462
G1 X-5.130 Y5.255
G1 X-5.366 Y4.992
G1 X-5.542 Y4.687
G1 X-5.651 Y4.351
G1 X-5.688 Y4.000
G1 X-5.651 Y3.649
G1 X-5.542 Y3.313
G1 X-5.366 Y3.008
G1 X-5.130 Y2.745
G1 X-4.844 Y2.538
G1 X-4.522 Y2.394
G1 X-4.177 Y2.321
G1 X-3.824 Y2.321
G1 X-3.510 Y2.388
M700 P0.097171
G1 X-3.156 Y2.538 F2880.000
G1 X-2.870 Y2.745
G1 X-2.634 Y3.008
G1 X-2.458 Y3.313
G1 X-2.367 Y3.592
M700 P0.000000
G1 X-1.866 Y3.492 F9000.000
M700 P0.055171
G1 X-1.801 Y4.000 F2880.000
G1 X-1.849 Y4.457
G1 X-1.991 Y4.894
G1 X-2.221 Y5.292
G1 X-2.529 Y5.634
G1 X-2.901 Y5.904
G1 X-3.321 Y6.091
G1 X-3.770 Y6.187
G1 X-4.230 Y6.187
G1 X-4.679 Y6.091
G1 X-5.099 Y5.904
G1 X-5.471 Y5.634
G1 X-5.779 Y5.292
G1 X-6.009 Y4.894
G1 X-6.151 Y4.457
G1 X-6.199 Y4.000
G1 X-6.151 Y3.543
G1 X-6.009 Y3.106
G1 X-5.779 Y2.708
G1 X-5.471 Y2.366
G1 X-5.099 Y2.096
G1 X-4.679 Y1.909
G1 X-4.230 Y1.813
G1 X-3.770 Y1.813
G1 X-3.404 Y1.891
M700 P0.055171
G1 X-3.321 Y1.909 F2880.000
G1 X-2.901 Y2.096
G1 X-2.529 Y2.366
G1 X-2.221 Y2.708
G1 X-1.991 Y3.106
G1 X-1.884 Y3.435
M700 P0.000000
G1 X-2.168 Y3.754 F9000.000
M700 P0.000000
G1 X-3.598 Y4.928 F9000.000
M700 P0.141016
G1 X-3.066 Y4.396 F7200.000
G1 X-3.198 Y3.198
G1 X-4.802 Y4.802
G1 X-4.934 Y3.604
G1 X-4.402 Y3.073
G22 ; retract
G1 X-6.348 Y3.501 F9000.000
G1 X-9.600 Y4.000 F9000.000
G1 X-10.312 Y4.000 F9000.000
G23 ; unretract
M700 P0.097171
G1 X-10.349 Y4.351 F2880.000
G1 X-10.458 Y4.687
G1 X-10.634 Y4.992
G1 X-10.870 Y5.255
G1 X-11.156 Y5.462
G1 X-11.478 Y5.606
G1 X-11.824 Y5.679
G1 X-12.176 Y5.679
G1 X-12.522 Y5.606
G1 X-12.844 Y5.462
G1 X-13.130 Y5.255
G1 X-13.366 Y4.992
G1 X-13.542 Y4.687
G1 X-13.651 Y4.351
G1 X-13.688 Y4.000
G1 X-13.651 Y3.649
G1 X-13.542 Y3.313
G1 X-13.366 Y3.008
G1 X-13.130 Y2.745
G1 X-12.844 Y2.538
G1 X-12.522 Y2.394
G1 X-12.176 Y2.321
G1 X-11.824 Y2.321
G1 X-11.510 Y2.388
M700 P0.097171
G1 X-11.156 Y2.538 F2880.000
G1 X-10.870 Y2.745
G1 X-10.634 Y3.008
G1 X-10.458 Y3.313
G1 X-10.349 Y3.649
G1 X-10.318 Y3.940
M700 P0.000000
G1 X-9.807 Y3.947 F9000.000
M700 P0.055171
G1 X-9.849 Y4.457 F2880.000
G1 X-9.991 Y4.894
G1 X-10.221 Y5.292
G1 X-10.529 Y5.634
G1 X-10.901 Y5.904
G1 X-11.321 Y6.091
G1 X-11.770 Y6.187
G1 X-12.230 Y6.187
G1 X-12.679 Y6.091
G1 X-13.099 Y5.904
G1 X-13.471 Y5.634
G1 X-13.779 Y5.292
G1 X-14.009 Y4.894
G1 X-14.151 Y4.457
G1 X-14.199 Y4.000
G1 X-14.151 Y3.543
G1 X-14.009 Y3.106
G1 X-13.779 Y2.708
G1 X-13.471 Y2.366
G1 X-13.099 Y2.096
G1 X-12.679 Y1.909
G1 X-12.230 Y1.813
G1 X-11.770 Y1.813
G1 X-11.404 Y1.891
M700 P0.055171
G1 X-11.321 Y1.909 F2880.000
G1 X-10.901 Y2.096
G1 X-10.529 Y2.366
G1 X-10.221 Y2.708
G1 X-9.991 Y3.106
G1 X-9.849 Y3.543
G1 X-9.813 Y3.887
M700 P0.000000
G1 X-10.157 Y4.140 F9000.000
M700 P0.000000
G1 X-11.598 Y4.928 F9000.000
M700 P0.141017
G1 X-11.066 Y4.396 F7200.000
G1 X-11.198 Y3.198
G1 X-12.802 Y4.802
G1 X-12.934 Y3.604
G1 X-12.402 Y3.073
G22 ; retract
G1 X-11.749 Y1.613 F9000.000
G1 X-11.749 Y-1.613 F9000.000
G1 X-11.478 Y-2.394 F9000.000
G23 ; unretract
M700 P0.097171
G1 X-11.824 Y-2.321 F2880.000
G1 X-12.176 Y-2.321
G1 X-12.522 Y-2.394
G1 X-12.844 Y-2.538
G1 X-13.130 Y-2.745
G1 X-13.366 Y-3.008
G1 X-13.542 Y-3.313
G1 X-13.651 Y-3.649
G1 X-13.688 Y-4.000
G1 X-13.651 Y-4.351
G1 X-13.542 Y-4.687
G1 X-13.366 Y-4.992
G1 X-13.130 Y-5.255
G1 X-12.844 Y-5.462
G1 X-12.522 Y-5.606
G1 X-12.176 Y-5.679
G1 X-11.824 Y-5.679
G1 X-11.510 Y-5.612
M700 P0.097171
G1 X-11.156 Y-5.462 F2880.000
G1 X-10.870 Y-5.255
G1 X-10.634 Y-4.992
G1 X-10.458 Y-4.687
G1 X-10.349 Y-4.351
G1 X-10.312 Y-4.000
G1 X-10.349 Y-3.649
G1 X-10.458 Y-3.313
G1 X-10.634 Y-3.008
G1 X-10.870 Y-2.745
G1 X-11.156 Y-2.538
G1 X-11.423 Y-2.419
M700 P0.000000
G1 X-11.373 Y-1.898 F9000.000
M700 P0.055171
G1 X-11.770 Y-1.813 F2880.000
G1 X-12.230 Y-1.813
G1 X-12.679 Y-1.909
G1 X-13.099 Y-2.096
G1 X-13.471 Y-2.366
G1 X-13.779 Y-2.708
G1 X-14.009 Y-3.106
G1 X-14.151 Y-3.543
G1 X-14.199 Y-4.000
G1 X-14.151 Y-4.457
G1 X-14.009 Y-4.894
G1 X-13.779 Y-5.292
G1 X-13.471 Y-5.634
G1 X-13.099 Y-5.904
G1 X-12.679 Y-6.091
G1 X-12.230 Y-6.187
G1 X-11.770 Y-6.187
G1 X-11.404 Y-6.109
M700 P0.055171
G1 X-11.321 Y-6.091 F2880.000
G1 X-10.901 Y-5.904
G1 X-10.529 Y-5.634
G1 X-10.221 Y-5.292
G1 X-9.991 Y-4.894
G1 X-9.849 Y-4.457
G1 X-9.801 Y-4.000
G1 X-9.849 Y-3.543
G1 X-9.991 Y-3.106
G1 X-10.221 Y-2.708
G1 X-10.529 Y-2.366
G1 X-10.901 Y-2.096
G1 X-11.314 Y-1.911
M700 P0.000000
G1 X-11.658 Y-2.178 F9000.000
M700 P0.000000
G1 X-11.598 Y-3.073 F9000.000
M700 P0.141020
G1 X-11.066 Y-3.604 F7200.000
G1 X-11.198 Y-4.802
G1 X-12.802 Y-3.198
G1 X-12.934 Y-4.396
G1 X-12.402 Y-4.927
G22 ; retract
G1 X-9.600 Y-4.000 F9000.000
G1 X-6.400 Y-4.000 F9000.000
G1 X-5.651 Y-3.649 F9000.000
G23 ; unretract
M700 P0.097171
G1 X-5.688 Y-4.000 F2880.000
G1 X-5.651 Y-4.351
G1 X-5.542 Y-4.687
G1 X-5.366 Y-4.992
G1 X-5.130 Y-5.255
G1 X-4.844 Y-5.462
G1 X-4.522 Y-5.606
G1 X-4.177 Y-5.679
G1 X-3.824 Y-5.679
G1 X-3.510 Y-5.612
M700 P0.097171
G1 X-3.156 Y-5.462 F2880.000
G1 X-2.870 Y-5.255
G1 X-2.634 Y-4.992
G1 X-2.458 Y-4.687
G1 X-2.349 Y-4.351
G1 X-2.312 Y-4.000
G1 X-2.349 Y-3.649
G1 X-2.458 Y-3.313
G1 X-2.634 Y-3.008
G1 X-2.870 Y-2.745
G1 X-3.156 Y-2.538
G1 X-3.478 Y-2.394
G1 X-3.824 Y-2.321
G1 X-4.177 Y-2.321
G1 X-4.522 Y-2.394
G1 X-4.844 Y-2.538
G1 X-5.130 Y-2.745
G1 X-5.366 Y-3.008
G1 X-5.542 Y-3.313
G1 X-5.633 Y-3.592
M700 P0.000000
G1 X-6.156 Y-3.596 F9000.000
M700 P0.055171
G1 X-6.199 Y-4.000 F2880.000
G1 X-6.151 Y-4.457
G1 X-6.009 Y-4.894
G1 X-5.779 Y-5.292
G1 X-5.471 Y-5.634
G1 X-5.099 Y-5.904
G1 X-4.679 Y-6.091
G1 X-4.230 Y-6.187
G1 X-3.770 Y-6.187
G1 X-3.404 Y-6.109
M700 P0.055171
G1 X-3.321 Y-6.091 F2880.000
G1 X-2.901 Y-5.904
G1 X-2.529 Y-5.634
G1 X-2.221 Y-5.292
G1 X-1.991 Y-4.894
G1 X-1.849 Y-4.457
G1 X-1.801 Y-4.000
G1 X-1.849 Y-3.543
G1 X-1.991 Y-3.106
G1 X-2.221 Y-2.708
G1 X-2.529 Y-2.366
G1 X-2.901 Y-2.096
G1 X-3.321 Y-1.909
G1 X-3.770 Y-1.813
G1 X-4.230 Y-1.813
G1 X-4.679 Y-1.909
G1 X-5.099 Y-2.096
G1 X-5.471 Y-2.366
G1 X-5.779 Y-2.708
G1 X-6.009 Y-3.106
G1 X-6.149 Y-3.537
M700 P0.000000
G1 X-5.848 Y-3.851 F9000.000
M700 P0.000000
G1 X-4.402 Y-4.927 F9000.000
M700 P0.141019
G1 X-4.934 Y-4.396 F7200.000
G1 X-4.802 Y-3.198
G1 X-3.198 Y-4.802
G1 X-3.066 Y-3.604
G1 X-3.598 Y-3.073
G22 ; retract
G1 Z2.150 F9000.000
G1 X10.458 Y3.313 F9000.000
G23 ; unretract
M700 P0.097171
G1 X10.634 Y3.008 F2880.000
G1 X10.870 Y2.745
G1 X11.156 Y2.538
G1 X11.478 Y2.394
G1 X11.823 Y2.321
G1 X12.177 Y2.321
G1 X12.453 Y2.380
