; generated by Slic3r 1.2.7-dev on 2015-03-24 at 13:16:25

; external perimeters extrusion width = 0.40mm
; perimeters extrusion width = 0.68mm
; infill extrusion width = 0.87mm
; solid infill extrusion width = 0.68mm
; top infill extrusion width = 0.68mm
; support material extrusion width = 0.40mm

M190 P60 ; set bed temperature
M104 P220 ; set temperature
G28; move extruder to 0
M420 R0.0 E0.0 D0.0 P0.8 ; turn the lights on
M107; turn off fan
G64 P0.1  Q0.1 ; blend tolerance
M109 P220 ; wait for temperature to be reached
G21 ; set units to millimeters
G90 ; use absolute coordinates
G22 ; retract
G1 Z0.350 F9000.000
G1 X2.655 Y22.684 F9000.000
G23 ; unretract
M700 P0.157461
G1 X-23.758 Y25.775 F3600.000
G1 X-25.170 Y25.647
G1 X-27.611 Y24.898
G1 X-29.027 Y24.052
G1 X-30.023 Y22.032
G1 X-31.482 Y10.482
G1 X-31.509 Y10.049
G1 X-31.509 Y-18.064
G1 X-31.248 Y-19.380
G1 X-29.789 Y-22.916
G1 X-29.289 Y-23.761
G1 X-28.457 Y-24.797
G1 X-26.722 Y-25.951
G1 X-25.546 Y-26.289
G1 X-24.467 Y-26.422
G1 X23.971 Y-24.667
M700 P0.157461
G1 X25.557 Y-24.215 F3600.000
G1 X26.752 Y-23.078
G1 X27.225 Y-21.915
G1 X27.518 Y-20.491
G1 X27.589 Y-19.796
G1 X27.589 Y12.334
G1 X27.223 Y13.880
G1 X26.128 Y16.065
G1 X25.058 Y17.320
G1 X24.066 Y17.814
G1 X12.147 Y21.514
G1 X11.525 Y21.646
G1 X2.714 Y22.677
G22 ; retract
G1 X-25.363 Y21.337 F9000.000
G23 ; unretract
M700 P0.157461
G1 X-26.337 Y21.337 F1200.000
G1 X-26.337 Y-21.338
G1 X-25.363 Y-21.338
G1 X-25.363 Y21.277
M700 P0.000000
G1 X-25.709 Y21.137 F9000.000
M700 P0.000000
G1 X-25.850 Y21.113 F9000.000
M700 P0.249336
G1 X-25.850 Y-21.113 F1800.000
G22 ; retract
G1 Z0.350 F9000.000
M700 P0.000000
G1 X-26.057 Y-22.059 F9000.000
G23 ; unretract
M700 P0.157461
G1 X-25.768 Y-22.636 F3600.000
G1 X-24.592 Y-22.974
G1 X-25.050 Y-22.059
M700 P0.000000
G1 X-24.580 Y-20.988 F9000.000
M700 P0.157461
G1 X-23.847 Y-22.452 F3600.000
G1 X-23.288 Y-21.560
G1 X-24.580 Y-18.980
G1 X-24.580 Y-16.972
G1 X-22.728 Y-20.668
G1 X-22.169 Y-19.776
G1 X-24.580 Y-14.964
G1 X-24.580 Y-12.956
G1 X-21.609 Y-18.885
G1 X-21.036 Y-18.019
G1 X-24.580 Y-10.948
G1 X-24.580 Y-8.940
G1 X-20.030 Y-18.019
G22 ; retract
G1 X-27.285 Y-19.609 F9000.000
G23 ; unretract
M700 P0.157461
G1 X-28.059 Y-18.064 F3600.000
G1 X-27.120 Y-17.930
G1 X-28.059 Y-16.056
G1 X-27.120 Y-15.922
G1 X-27.755 Y-14.654
G1 X-27.120 Y-13.914
G1 X-27.755 Y-12.645
G1 X-27.120 Y-11.906
G1 X-27.755 Y-10.637
G1 X-27.120 Y-9.898
G1 X-27.755 Y-8.629
G1 X-27.120 Y-7.890
G1 X-27.755 Y-6.621
G1 X-27.120 Y-5.882
G1 X-27.755 Y-4.613
G1 X-27.120 Y-3.874
G1 X-27.755 Y-2.605
G1 X-27.120 Y-1.866
G1 X-27.755 Y-0.597
G1 X-27.120 Y0.143
G1 X-27.755 Y1.411
G1 X-27.120 Y2.151
G1 X-27.755 Y3.419
G1 X-27.120 Y4.159
G1 X-27.755 Y5.428
G1 X-27.120 Y6.167
G1 X-27.755 Y7.436
G1 X-27.120 Y8.175
G1 X-28.059 Y10.049
G1 X-27.120 Y10.183
G1 X-27.834 Y11.609
G22 ; retract
G1 X-21.569 Y13.165 F9000.000
G23 ; unretract
M700 P0.157461
G1 X-24.580 Y19.174 F3600.000
G1 X-24.580 Y17.166
G1 X-17.722 Y3.481
G1 X-18.728 Y3.481
G1 X-24.580 Y15.158
G1 X-24.580 Y13.149
G1 X-19.735 Y3.481
G1 X-20.741 Y3.481
G1 X-24.580 Y11.141
G1 X-24.580 Y9.133
G1 X-21.747 Y3.481
M700 P0.000000
G1 X-21.941 Y1.859 F9000.000
M700 P0.157461
G1 X-24.580 Y7.125 F3600.000
G1 X-24.580 Y5.117
G1 X-21.941 Y-0.149
G1 X-21.941 Y-2.157
G1 X-24.580 Y3.109
G1 X-24.580 Y1.101
G1 X-21.941 Y-4.165
G1 X-21.941 Y-6.174
G1 X-24.580 Y-0.907
G1 X-24.580 Y-2.915
G1 X-21.941 Y-8.182
G1 X-21.941 Y-10.190
G1 X-24.580 Y-4.923
G1 X-24.580 Y-6.932
G1 X-19.023 Y-18.019
G1 X-18.017 Y-18.019
G1 X-21.043 Y-11.981
G1 X-20.037 Y-11.981
G1 X-17.010 Y-18.019
G1 X-16.004 Y-18.019
G1 X-19.030 Y-11.981
G1 X-18.024 Y-11.981
G1 X-14.997 Y-18.019
G1 X-13.991 Y-18.019
G1 X-17.017 Y-11.981
G1 X-16.011 Y-11.981
G1 X-12.985 Y-18.019
G1 X-11.978 Y-18.019
G1 X-15.005 Y-11.981
G1 X-14.859 Y-10.263
G1 X-10.972 Y-18.019
G1 X-9.965 Y-18.019
G1 X-14.859 Y-8.255
G1 X-14.859 Y-6.247
G1 X-8.959 Y-18.019
G1 X-7.954 Y-18.015
G1 X-14.859 Y-4.239
G1 X-14.859 Y-2.231
G1 X-6.631 Y-18.646
G1 X-5.309 Y-19.277
G1 X-14.859 Y-0.223
G1 X-14.859 Y1.786
G1 X-3.986 Y-19.908
G1 X-2.664 Y-20.539
G1 X-6.011 Y-13.860
G1 X-4.689 Y-14.490
G1 X-1.416 Y-21.019
G1 X-0.410 Y-21.019
G1 X-3.366 Y-15.121
G1 X-2.043 Y-15.752
G1 X0.597 Y-21.019
G1 X1.603 Y-21.019
G1 X-0.822 Y-16.181
G1 X0.185 Y-16.181
G1 X2.610 Y-21.019
G1 X3.616 Y-21.019
G1 X1.191 Y-16.181
G1 X2.198 Y-16.181
G1 X4.623 Y-21.019
G1 X5.629 Y-21.019
G1 X3.204 Y-16.181
G1 X4.210 Y-16.181
G1 X6.635 Y-21.019
G1 X7.642 Y-21.019
G1 X5.217 Y-16.181
G1 X6.223 Y-16.181
G1 X8.648 Y-21.019
G1 X9.655 Y-21.019
G1 X7.230 Y-16.181
G1 X8.236 Y-16.181
G1 X10.661 Y-21.019
G1 X11.668 Y-21.019
G1 X9.243 Y-16.181
G1 X10.249 Y-16.181
G1 X12.674 Y-21.019
G1 X13.681 Y-21.019
G1 X11.256 Y-16.181
G1 X12.262 Y-16.181
G1 X14.687 Y-21.019
G1 X15.794 Y-21.219
G1 X13.269 Y-16.181
G1 X14.275 Y-16.181
G1 X16.800 Y-21.219
G1 X17.807 Y-21.219
G1 X15.181 Y-15.981
G1 X16.188 Y-15.981
G1 X18.813 Y-21.219
G1 X19.820 Y-21.219
G1 X17.194 Y-15.981
G1 X18.201 Y-15.981
G1 X20.826 Y-21.219
G1 X21.833 Y-21.219
G1 X19.207 Y-15.981
G1 X20.214 Y-15.981
G1 X22.839 Y-21.219
G1 X23.846 Y-21.219
G1 X21.220 Y-15.981
G1 X22.227 Y-15.981
G1 X24.139 Y-19.796
G1 X24.139 Y-17.787
G1 X23.233 Y-15.981
G22 ; retract
G1 X23.043 Y14.519 F9000.000
G23 ; unretract
M700 P0.157461
G1 X24.139 Y12.334 F3600.000
G1 X24.139 Y10.326
G1 X22.037 Y14.519
G1 X21.031 Y14.519
G1 X23.556 Y9.481
G1 X22.549 Y9.481
G1 X20.024 Y14.519
G1 X19.018 Y14.519
G1 X21.543 Y9.481
G1 X20.536 Y9.481
G1 X18.011 Y14.519
G1 X17.005 Y14.519
G1 X19.530 Y9.481
G1 X18.523 Y9.481
G1 X15.998 Y14.519
G1 X15.042 Y14.419
G1 X17.517 Y9.481
G1 X16.510 Y9.481
G1 X14.035 Y14.419
G1 X13.029 Y14.419
G1 X15.454 Y9.581
G1 X14.447 Y9.581
G1 X12.022 Y14.419
M700 P0.000000
G1 X11.259 Y15.942 F9000.000
M700 P0.157461
G1 X10.118 Y18.219 F3600.000
G1 X11.124 Y18.219
G1 X11.259 Y17.950
M700 P0.000000
G1 X9.111 Y18.219 F9000.000
M700 P0.157461
G1 X13.441 Y9.581 F3600.000
G1 X12.435 Y9.581
G1 X8.105 Y18.219
G1 X7.098 Y18.219
G1 X11.428 Y9.581
G1 X10.422 Y9.581
G1 X6.092 Y18.219
G1 X5.086 Y18.219
G1 X9.415 Y9.581
G1 X8.409 Y9.581
G1 X4.079 Y18.219
G1 X3.073 Y18.219
G1 X7.402 Y9.581
G1 X6.396 Y9.581
G1 X2.341 Y17.671
G1 X2.341 Y15.663
G1 X5.389 Y9.581
G1 X4.383 Y9.581
G1 X1.958 Y14.419
G1 X0.951 Y14.419
G1 X3.376 Y9.581
G1 X2.370 Y9.581
G1 X-0.055 Y14.419
G1 X-1.062 Y14.419
G1 X1.363 Y9.581
G1 X0.357 Y9.581
G1 X-2.020 Y14.323
G1 X-2.781 Y13.834
G1 X-0.650 Y9.581
M700 P0.000000
G1 X-1.488 Y9.246 F9000.000
M700 P0.157461
G1 X-3.542 Y13.345 F3600.000
G1 X-4.304 Y12.855
G1 X-2.257 Y8.772
G1 X-3.027 Y8.299
G1 X-5.065 Y12.366
G1 X-5.826 Y11.876
G1 X-3.796 Y7.826
G1 X-4.565 Y7.352
G1 X-6.587 Y11.387
G1 X-7.348 Y10.897
G1 X-5.334 Y6.879
G1 X-6.103 Y6.406
G1 X-8.109 Y10.408
M700 P0.000000
G1 X-9.031 Y10.239 F9000.000
M700 P0.157461
G1 X-6.441 Y5.071 F3600.000
G1 X-6.441 Y3.063
G1 X-10.038 Y10.239
G1 X-11.044 Y10.239
G1 X-6.441 Y1.055
G1 X-6.441 Y-0.953
G1 X-11.940 Y10.019
G1 X-12.947 Y10.019
G1 X-6.441 Y-2.961
G1 X-6.441 Y-4.970
G1 X-13.953 Y10.019
G1 X-14.960 Y10.019
G1 X-6.441 Y-6.978
G1 X-6.441 Y-8.986
G1 X-15.966 Y10.019
G1 X-16.973 Y10.019
G1 X-6.441 Y-10.994
G1 X-6.441 Y-13.002
G1 X-17.979 Y10.019
G1 X-18.986 Y10.019
G1 X-15.709 Y3.481
G1 X-16.715 Y3.481
G1 X-19.992 Y10.019
G22 ; retract
G1 X-22.526 Y17.082 F9000.000
G23 ; unretract
M700 P0.157461
G1 X-24.580 Y21.182 F3600.000
G1 X-23.483 Y21.000
G1 X-24.159 Y22.348
M106 P255
M104 P215 ; set temperature
G22 ; retract
G1 Z0.500 F9000.000
M700 P0.000000
G1 X-25.300 Y21.400 F9000.000
G23 ; unretract
M700 P0.055171
G1 X-26.400 Y21.400 F2400.000
G1 X-26.400 Y-21.400
G1 X-25.300 Y-21.400
G1 X-25.300 Y21.340
M700 P0.000000
G1 X-25.646 Y21.200 F9000.000
M700 P0.000000
G1 X-25.850 Y21.076 F9000.000
M700 P0.046171
G1 X-25.850 Y-21.076 F3600.000
M700 P0.148171
G1 X-25.850 Y21.076 F3600.000
G22 ; retract
G1 Z0.500 F9000.000
M700 P0.000000
G1 X-23.871 Y21.363 F9000.000
G23 ; unretract
M700 P0.055171
G1 X-24.243 Y21.363 F7200.000
G1 X-24.243 Y18.495
G1 X-23.170 Y18.495
G1 X-22.470 Y15.627
G1 X-24.243 Y15.627
G1 X-24.243 Y12.760
G1 X-21.769 Y12.760
G1 X-21.069 Y9.892
G1 X-24.243 Y9.892
G1 X-24.243 Y7.024
G1 X-5.946 Y7.024
M700 P0.000000
G1 X-8.094 Y9.892 F9000.000
M700 P0.055171
G1 X-1.286 Y9.892 F7200.000
G1 X-3.634 Y12.760
G1 X23.821 Y12.760
G22 ; retract
G1 X10.941 Y15.627 F9000.000
G23 ; unretract
M700 P0.055171
G1 X2.659 Y15.627 F7200.000
G22 ; retract
G1 X-10.194 Y4.156 F9000.000
G23 ; unretract
M700 P0.055171
G1 X-6.759 Y4.156 F7200.000
G1 X-6.759 Y1.288
G1 X-10.194 Y1.288
M700 P0.000000
G1 X-11.106 Y1.288 F9000.000
M700 P0.055171
G1 X-14.541 Y1.288 F7200.000
G1 X-14.541 Y-1.579
G1 X-11.106 Y-1.579
M700 P0.000000
G1 X-10.194 Y-1.579 F9000.000
M700 P0.055171
G1 X-6.759 Y-1.579 F7200.000
G1 X-6.759 Y-4.447
G1 X-10.194 Y-4.447
M700 P0.000000
G1 X-11.106 Y-4.447 F9000.000
M700 P0.055171
G1 X-14.541 Y-4.447 F7200.000
G1 X-14.541 Y-7.315
G1 X-11.106 Y-7.315
M700 P0.000000
G1 X-10.194 Y-7.315 F9000.000
M700 P0.055171
G1 X-6.759 Y-7.315 F7200.000
G1 X-6.759 Y-10.183
G1 X-10.194 Y-10.183
M700 P0.000000
G1 X-11.106 Y-10.183 F9000.000
M700 P0.055171
G1 X-14.541 Y-10.183 F7200.000
M700 P0.000000
G1 X-10.868 Y-11.166 F9000.000
M700 P0.055171
G1 X-10.432 Y-11.166 F7200.000
G1 X-10.432 Y4.468
G1 X-10.868 Y4.468
G1 X-10.868 Y-11.166
M700 P0.000000
G1 X-6.759 Y-13.051 F9000.000
M700 P0.055171
G1 X-24.243 Y-13.051 F7200.000
G1 X-24.243 Y-10.183
G1 X-22.259 Y-10.183
G1 X-22.259 Y-7.315
G1 X-24.243 Y-7.315
G1 X-24.243 Y-4.447
G1 X-22.259 Y-4.447
G1 X-22.259 Y-1.579
G1 X-24.243 Y-1.579
G1 X-24.243 Y1.288
G1 X-22.259 Y1.288
G1 X-24.243 Y4.156
G1 X-11.106 Y4.156
G22 ; retract
G1 X-27.437 Y9.892 F9000.000
G23 ; unretract
M700 P0.055171
G1 X-27.721 Y9.892 F7200.000
G22 ; retract
G1 X-22.021 Y-12.121 F9000.000
G23 ; unretract
M700 P0.055171
G1 X-14.779 Y-12.121 F7200.000
G1 X-14.779 Y3.621
G1 X-22.021 Y3.621
G1 X-22.021 Y-12.121
M700 P0.000000
G1 X-21.138 Y-17.879 F9000.000
M700 P0.055171
G1 X-24.308 Y-22.932 F7200.000
G1 X-26.237 Y-22.377
G1 X-26.212 Y-22.200
G1 X-24.500 Y-22.200
G1 X-24.500 Y22.159
G1 X-23.837 Y22.239
G1 X-20.818 Y9.879
G1 X-11.279 Y9.879
G1 X-11.279 Y10.099
G1 X-8.305 Y10.099
G1 X-1.805 Y14.279
G1 X2.421 Y14.279
G1 X2.421 Y18.079
G1 X11.179 Y18.079
G1 X11.179 Y14.279
G1 X15.561 Y14.279
G1 X15.561 Y14.379
G1 X24.058 Y14.379
G1 X24.058 Y9.621
G1 X15.561 Y9.621
G1 X15.561 Y9.721
G1 X-1.010 Y9.721
G1 X-6.521 Y6.330
G1 X-6.521 Y-13.730
G1 X-1.088 Y-16.321
G1 X14.958 Y-16.321
G1 X14.958 Y-16.121
G1 X24.058 Y-16.121
G1 X24.058 Y-21.079
G1 X14.958 Y-21.079
G1 X14.958 Y-20.879
G1 X-1.712 Y-20.879
G1 X-8.321 Y-17.726
G1 X-8.321 Y-17.879
G1 X-21.138 Y-17.879
M700 P0.000000
G1 X-23.807 Y-21.654 F9000.000
M700 P0.055171
G1 X-24.243 Y-21.654 F7200.000
G1 X-24.243 Y-18.786
G1 X-22.007 Y-18.786
G1 X-24.243 Y-15.918
G1 X-2.631 Y-15.918
G1 X-5.401 Y-18.786
G1 X23.821 Y-18.786
G22 ; retract
G1 X-27.200 Y-18.769 F9000.000
G23 ; unretract
M700 P0.055171
G1 X-27.200 Y-19.469 F7200.000
G1 X-27.979 Y-19.469
G1 X-27.979 Y-16.031
G1 X-27.675 Y-16.031
G1 X-27.675 Y8.031
G1 X-27.979 Y8.031
G1 X-27.979 Y11.469
G1 X-27.200 Y11.469
G1 X-27.200 Y-18.769
M700 P0.000000
G1 X-27.437 Y-18.786 F9000.000
M700 P0.055171
G1 X-27.721 Y-18.786 F7200.000
G22 ; retract
G1 Z0.650 F9000.000
G1 X-27.600 Y22.014 F9000.000
G1 X-25.300 Y21.400 F9000.000
G23 ; unretract
M700 P0.055171
G1 X-26.400 Y21.400 F2400.000
G1 X-26.400 Y-21.400
G1 X-25.300 Y-21.400
G1 X-25.300 Y21.340
M700 P0.000000
G1 X-25.646 Y21.200 F9000.000
M700 P0.000000
G1 X-25.850 Y21.076 F9000.000
M700 P0.046171
G1 X-25.850 Y-21.076 F3600.000
M700 P0.148171
G1 X-25.850 Y21.076 F3600.000
G22 ; retract
G1 Z0.800 F9000.000
M700 P0.000000
G1 X-25.300 Y21.400 F9000.000
G23 ; unretract
M700 P0.055171
G1 X-26.400 Y21.400 F2400.000
G1 X-26.400 Y-21.400
G1 X-25.300 Y-21.400
G1 X-25.300 Y21.340
M700 P0.000000
G1 X-25.646 Y21.200 F9000.000
M700 P0.000000
G1 X-25.850 Y21.076 F9000.000
M700 P0.046171
G1 X-25.850 Y-21.076 F3600.000
M700 P0.148171
G1 X-25.850 Y21.076 F3600.000
G22 ; retract
G1 Z0.850 F9000.000
G1 X-23.827 Y21.363 F9000.000
G23 ; unretract
M700 P0.113711
G1 X-24.285 Y21.363 F7200.000
G1 X-24.285 Y18.495
G1 X-23.126 Y18.495
G1 X-22.426 Y15.627
G1 X-24.285 Y15.627
G1 X-24.285 Y12.760
G1 X-21.725 Y12.760
G1 X-21.024 Y9.892
G1 X-24.285 Y9.892
G1 X-24.285 Y7.024
G1 X-5.865 Y7.024
M700 P0.000000
G1 X-8.173 Y9.892 F9000.000
M700 P0.113711
G1 X-1.204 Y9.892 F7200.000
G1 X-3.714 Y12.760
G1 X23.864 Y12.760
G22 ; retract
G1 X10.984 Y15.627 F9000.000
G23 ; unretract
M700 P0.113711
G1 X2.616 Y15.627 F7200.000
G22 ; retract
G1 X-10.237 Y4.156 F9000.000
G23 ; unretract
M700 P0.113711
G1 X-6.716 Y4.156 F7200.000
G1 X-6.716 Y1.288
G1 X-10.237 Y1.288
M700 P0.000000
G1 X-11.063 Y1.288 F9000.000
M700 P0.113711
G1 X-14.584 Y1.288 F7200.000
G1 X-14.584 Y-1.579
G1 X-11.063 Y-1.579
M700 P0.000000
G1 X-10.237 Y-1.579 F9000.000
M700 P0.113711
G1 X-6.716 Y-1.579 F7200.000
G1 X-6.716 Y-4.447
G1 X-10.237 Y-4.447
M700 P0.000000
G1 X-11.063 Y-4.447 F9000.000
M700 P0.113711
G1 X-14.584 Y-4.447 F7200.000
G1 X-14.584 Y-7.315
G1 X-11.063 Y-7.315
M700 P0.000000
G1 X-10.237 Y-7.315 F9000.000
M700 P0.113711
G1 X-6.716 Y-7.315 F7200.000
G1 X-6.716 Y-10.183
G1 X-10.237 Y-10.183
M700 P0.000000
G1 X-11.063 Y-10.183 F9000.000
M700 P0.113711
G1 X-14.584 Y-10.183 F7200.000
M700 P0.000000
G1 X-10.868 Y-11.166 F9000.000
M700 P0.113711
G1 X-10.432 Y-11.166 F7200.000
G1 X-10.432 Y4.468
G1 X-10.868 Y4.468
G1 X-10.868 Y-11.166
M700 P0.000000
G1 X-6.716 Y-13.051 F9000.000
M700 P0.113711
G1 X-24.285 Y-13.051 F7200.000
G1 X-24.285 Y-10.183
G1 X-22.216 Y-10.183
G1 X-22.216 Y-7.315
G1 X-24.285 Y-7.315
G1 X-24.285 Y-4.447
G1 X-22.216 Y-4.447
G1 X-22.216 Y-1.579
G1 X-24.285 Y-1.579
G1 X-24.285 Y1.288
G1 X-22.216 Y1.288
G1 X-24.285 Y4.156
G1 X-11.063 Y4.156
G22 ; retract
G1 X-27.395 Y9.892 F9000.000
G23 ; unretract
M700 P0.113711
G1 X-27.764 Y9.892 F7200.000
G22 ; retract
G1 X-22.021 Y-12.121 F9000.000
G23 ; unretract
M700 P0.113711
G1 X-14.779 Y-12.121 F7200.000
G1 X-14.779 Y3.621
G1 X-22.021 Y3.621
G1 X-22.021 Y-12.121
M700 P0.000000
G1 X-21.138 Y-17.879 F9000.000
M700 P0.113711
G1 X-24.308 Y-22.932 F7200.000
G1 X-26.237 Y-22.377
G1 X-26.212 Y-22.200
G1 X-24.500 Y-22.200
G1 X-24.500 Y22.159
G1 X-23.837 Y22.239
G1 X-20.818 Y9.879
G1 X-11.279 Y9.879
G1 X-11.279 Y10.099
G1 X-8.305 Y10.099
G1 X-1.805 Y14.279
G1 X2.421 Y14.279
G1 X2.421 Y18.079
G1 X11.179 Y18.079
G1 X11.179 Y14.279
G1 X15.561 Y14.279
G1 X15.561 Y14.379
G1 X24.058 Y14.379
G1 X24.058 Y9.621
G1 X15.561 Y9.621
G1 X15.561 Y9.721
G1 X-1.010 Y9.721
G1 X-6.521 Y6.330
G1 X-6.521 Y-13.730
G1 X-1.088 Y-16.321
G1 X14.958 Y-16.321
G1 X14.958 Y-16.121
G1 X24.058 Y-16.121
G1 X24.058 Y-21.079
G1 X14.958 Y-21.079
G1 X14.958 Y-20.879
G1 X-1.712 Y-20.879
G1 X-8.321 Y-17.726
G1 X-8.321 Y-17.879
G1 X-21.138 Y-17.879
M700 P0.000000
G1 X-23.756 Y-21.654 F9000.000
M700 P0.113711
G1 X-24.285 Y-21.654 F7200.000
G1 X-24.285 Y-18.786
G1 X-21.957 Y-18.786
G1 X-24.285 Y-15.918
G1 X-2.531 Y-15.918
G1 X-5.501 Y-18.786
G1 X23.864 Y-18.786
G22 ; retract
G1 X-27.200 Y-18.769 F9000.000
G23 ; unretract
M700 P0.113711
G1 X-27.200 Y-19.469 F7200.000
G1 X-27.979 Y-19.469
G1 X-27.979 Y-16.031
G1 X-27.675 Y-16.031
G1 X-27.675 Y8.031
G1 X-27.979 Y8.031
G1 X-27.979 Y11.469
G1 X-27.200 Y11.469
G1 X-27.200 Y-18.769
M700 P0.000000
G1 X-27.395 Y-18.786 F9000.000
M700 P0.113711
G1 X-27.764 Y-18.786 F7200.000
G22 ; retract
G1 Z0.950 F9000.000
G1 X-27.600 Y22.014 F9000.000
G1 X-25.300 Y21.400 F9000.000
G23 ; unretract
M700 P0.055171
G1 X-26.400 Y21.400 F2400.000
G1 X-26.400 Y-21.400
G1 X-25.300 Y-21.400
G1 X-25.300 Y21.340
M700 P0.000000
G1 X-25.646 Y21.200 F9000.000
M700 P0.000000
G1 X-25.850 Y21.076 F9000.000
M700 P0.046171
G1 X-25.850 Y-21.076 F3600.000
M700 P0.148171
G1 X-25.850 Y21.076 F3600.000
G22 ; retract
G1 Z1.100 F9000.000
M700 P0.000000
G1 X-25.300 Y21.400 F9000.000
G23 ; unretract
M700 P0.055171
G1 X-26.400 Y21.400 F2400.000
G1 X-26.400 Y-21.400
G1 X-25.300 Y-21.400
G1 X-25.300 Y21.340
M700 P0.000000
G1 X-25.646 Y21.200 F9000.000
M700 P0.000000
G1 X-25.850 Y21.076 F9000.000
M700 P0.046171
G1 X-25.850 Y-21.076 F3600.000
M700 P0.148171
G1 X-25.850 Y21.076 F3600.000
G22 ; retract
G1 Z1.200 F9000.000
M700 P0.000000
G1 X-24.564 Y20.903 F9000.000
G23 ; unretract
M700 P0.113711
G1 X-22.425 Y16.636 F7200.000
M700 P0.000000
G1 X-22.772 Y18.057 F9000.000
M700 P0.113711
G1 X-24.564 Y21.631 F7200.000
M700 P0.000000
G1 X-23.467 Y20.899 F9000.000
M700 P0.113711
G1 X-24.174 Y22.311 F7200.000
G1 X-24.514 Y22.261
G1 X-23.120 Y19.478
M700 P0.000000
G1 X-24.564 Y19.446 F9000.000
M700 P0.113711
G1 X-21.731 Y13.794 F7200.000
M700 P0.000000
G1 X-21.384 Y12.373 F9000.000
M700 P0.113711
G1 X-24.564 Y18.718 F7200.000
M700 P0.000000
G1 X-24.564 Y17.989 F9000.000
M700 P0.113711
G1 X-21.037 Y10.953 F7200.000
G22 ; retract
G1 X-24.564 Y10.705 F9000.000
G23 ; unretract
M700 P0.113711
G1 X-20.960 Y3.514 F7200.000
G1 X-21.325 Y3.514
G1 X-24.564 Y9.977
M700 P0.000000
G1 X-24.564 Y9.248 F9000.000
M700 P0.113711
G1 X-21.690 Y3.514 F7200.000
M700 P0.000000
G1 X-21.958 Y3.320 F9000.000
M700 P0.113711
G1 X-24.564 Y8.520 F7200.000
M700 P0.000000
G1 X-24.564 Y7.791 F9000.000
M700 P0.113711
G1 X-21.958 Y2.592 F7200.000
M700 P0.000000
G1 X-21.958 Y1.863 F9000.000
M700 P0.113711
G1 X-24.564 Y7.063 F7200.000
M700 P0.000000
G1 X-24.564 Y6.335 F9000.000
M700 P0.113711
G1 X-21.958 Y1.135 F7200.000
M700 P0.000000
G1 X-21.958 Y0.407 F9000.000
M700 P0.113711
G1 X-24.564 Y5.606 F7200.000
M700 P0.000000
G1 X-24.564 Y4.878 F9000.000
M700 P0.113711
G1 X-21.958 Y-0.322 F7200.000
M700 P0.000000
G1 X-21.958 Y-1.050 F9000.000
M700 P0.113711
G1 X-24.564 Y4.149 F7200.000
M700 P0.000000
G1 X-24.564 Y3.421 F9000.000
M700 P0.113711
G1 X-21.958 Y-1.779 F7200.000
M700 P0.000000
G1 X-21.958 Y-2.507 F9000.000
M700 P0.113711
G1 X-24.564 Y2.693 F7200.000
M700 P0.000000
G1 X-24.564 Y1.964 F9000.000
M700 P0.113711
G1 X-21.958 Y-3.236 F7200.000
M700 P0.000000
G1 X-21.958 Y-3.964 F9000.000
M700 P0.113711
G1 X-24.564 Y1.236 F7200.000
M700 P0.000000
G1 X-24.564 Y0.507 F9000.000
M700 P0.113711
G1 X-21.958 Y-4.692 F7200.000
M700 P0.000000
G1 X-21.958 Y-5.421 F9000.000
M700 P0.113711
G1 X-24.564 Y-0.221 F7200.000
M700 P0.000000
G1 X-24.564 Y-0.950 F9000.000
M700 P0.113711
G1 X-21.958 Y-6.149 F7200.000
M700 P0.000000
G1 X-21.958 Y-6.878 F9000.000
M700 P0.113711
G1 X-24.564 Y-1.678 F7200.000
M700 P0.000000
G1 X-24.564 Y-2.406 F9000.000
M700 P0.113711
G1 X-21.958 Y-7.606 F7200.000
M700 P0.000000
G1 X-21.958 Y-8.334 F9000.000
M700 P0.113711
G1 X-24.564 Y-3.135 F7200.000
M700 P0.000000
G1 X-24.564 Y-3.863 F9000.000
M700 P0.113711
G1 X-21.958 Y-9.063 F7200.000
M700 P0.000000
G1 X-21.958 Y-9.791 F9000.000
M700 P0.113711
G1 X-24.564 Y-4.592 F7200.000
M700 P0.000000
G1 X-24.564 Y-5.320 F9000.000
M700 P0.113711
G1 X-21.958 Y-10.520 F7200.000
M700 P0.000000
G1 X-21.958 Y-11.248 F9000.000
M700 P0.113711
G1 X-24.564 Y-6.048 F7200.000
M700 P0.000000
G1 X-24.564 Y-6.777 F9000.000
M700 P0.113711
G1 X-18.946 Y-17.986 F7200.000
G1 X-19.311 Y-17.986
G1 X-24.564 Y-7.505
M700 P0.000000
G1 X-24.564 Y-8.234 F9000.000
M700 P0.113711
G1 X-19.676 Y-17.986 F7200.000
G1 X-20.041 Y-17.986
G1 X-24.564 Y-8.962
M700 P0.000000
G1 X-24.564 Y-9.690 F9000.000
M700 P0.113711
G1 X-20.406 Y-17.986 F7200.000
G1 X-20.771 Y-17.986
G1 X-24.564 Y-10.419
M700 P0.000000
G1 X-24.564 Y-11.147 F9000.000
M700 P0.113711
G1 X-21.113 Y-18.033 F7200.000
G1 X-21.315 Y-18.357
G1 X-24.564 Y-11.876
M700 P0.000000
G1 X-24.564 Y-12.604 F9000.000
M700 P0.113711
G1 X-21.518 Y-18.680 F7200.000
G1 X-21.721 Y-19.004
G1 X-24.564 Y-13.333
M700 P0.000000
G1 X-24.564 Y-14.061 F9000.000
M700 P0.113711
G1 X-21.924 Y-19.327 F7200.000
G1 X-22.127 Y-19.651
G1 X-24.564 Y-14.789
M700 P0.000000
G1 X-24.564 Y-15.518 F9000.000
M700 P0.113711
G1 X-22.330 Y-19.974 F7200.000
G1 X-22.533 Y-20.297
G1 X-24.564 Y-16.246
M700 P0.000000
G1 X-24.564 Y-16.975 F9000.000
M700 P0.113711
G1 X-22.736 Y-20.621 F7200.000
G1 X-22.939 Y-20.944
G1 X-24.564 Y-17.703
M700 P0.000000
G1 X-24.564 Y-18.431 F9000.000
M700 P0.113711
G1 X-23.142 Y-21.268 F7200.000
G1 X-23.345 Y-21.591
G1 X-24.564 Y-19.160
M700 P0.000000
G1 X-24.564 Y-19.888 F9000.000
M700 P0.113711
G1 X-23.548 Y-21.915 F7200.000
G1 X-23.751 Y-22.238
G1 X-24.564 Y-20.617
M700 P0.000000
G1 X-24.564 Y-21.345 F9000.000
M700 P0.113711
G1 X-23.954 Y-22.562 F7200.000
G1 X-24.157 Y-22.885
G1 X-24.564 Y-22.074
G1 X-24.919 Y-22.093
G1 X-24.475 Y-22.979
G1 X-24.902 Y-22.856
G1 X-25.284 Y-22.093
G1 X-25.649 Y-22.093
G1 X-25.328 Y-22.734
G1 X-25.755 Y-22.611
G1 X-26.014 Y-22.093
G1 X-26.297 Y-22.258
G1 X-26.181 Y-22.488
G22 ; retract
G1 X-18.581 Y-17.986 F9000.000
G23 ; unretract
M700 P0.113711
G1 X-21.574 Y-12.014 F7200.000
G1 X-21.209 Y-12.014
G1 X-18.216 Y-17.986
G1 X-17.851 Y-17.986
G1 X-20.844 Y-12.014
G1 X-20.478 Y-12.014
G1 X-17.485 Y-17.986
G1 X-17.120 Y-17.986
G1 X-20.113 Y-12.014
G1 X-19.748 Y-12.014
G1 X-16.755 Y-17.986
G1 X-16.390 Y-17.986
G1 X-19.383 Y-12.014
G1 X-19.018 Y-12.014
G1 X-16.025 Y-17.986
G1 X-15.660 Y-17.986
G1 X-18.653 Y-12.014
G1 X-18.288 Y-12.014
G1 X-15.295 Y-17.986
G1 X-14.930 Y-17.986
G1 X-17.923 Y-12.014
G1 X-17.558 Y-12.014
G1 X-14.565 Y-17.986
G1 X-14.200 Y-17.986
G1 X-17.193 Y-12.014
G1 X-16.828 Y-12.014
G1 X-13.835 Y-17.986
G1 X-13.470 Y-17.986
G1 X-16.463 Y-12.014
G1 X-16.097 Y-12.014
G1 X-13.104 Y-17.986
G1 X-12.739 Y-17.986
G1 X-15.732 Y-12.014
G1 X-15.367 Y-12.014
G1 X-12.374 Y-17.986
G1 X-12.009 Y-17.986
G1 X-15.002 Y-12.014
M700 P0.000000
G1 X-14.842 Y-11.605 F9000.000
M700 P0.113711
G1 X-11.644 Y-17.986 F7200.000
G1 X-11.279 Y-17.986
G1 X-14.842 Y-10.876
M700 P0.000000
G1 X-14.842 Y-10.148 F9000.000
M700 P0.113711
G1 X-10.914 Y-17.986 F7200.000
G1 X-10.549 Y-17.986
G1 X-14.842 Y-9.420
M700 P0.000000
G1 X-14.842 Y-8.691 F9000.000
M700 P0.113711
G1 X-10.184 Y-17.986 F7200.000
G1 X-9.819 Y-17.986
G1 X-14.842 Y-7.963
M700 P0.000000
G1 X-14.842 Y-7.234 F9000.000
M700 P0.113711
G1 X-9.454 Y-17.986 F7200.000
G1 X-9.089 Y-17.986
G1 X-14.842 Y-6.506
M700 P0.000000
G1 X-14.842 Y-5.778 F9000.000
M700 P0.113711
G1 X-8.724 Y-17.986 F7200.000
G1 X-8.358 Y-17.986
G1 X-14.842 Y-5.049
M700 P0.000000
G1 X-14.842 Y-4.321 F9000.000
M700 P0.113711
G1 X-8.003 Y-17.967 F7200.000
G1 X-7.523 Y-18.196
G1 X-14.842 Y-3.592
M700 P0.000000
G1 X-14.842 Y-2.864 F9000.000
M700 P0.113711
G1 X-7.043 Y-18.424 F7200.000
G1 X-6.564 Y-18.653
G1 X-10.495 Y-10.808
M700 P0.000000
G1 X-10.805 Y-10.192 F9000.000
M700 P0.113711
G1 X-14.842 Y-2.135 F7200.000
M700 P0.000000
G1 X-14.842 Y-1.407 F9000.000
M700 P0.113711
G1 X-10.805 Y-9.463 F7200.000
M700 P0.000000
G1 X-10.495 Y-9.351 F9000.000
M700 P0.113711
G1 X-5.604 Y-19.111 F7200.000
G1 X-6.084 Y-18.882
G1 X-10.495 Y-10.080
M700 P0.000000
G1 X-10.805 Y-8.735 F9000.000
M700 P0.113711
G1 X-14.842 Y-0.679 F7200.000
M700 P0.000000
G1 X-14.842 Y0.050 F9000.000
M700 P0.113711
G1 X-10.805 Y-8.006 F7200.000
M700 P0.000000
G1 X-10.495 Y-7.895 F9000.000
M700 P0.113711
G1 X-4.644 Y-19.568 F7200.000
G1 X-5.124 Y-19.340
G1 X-10.495 Y-8.623
M700 P0.000000
G1 X-10.805 Y-7.278 F9000.000
M700 P0.113711
G1 X-14.842 Y0.778 F7200.000
M700 P0.000000
G1 X-14.842 Y1.507 F9000.000
M700 P0.113711
G1 X-10.805 Y-6.550 F7200.000
M700 P0.000000
G1 X-10.495 Y-6.438 F9000.000
M700 P0.113711
G1 X-3.685 Y-20.026 F7200.000
G1 X-4.165 Y-19.797
G1 X-10.495 Y-7.166
M700 P0.000000
G1 X-10.805 Y-5.821 F9000.000
M700 P0.113711
G1 X-14.842 Y2.235 F7200.000
M700 P0.000000
G1 X-14.842 Y2.963 F9000.000
M700 P0.113711
G1 X-10.805 Y-5.093 F7200.000
M700 P0.000000
G1 X-10.495 Y-4.981 F9000.000
M700 P0.113711
G1 X-6.458 Y-13.037 F7200.000
G1 X-6.519 Y-13.643
G1 X-3.205 Y-20.255
G1 X-2.725 Y-20.484
G1 X-6.040 Y-13.871
G1 X-6.458 Y-13.766
G1 X-10.495 Y-5.709
M700 P0.000000
G1 X-10.805 Y-4.364 F9000.000
M700 P0.113711
G1 X-17.997 Y9.986 F7200.000
G1 X-18.362 Y9.986
G1 X-15.118 Y3.514
G1 X-15.483 Y3.514
G1 X-18.727 Y9.986
G1 X-19.092 Y9.986
G1 X-15.849 Y3.514
G1 X-16.214 Y3.514
G1 X-19.457 Y9.986
G1 X-19.822 Y9.986
G1 X-16.579 Y3.514
G1 X-16.944 Y3.514
G1 X-20.187 Y9.986
G1 X-20.552 Y9.986
G1 X-17.309 Y3.514
G1 X-17.674 Y3.514
G1 X-24.564 Y17.261
M700 P0.000000
G1 X-24.564 Y16.532 F9000.000
M700 P0.113711
G1 X-18.039 Y3.514 F7200.000
G1 X-18.404 Y3.514
G1 X-24.564 Y15.804
M700 P0.000000
G1 X-24.564 Y15.076 F9000.000
M700 P0.113711
G1 X-18.769 Y3.514 F7200.000
G1 X-19.134 Y3.514
G1 X-24.564 Y14.347
M700 P0.000000
G1 X-24.564 Y13.619 F9000.000
M700 P0.113711
G1 X-19.499 Y3.514 F7200.000
G1 X-19.864 Y3.514
G1 X-24.564 Y12.890
M700 P0.000000
G1 X-24.564 Y12.162 F9000.000
M700 P0.113711
G1 X-20.230 Y3.514 F7200.000
G1 X-20.595 Y3.514
G1 X-24.564 Y11.434
G22 ; retract
G1 X-22.078 Y15.215 F9000.000
G23 ; unretract
M700 P0.113711
G1 X-24.564 Y20.174 F7200.000
G22 ; retract
G1 X-17.632 Y9.986 F9000.000
G23 ; unretract
M700 P0.113711
G1 X-10.805 Y-3.636 F7200.000
M700 P0.000000
G1 X-10.495 Y-3.524 F9000.000
M700 P0.113711
G1 X-6.458 Y-11.580 F7200.000
M700 P0.000000
G1 X-6.458 Y-12.309 F9000.000
M700 P0.113711
G1 X-10.495 Y-4.253 F7200.000
M700 P0.000000
G1 X-10.805 Y-2.907 F9000.000
M700 P0.113711
G1 X-17.267 Y9.986 F7200.000
G1 X-16.902 Y9.986
G1 X-10.805 Y-2.179
M700 P0.000000
G1 X-10.495 Y-2.067 F9000.000
M700 P0.113711
G1 X-6.458 Y-10.123 F7200.000
M700 P0.000000
G1 X-6.458 Y-9.395 F9000.000
M700 P0.113711
G1 X-10.495 Y-1.339 F7200.000
M700 P0.000000
G1 X-10.805 Y-1.451 F9000.000
M700 P0.113711
G1 X-16.537 Y9.986 F7200.000
G1 X-16.171 Y9.986
G1 X-10.805 Y-0.722
M700 P0.000000
G1 X-10.495 Y-0.610 F9000.000
M700 P0.113711
G1 X-6.458 Y-8.667 F7200.000
M700 P0.000000
G1 X-6.458 Y-7.938 F9000.000
M700 P0.113711
G1 X-10.495 Y0.118 F7200.000
M700 P0.000000
G1 X-10.805 Y0.006 F9000.000
M700 P0.113711
G1 X-15.806 Y9.986 F7200.000
G1 X-15.441 Y9.986
G1 X-10.805 Y0.735
M700 P0.000000
G1 X-10.495 Y0.846 F9000.000
M700 P0.113711
G1 X-6.458 Y-7.210 F7200.000
M700 P0.000000
G1 X-6.458 Y-6.481 F9000.000
M700 P0.113711
G1 X-10.495 Y1.575 F7200.000
M700 P0.000000
G1 X-10.805 Y1.463 F9000.000
M700 P0.113711
G1 X-15.076 Y9.986 F7200.000
G1 X-14.711 Y9.986
G1 X-10.805 Y2.191
M700 P0.000000
G1 X-10.495 Y2.303 F9000.000
M700 P0.113711
G1 X-6.458 Y-5.753 F7200.000
M700 P0.000000
G1 X-6.458 Y-5.025 F9000.000
M700 P0.113711
G1 X-10.495 Y3.032 F7200.000
M700 P0.000000
G1 X-10.805 Y2.920 F9000.000
M700 P0.113711
G1 X-14.346 Y9.986 F7200.000
G1 X-13.981 Y9.986
G1 X-10.805 Y3.648
M700 P0.000000
G1 X-10.495 Y3.760 F9000.000
M700 P0.113711
G1 X-6.458 Y-4.296 F7200.000
M700 P0.000000
G1 X-6.458 Y-3.568 F9000.000
M700 P0.113711
G1 X-13.251 Y9.986 F7200.000
G1 X-13.616 Y9.986
G1 X-10.797 Y4.361
G22 ; retract
G1 X-6.458 Y4.445 F9000.000
G23 ; unretract
M700 P0.113711
G1 X-9.345 Y10.206 F7200.000
G1 X-8.980 Y10.206
G1 X-6.458 Y5.173
M700 P0.000000
G1 X-6.458 Y5.902 F9000.000
M700 P0.113711
G1 X-8.615 Y10.206 F7200.000
G1 X-8.275 Y10.257
G1 X-6.305 Y6.325
G1 X-6.026 Y6.497
G1 X-7.999 Y10.434
G1 X-7.723 Y10.612
G1 X-5.747 Y6.669
G1 X-5.468 Y6.840
G1 X-7.447 Y10.789
G1 X-7.171 Y10.967
G1 X-5.189 Y7.012
G1 X-4.910 Y7.184
G1 X-6.895 Y11.144
G1 X-6.619 Y11.322
G1 X-4.631 Y7.356
G1 X-4.352 Y7.527
G1 X-6.343 Y11.500
G1 X-6.067 Y11.677
G1 X-4.073 Y7.699
G1 X-3.794 Y7.871
G1 X-5.791 Y11.855
G1 X-5.514 Y12.032
G1 X-3.515 Y8.042
G1 X-3.236 Y8.214
G1 X-5.238 Y12.210
G1 X-4.962 Y12.387
G1 X-2.957 Y8.386
G1 X-2.678 Y8.557
G1 X-4.686 Y12.565
G1 X-4.410 Y12.742
G1 X-2.399 Y8.729
G1 X-2.120 Y8.901
G1 X-4.134 Y12.920
G1 X-3.858 Y13.097
G1 X-1.841 Y9.073
G1 X-1.562 Y9.244
G1 X-3.582 Y13.275
G1 X-3.306 Y13.453
G1 X-1.283 Y9.416
G1 X-1.004 Y9.588
G1 X-3.030 Y13.630
G1 X-2.753 Y13.808
G1 X-0.652 Y9.614
G1 X-0.287 Y9.614
G1 X-2.477 Y13.985
G1 X-2.201 Y14.163
G1 X0.078 Y9.614
G1 X0.444 Y9.614
G1 X-1.925 Y14.340
G1 X-1.583 Y14.386
G1 X0.809 Y9.614
G1 X1.174 Y9.614
G1 X-1.218 Y14.386
G1 X-0.853 Y14.386
G1 X1.539 Y9.614
G1 X1.904 Y9.614
G1 X-0.488 Y14.386
G1 X-0.123 Y14.386
G1 X2.269 Y9.614
G1 X2.634 Y9.614
G1 X0.243 Y14.386
G1 X0.608 Y14.386
G1 X2.999 Y9.614
G1 X3.364 Y9.614
G1 X0.973 Y14.386
G1 X1.338 Y14.386
G1 X3.729 Y9.614
G1 X4.094 Y9.614
G1 X1.703 Y14.386
G1 X2.068 Y14.386
G1 X4.459 Y9.614
G1 X4.825 Y9.614
G1 X2.433 Y14.386
G1 X2.798 Y14.386
G1 X5.190 Y9.614
G1 X5.555 Y9.614
G1 X3.163 Y14.386
G1 X3.528 Y14.386
G1 X5.920 Y9.614
G1 X6.285 Y9.614
G1 X3.893 Y14.386
G1 X4.258 Y14.386
G1 X6.650 Y9.614
G1 X7.015 Y9.614
G1 X4.624 Y14.386
G1 X4.989 Y14.386
G1 X7.380 Y9.614
G1 X7.745 Y9.614
G1 X5.354 Y14.386
G1 X5.719 Y14.386
G1 X8.110 Y9.614
G1 X8.475 Y9.614
G1 X6.084 Y14.386
G1 X6.449 Y14.386
G1 X8.840 Y9.614
G1 X9.206 Y9.614
G1 X6.814 Y14.386
G1 X7.179 Y14.386
G1 X9.571 Y9.614
G1 X9.936 Y9.614
G1 X7.544 Y14.386
G1 X7.909 Y14.386
G1 X10.301 Y9.614
G1 X10.666 Y9.614
G1 X8.274 Y14.386
G1 X8.639 Y14.386
G1 X11.031 Y9.614
G1 X11.396 Y9.614
G1 X9.005 Y14.386
G1 X9.370 Y14.386
G1 X11.761 Y9.614
G1 X12.126 Y9.614
G1 X9.735 Y14.386
G1 X10.100 Y14.386
G1 X12.491 Y9.614
G1 X12.856 Y9.614
G1 X10.465 Y14.386
G1 X10.830 Y14.386
G1 X13.221 Y9.614
G1 X13.587 Y9.614
G1 X11.195 Y14.386
G1 X11.560 Y14.386
G1 X13.952 Y9.614
G1 X14.317 Y9.614
G1 X11.925 Y14.386
G1 X12.290 Y14.386
G1 X14.682 Y9.614
G1 X15.047 Y9.614
G1 X12.655 Y14.386
G1 X13.020 Y14.386
G1 X15.412 Y9.614
G1 X15.777 Y9.614
G1 X13.385 Y14.386
G1 X13.751 Y14.386
G1 X16.192 Y9.514
G1 X16.557 Y9.514
G1 X14.116 Y14.386
G1 X14.481 Y14.386
G1 X16.922 Y9.514
G1 X17.287 Y9.514
G1 X14.846 Y14.386
G1 X15.211 Y14.386
G1 X17.653 Y9.514
G1 X18.018 Y9.514
G1 X15.576 Y14.386
G1 X15.941 Y14.386
G1 X18.383 Y9.514
G1 X18.748 Y9.514
G1 X16.256 Y14.486
G1 X16.621 Y14.486
G1 X19.113 Y9.514
G1 X19.478 Y9.514
G1 X16.986 Y14.486
G1 X17.351 Y14.486
G1 X19.843 Y9.514
G1 X20.208 Y9.514
G1 X17.716 Y14.486
G1 X18.081 Y14.486
G1 X20.573 Y9.514
G1 X20.938 Y9.514
G1 X18.447 Y14.486
G1 X18.812 Y14.486
G1 X21.119 Y9.881
M700 P0.000000
G1 X21.119 Y10.610 F9000.000
M700 P0.113711
G1 X19.177 Y14.486 F7200.000
G1 X19.542 Y14.486
G1 X21.119 Y11.338
M700 P0.000000
G1 X21.119 Y12.066 F9000.000
M700 P0.113711
G1 X19.907 Y14.486 F7200.000
G1 X20.272 Y14.486
G1 X21.119 Y12.795
M700 P0.000000
G1 X21.119 Y13.523 F9000.000
M700 P0.113711
G1 X20.637 Y14.486 F7200.000
G1 X21.119 Y14.252
G1 X21.002 Y14.486
G22 ; retract
G1 X-6.458 Y3.716 F9000.000
G23 ; unretract
M700 P0.113711
G1 X-9.710 Y10.206 F7200.000
G1 X-10.075 Y10.206
G1 X-6.458 Y2.988
M700 P0.000000
G1 X-6.458 Y2.260 F9000.000
M700 P0.113711
G1 X-10.440 Y10.206 F7200.000
G1 X-10.805 Y10.206
G1 X-6.458 Y1.531
M700 P0.000000
G1 X-6.458 Y0.803 F9000.000
M700 P0.113711
G1 X-11.171 Y10.206 F7200.000
G1 X-11.425 Y9.986
G1 X-6.458 Y0.074
M700 P0.000000
G1 X-6.458 Y-0.654 F9000.000
M700 P0.113711
G1 X-11.790 Y9.986 F7200.000
G1 X-12.156 Y9.986
G1 X-6.458 Y-1.383
M700 P0.000000
G1 X-6.458 Y-2.111 F9000.000
M700 P0.113711
G1 X-12.521 Y9.986 F7200.000
G1 X-12.886 Y9.986
G1 X-6.458 Y-2.839
G22 ; retract
G1 X-10.495 Y-2.796 F9000.000
G23 ; unretract
M700 P0.113711
G1 X-6.458 Y-10.852 F7200.000
G22 ; retract
G1 X-5.560 Y-14.100 F9000.000
G23 ; unretract
M700 P0.113711
G1 X-2.246 Y-20.713 F7200.000
G1 X-1.766 Y-20.941
G1 X-5.080 Y-14.329
G1 X-4.600 Y-14.558
G1 X-1.379 Y-20.986
G1 X-1.013 Y-20.986
G1 X-4.120 Y-14.787
G1 X-3.641 Y-15.015
G1 X-0.648 Y-20.986
G1 X-0.283 Y-20.986
G1 X-3.161 Y-15.244
G1 X-2.681 Y-15.473
G1 X0.082 Y-20.986
G1 X0.447 Y-20.986
G1 X-2.201 Y-15.702
G1 X-1.722 Y-15.931
G1 X0.812 Y-20.986
G1 X1.177 Y-20.986
G1 X-1.242 Y-16.160
G1 X-0.849 Y-16.214
G1 X1.542 Y-20.986
G1 X1.907 Y-20.986
G1 X-0.484 Y-16.214
G1 X-0.119 Y-16.214
G1 X2.272 Y-20.986
G1 X2.637 Y-20.986
G1 X0.246 Y-16.214
G1 X0.611 Y-16.214
G1 X3.002 Y-20.986
G1 X3.368 Y-20.986
G1 X0.976 Y-16.214
G1 X1.341 Y-16.214
G1 X3.733 Y-20.986
G1 X4.098 Y-20.986
G1 X1.706 Y-16.214
G1 X2.071 Y-16.214
G1 X4.463 Y-20.986
G1 X4.828 Y-20.986
G1 X2.436 Y-16.214
G1 X2.801 Y-16.214
G1 X5.193 Y-20.986
G1 X5.558 Y-20.986
G1 X3.167 Y-16.214
G1 X3.532 Y-16.214
G1 X5.923 Y-20.986
G1 X6.288 Y-20.986
G1 X3.897 Y-16.214
G1 X4.262 Y-16.214
G1 X6.653 Y-20.986
G1 X7.018 Y-20.986
G1 X4.627 Y-16.214
G1 X4.992 Y-16.214
G1 X7.383 Y-20.986
G1 X7.749 Y-20.986
G1 X5.357 Y-16.214
G1 X5.722 Y-16.214
G1 X8.114 Y-20.986
G1 X8.479 Y-20.986
G1 X6.087 Y-16.214
G1 X6.452 Y-16.214
G1 X8.844 Y-20.986
G1 X9.209 Y-20.986
G1 X6.817 Y-16.214
G1 X7.182 Y-16.214
G1 X9.574 Y-20.986
G1 X9.939 Y-20.986
G1 X7.547 Y-16.214
G1 X7.913 Y-16.214
G1 X10.304 Y-20.986
G1 X10.669 Y-20.986
G1 X8.278 Y-16.214
G1 X8.643 Y-16.214
G1 X11.034 Y-20.986
G1 X11.399 Y-20.986
G1 X9.008 Y-16.214
G1 X9.373 Y-16.214
G1 X11.764 Y-20.986
G1 X12.129 Y-20.986
G1 X9.738 Y-16.214
G1 X10.103 Y-16.214
G1 X12.495 Y-20.986
G1 X12.860 Y-20.986
G1 X10.468 Y-16.214
G1 X10.833 Y-16.214
G1 X13.225 Y-20.986
G1 X13.590 Y-20.986
G1 X11.198 Y-16.214
G1 X11.563 Y-16.214
G1 X13.955 Y-20.986
G1 X14.320 Y-20.986
G1 X11.928 Y-16.214
G1 X12.294 Y-16.214
G1 X14.685 Y-20.986
G1 X15.050 Y-20.986
G1 X12.659 Y-16.214
G1 X13.024 Y-16.214
G1 X15.415 Y-20.986
G1 X15.780 Y-20.986
G1 X13.389 Y-16.214
G1 X13.754 Y-16.214
G1 X16.246 Y-21.186
G1 X16.611 Y-21.186
G1 X14.119 Y-16.214
G1 X14.484 Y-16.214
G1 X16.976 Y-21.186
G1 X17.341 Y-21.186
G1 X14.849 Y-16.214
G1 X15.214 Y-16.214
G1 X17.706 Y-21.186
G1 X18.071 Y-21.186
G1 X15.579 Y-16.214
G1 X15.944 Y-16.214
G1 X18.436 Y-21.186
G1 X18.801 Y-21.186
G1 X16.209 Y-16.014
G1 X16.574 Y-16.014
G1 X19.166 Y-21.186
G1 X19.531 Y-21.186
G1 X16.939 Y-16.014
G1 X17.304 Y-16.014
G1 X19.896 Y-21.186
G1 X20.262 Y-21.186
G1 X17.670 Y-16.014
G1 X18.035 Y-16.014
G1 X20.627 Y-21.186
G1 X20.992 Y-21.186
G1 X18.400 Y-16.014
G1 X18.765 Y-16.014
G1 X21.119 Y-20.712
M700 P0.000000
G1 X21.119 Y-19.984 F9000.000
M700 P0.113711
G1 X19.130 Y-16.014 F7200.000
G1 X19.495 Y-16.014
G1 X21.119 Y-19.255
M700 P0.000000
G1 X21.119 Y-18.527 F9000.000
M700 P0.113711
G1 X19.860 Y-16.014 F7200.000
G1 X20.225 Y-16.014
G1 X21.119 Y-17.799
M700 P0.000000
G1 X21.119 Y-17.070 F9000.000
M700 P0.113711
G1 X20.590 Y-16.014 F7200.000
G1 X20.955 Y-16.014
G1 X21.119 Y-16.342
G22 ; retract
G1 X21.670 Y-18.786 F9000.000
G23 ; unretract
M700 P0.113711
G1 X23.864 Y-18.786 F7200.000
G22 ; retract
G1 X24.058 Y-16.121 F9000.000
G23 ; unretract
M700 P0.113711
G1 X24.058 Y-21.079 F7200.000
G1 X21.456 Y-21.079
G1 X21.456 Y-16.121
G1 X24.058 Y-16.121
G22 ; retract
G1 X23.864 Y12.760 F9000.000
G23 ; unretract
M700 P0.113711
G1 X21.670 Y12.760 F7200.000
G22 ; retract
G1 X24.058 Y14.379 F9000.000
G23 ; unretract
M700 P0.113711
G1 X24.058 Y9.621 F7200.000
G1 X21.456 Y9.621
G1 X21.456 Y14.379
G1 X24.058 Y14.379
G22 ; retract
G1 X10.984 Y15.627 F9000.000
G23 ; unretract
M700 P0.113711
G1 X2.636 Y15.627 F7200.000
M700 P0.000000
G1 X11.179 Y18.079 F9000.000
M700 P0.113711
G1 X11.179 Y14.679 F7200.000
G1 X2.421 Y14.679
G1 X2.421 Y18.079
G1 X11.179 Y18.079
G22 ; retract
G1 X-27.395 Y9.892 F9000.000
G23 ; unretract
M700 P0.113711
G1 X-27.764 Y9.892 F7200.000
G22 ; retract
G1 X-27.200 Y-18.769 F9000.000
G23 ; unretract
M700 P0.113711
G1 X-27.200 Y-19.469 F7200.000
G1 X-27.979 Y-19.469
G1 X-27.979 Y-16.031
G1 X-27.675 Y-16.031
G1 X-27.675 Y8.031
G1 X-27.979 Y8.031
G1 X-27.979 Y11.469
G1 X-27.200 Y11.469
G1 X-27.200 Y-18.769
M700 P0.000000
G1 X-27.395 Y-18.786 F9000.000
M700 P0.113711
G1 X-27.764 Y-18.786 F7200.000
G22 ; retract
G1 Z1.250 F9000.000
G1 X-27.600 Y22.014 F9000.000
G1 X-25.300 Y21.400 F9000.000
G23 ; unretract
M700 P0.055171
G1 X-26.400 Y21.400 F2400.000
G1 X-26.400 Y-21.400
G1 X-25.300 Y-21.400
G1 X-25.300 Y21.340
M700 P0.000000
G1 X-25.646 Y21.200 F9000.000
M700 P0.000000
G1 X-25.850 Y21.076 F9000.000
M700 P0.046171
G1 X-25.850 Y-21.076 F3600.000
M700 P0.148171
G1 X-25.850 Y21.076 F3600.000
G22 ; retract
G1 Z1.400 F9000.000
M700 P0.000000
G1 X-25.300 Y21.400 F9000.000
G23 ; unretract
M700 P0.055171
G1 X-26.400 Y21.400 F2400.000
G1 X-26.400 Y-21.400
G1 X-25.300 Y-21.400
G1 X-25.300 Y21.340
M700 P0.000000
G1 X-25.646 Y21.200 F9000.000
M700 P0.000000
G1 X-25.850 Y21.076 F9000.000
M700 P0.046171
G1 X-25.850 Y-21.076 F3600.000
M700 P0.148171
G1 X-25.850 Y21.076 F3600.000
G22 ; retract
G1 Z1.550 F9000.000
M700 P0.000000
G1 X-25.300 Y21.400 F9000.000
G23 ; unretract
M700 P0.055171
G1 X-26.400 Y21.400 F2400.000
G1 X-26.400 Y-21.400
G1 X-25.300 Y-21.400
G1 X-25.300 Y21.340
M700 P0.000000
G1 X-25.646 Y21.200 F9000.000
M700 P0.000000
G1 X-25.850 Y21.076 F9000.000
M700 P0.046171
G1 X-25.850 Y-21.076 F3600.000
M700 P0.148171
G1 X-25.850 Y21.076 F3600.000
G22 ; retract
G1 Z1.550 F9000.000
M700 P0.000000
G1 X-24.971 Y21.988 F9000.000
G23 ; unretract
M700 P0.113711
G1 X-25.078 Y22.202 F7200.000
M700 P0.000000
G1 X-23.952 Y22.002 F9000.000
M700 P0.113711
G1 X-24.231 Y21.520 F7200.000
G1 X-24.400 Y21.813
G1 X-24.426 Y21.813
G1 X-24.251 Y22.117
G1 X-24.290 Y22.185
G1 X-23.837 Y22.239
G1 X-23.779 Y22.002
G1 X-23.952 Y22.002
G22 ; retract
G1 X-23.859 Y18.729 F9000.000
G23 ; unretract
M700 P0.113711
G1 X-23.745 Y18.502 F7200.000
M700 P0.000000
G1 X-23.433 Y16.984 F9000.000
M700 P0.113711
G1 X-23.316 Y16.751 F7200.000
G1 X-23.661 Y16.401
G1 X-23.913 Y16.905
G22 ; retract
G1 X-23.035 Y14.684 F9000.000
G23 ; unretract
M700 P0.113711
G1 X-23.573 Y15.759 F7200.000
G1 X-23.854 Y15.273
G1 X-22.648 Y12.867
M700 P0.000000
G1 X-23.729 Y11.889 F9000.000
M700 P0.113711
G1 X-19.513 Y3.477 F7200.000
G22 ; retract
G1 X-21.939 Y3.092 F9000.000
G23 ; unretract
M700 P0.113711
G1 X-23.682 Y6.570 F7200.000
M700 P0.000000
G1 X-23.885 Y8.019 F9000.000
M700 P0.113711
G1 X-21.608 Y3.477 F7200.000
G1 X-21.084 Y3.477
G1 X-23.604 Y8.505
M700 P0.000000
G1 X-23.807 Y9.954 F9000.000
M700 P0.113711
G1 X-20.560 Y3.477 F7200.000
G1 X-20.037 Y3.477
G1 X-23.527 Y10.440
M700 P0.000000
G1 X-22.260 Y11.049 F9000.000
M700 P0.113711
G1 X-23.651 Y13.824 F7200.000
G1 X-23.932 Y13.338
G1 X-18.989 Y3.477
G1 X-18.465 Y3.477
G1 X-21.749 Y10.029
M700 P0.000000
G1 X-20.631 Y8.844 F9000.000
M700 P0.113711
G1 X-17.941 Y3.477 F7200.000
G1 X-17.418 Y3.477
G1 X-20.108 Y8.844
G1 X-19.622 Y8.920
G1 X-16.894 Y3.477
G1 X-16.370 Y3.477
G1 X-19.127 Y8.976
G1 X-18.536 Y8.844
G1 X-15.846 Y3.477
G1 X-15.323 Y3.477
G1 X-18.013 Y8.844
G1 X-17.613 Y9.091
G1 X-10.786 Y-4.530
G1 X-10.514 Y-4.027
G1 X-7.318 Y-10.403
M700 P0.000000
G1 X-7.599 Y-10.889 F9000.000
M700 P0.113711
G1 X-10.514 Y-5.072 F7200.000
G1 X-10.786 Y-5.575
G1 X-14.861 Y2.556
M700 P0.000000
G1 X-14.861 Y1.511 F9000.000
M700 P0.113711
G1 X-10.786 Y-6.620 F7200.000
G1 X-10.514 Y-6.117
G1 X-7.396 Y-12.338
M700 P0.000000
G1 X-7.676 Y-12.824 F9000.000
M700 P0.113711
G1 X-10.514 Y-7.162 F7200.000
G1 X-10.786 Y-7.665
G1 X-14.861 Y0.466
M700 P0.000000
G1 X-14.861 Y-0.579 F9000.000
M700 P0.113711
G1 X-10.786 Y-8.710 F7200.000
G1 X-10.514 Y-8.207
G1 X-5.565 Y-18.083
G1 X-5.041 Y-18.083
G1 X-7.069 Y-14.036
M700 P0.000000
G1 X-6.521 Y-13.730 F9000.000
M700 P0.113711
G1 X-6.108 Y-13.927 F7200.000
G1 X-6.238 Y-14.152
G1 X-5.938 Y-14.671
G1 X-5.338 Y-14.671
G1 X-5.167 Y-14.376
G1 X-4.483 Y-14.702
G1 X-4.613 Y-14.927
G1 X-4.313 Y-15.446
G1 X-3.713 Y-15.446
G1 X-3.542 Y-15.151
G1 X-2.859 Y-15.477
G1 X-2.988 Y-15.701
G1 X-2.688 Y-16.221
G1 X-2.088 Y-16.221
G1 X-1.918 Y-15.926
G1 X-1.277 Y-16.232
G1 X-1.329 Y-16.321
G1 X-1.029 Y-16.841
G1 X-0.429 Y-16.841
G1 X-0.129 Y-16.321
G1 X0.471 Y-16.321
G1 X0.771 Y-16.841
G1 X1.371 Y-16.841
G1 X1.671 Y-16.321
G1 X2.271 Y-16.321
G1 X2.571 Y-16.841
G1 X3.171 Y-16.841
G1 X3.471 Y-16.321
G1 X4.071 Y-16.321
G1 X4.371 Y-16.841
G1 X4.971 Y-16.841
G1 X5.271 Y-16.321
G1 X5.871 Y-16.321
G1 X6.171 Y-16.841
G1 X6.771 Y-16.841
G1 X7.071 Y-16.321
G1 X7.671 Y-16.321
G1 X7.971 Y-16.841
G1 X8.571 Y-16.841
G1 X8.871 Y-16.321
G1 X9.471 Y-16.321
G1 X9.771 Y-16.841
G1 X10.371 Y-16.841
G1 X10.671 Y-16.321
G1 X11.271 Y-16.321
G1 X11.571 Y-16.841
G1 X12.171 Y-16.841
G1 X12.471 Y-16.321
G1 X13.071 Y-16.321
G1 X13.371 Y-16.841
G1 X13.971 Y-16.841
G1 X14.271 Y-16.321
G1 X14.871 Y-16.321
G1 X15.171 Y-16.841
G1 X15.771 Y-16.841
G1 X16.071 Y-16.321
M700 P0.000000
G1 X16.030 Y-16.131 F9000.000
M700 P0.113711
G1 X16.211 Y-16.493 F7200.000
M700 P0.000000
G1 X16.144 Y-16.121 F9000.000
M700 P0.113711
G1 X16.471 Y-16.121 F7200.000
G1 X16.771 Y-16.641
G1 X17.371 Y-16.641
G1 X17.671 Y-16.121
M700 P0.113711
G1 X18.271 Y-16.121 F7200.000
G1 X18.571 Y-16.641
G1 X19.171 Y-16.641
G1 X19.471 Y-16.121
M700 P0.113711
G1 X20.071 Y-16.121 F7200.000
G1 X20.371 Y-16.641
G1 X20.971 Y-16.641
G1 X21.056 Y-16.495
M700 P0.000000
G1 X21.158 Y-16.325 F9000.000
M700 P0.113711
G1 X20.964 Y-15.937 F7200.000
M700 P0.000000
G1 X21.718 Y-15.937 F9000.000
M700 P0.113711
G1 X21.912 Y-16.325 F7200.000
G1 X21.353 Y-16.626
G1 X21.912 Y-17.741
G1 X21.353 Y-18.042
G1 X21.912 Y-19.158
G1 X21.353 Y-19.459
G1 X21.912 Y-20.574
G1 X21.353 Y-20.875
G1 X21.548 Y-21.263
M700 P0.000000
G1 X21.056 Y-20.559 F9000.000
M700 P0.113711
G1 X20.697 Y-20.559 F7200.000
G1 X20.397 Y-21.079
G1 X19.797 Y-21.079
G1 X19.497 Y-20.559
G1 X18.897 Y-20.559
G1 X18.597 Y-21.079
G1 X17.997 Y-21.079
G1 X17.697 Y-20.559
G1 X17.097 Y-20.559
G1 X16.797 Y-21.079
G1 X16.282 Y-21.079
G1 X16.397 Y-20.879
G1 X16.097 Y-20.359
G1 X15.497 Y-20.359
G1 X15.197 Y-20.879
G1 X14.597 Y-20.879
G1 X14.297 Y-20.359
G1 X13.697 Y-20.359
G1 X13.397 Y-20.879
G1 X12.797 Y-20.879
G1 X12.497 Y-20.359
G1 X11.897 Y-20.359
G1 X11.597 Y-20.879
G1 X10.997 Y-20.879
G1 X10.697 Y-20.359
G1 X10.097 Y-20.359
G1 X9.797 Y-20.879
G1 X9.197 Y-20.879
G1 X8.897 Y-20.359
G1 X8.297 Y-20.359
G1 X7.997 Y-20.879
G1 X7.397 Y-20.879
G1 X7.097 Y-20.359
G1 X6.497 Y-20.359
G1 X6.197 Y-20.879
G1 X5.597 Y-20.879
G1 X5.297 Y-20.359
G1 X4.697 Y-20.359
G1 X4.397 Y-20.879
G1 X3.797 Y-20.879
G1 X3.497 Y-20.359
G1 X2.897 Y-20.359
G1 X2.597 Y-20.879
G1 X1.997 Y-20.879
G1 X1.697 Y-20.359
G1 X1.097 Y-20.359
G1 X0.797 Y-20.879
G1 X0.197 Y-20.879
G1 X-0.103 Y-20.359
G1 X-0.703 Y-20.359
G1 X-1.003 Y-20.879
G1 X-1.677 Y-20.879
G1 X-1.555 Y-20.667
G1 X-1.855 Y-20.148
G1 X-2.455 Y-20.148
G1 X-2.626 Y-20.443
M700 P0.000000
G1 X-2.540 Y-20.613 F9000.000
M700 P0.113711
G1 X-2.727 Y-20.240 F7200.000
M700 P0.000000
G1 X-3.224 Y-20.287 F9000.000
M700 P0.113711
G1 X-3.411 Y-19.914 F7200.000
M700 P0.000000
G1 X-3.309 Y-20.117 F9000.000
M700 P0.113711
G1 X-3.180 Y-19.892 F7200.000
G1 X-3.480 Y-19.373
G1 X-4.080 Y-19.373
G1 X-4.250 Y-19.668
M700 P0.000000
G1 X-4.165 Y-19.838 F9000.000
M700 P0.113711
G1 X-4.352 Y-19.465 F7200.000
M700 P0.000000
G1 X-4.849 Y-19.512 F9000.000
M700 P0.113711
G1 X-5.036 Y-19.139 F7200.000
M700 P0.000000
G1 X-4.934 Y-19.342 F9000.000
M700 P0.113711
G1 X-4.805 Y-19.117 F7200.000
G1 X-5.105 Y-18.598
G1 X-5.705 Y-18.598
G1 X-5.875 Y-18.893
M700 P0.000000
G1 X-5.790 Y-19.063 F9000.000
M700 P0.113711
G1 X-5.976 Y-18.690 F7200.000
M700 P0.000000
G1 X-6.473 Y-18.737 F9000.000
M700 P0.113711
G1 X-6.660 Y-18.364 F7200.000
M700 P0.000000
G1 X-6.559 Y-18.567 F9000.000
M700 P0.113711
G1 X-6.429 Y-18.343 F7200.000
G1 X-6.729 Y-17.823
G1 X-7.329 Y-17.823
G1 X-7.500 Y-18.118
M700 P0.000000
G1 X-7.866 Y-18.073 F9000.000
M700 P0.113711
G1 X-8.043 Y-17.720 F7200.000
M700 P0.000000
G1 X-7.952 Y-17.903 F9000.000
M700 P0.113711
G1 X-7.938 Y-17.879 F7200.000
G1 X-8.238 Y-17.359
G1 X-8.838 Y-17.359
G1 X-9.138 Y-17.879
M700 P0.000000
G1 X-9.052 Y-18.049 F9000.000
M700 P0.113711
G1 X-9.239 Y-17.676 F7200.000
M700 P0.000000
G1 X-9.738 Y-17.879 F9000.000
M700 P0.113711
G1 X-10.038 Y-17.359 F7200.000
G1 X-10.638 Y-17.359
G1 X-10.938 Y-17.879
M700 P0.000000
G1 X-10.852 Y-18.049 F9000.000
M700 P0.113711
G1 X-11.039 Y-17.676 F7200.000
M700 P0.000000
G1 X-11.538 Y-17.879 F9000.000
M700 P0.113711
G1 X-11.838 Y-17.359 F7200.000
G1 X-12.438 Y-17.359
G1 X-12.738 Y-17.879
M700 P0.000000
G1 X-12.652 Y-18.049 F9000.000
M700 P0.113711
G1 X-12.839 Y-17.676 F7200.000
M700 P0.000000
G1 X-13.338 Y-17.879 F9000.000
M700 P0.113711
G1 X-13.638 Y-17.359 F7200.000
G1 X-14.238 Y-17.359
G1 X-14.538 Y-17.879
M700 P0.000000
G1 X-14.452 Y-18.049 F9000.000
M700 P0.113711
G1 X-14.639 Y-17.676 F7200.000
M700 P0.000000
G1 X-15.138 Y-17.879 F9000.000
M700 P0.113711
G1 X-15.438 Y-17.359 F7200.000
G1 X-16.038 Y-17.359
G1 X-16.338 Y-17.879
M700 P0.000000
G1 X-16.252 Y-18.049 F9000.000
M700 P0.113711
G1 X-16.439 Y-17.676 F7200.000
M700 P0.000000
G1 X-16.938 Y-17.879 F9000.000
M700 P0.113711
G1 X-17.238 Y-17.359 F7200.000
G1 X-17.838 Y-17.359
G1 X-18.138 Y-17.879
M700 P0.000000
G1 X-18.052 Y-18.049 F9000.000
M700 P0.113711
G1 X-18.239 Y-17.676 F7200.000
M700 P0.000000
G1 X-18.738 Y-17.879 F9000.000
M700 P0.113711
G1 X-19.038 Y-17.359 F7200.000
G1 X-19.638 Y-17.359
M700 P0.113711
G1 X-19.938 Y-17.879 F7200.000
M700 P0.000000
G1 X-19.852 Y-18.049 F9000.000
M700 P0.113711
G1 X-20.039 Y-17.676 F7200.000
M700 P0.000000
G1 X-20.538 Y-17.879 F9000.000
M700 P0.113711
G1 X-20.838 Y-17.359 F7200.000
G1 X-21.438 Y-17.359
G1 X-21.738 Y-17.879
G1 X-21.582 Y-18.147
G1 X-21.932 Y-18.147
G1 X-22.232 Y-18.667
G1 X-21.945 Y-19.165
G1 X-22.276 Y-19.693
G1 X-22.289 Y-19.672
G1 X-22.889 Y-19.672
G1 X-23.189 Y-20.191
G1 X-22.901 Y-20.689
G1 X-23.233 Y-21.218
G1 X-23.245 Y-21.197
G1 X-23.845 Y-21.197
G1 X-24.145 Y-21.716
G1 X-23.858 Y-22.214
G1 X-24.148 Y-22.676
G1 X-24.346 Y-22.333
G1 X-24.100 Y-21.906
G1 X-24.400 Y-21.387
G1 X-24.700 Y-21.387
G1 X-24.700 Y-20.626
G1 X-24.400 Y-20.626
G1 X-24.100 Y-20.106
G1 X-24.400 Y-19.587
G1 X-24.700 Y-19.587
G1 X-24.700 Y-18.826
G1 X-24.400 Y-18.826
G1 X-24.100 Y-18.306
G1 X-24.400 Y-17.787
G1 X-24.700 Y-17.787
G1 X-24.700 Y-17.026
G1 X-24.400 Y-17.026
G1 X-24.100 Y-16.506
G1 X-24.400 Y-15.987
G1 X-24.700 Y-15.987
G1 X-24.700 Y-15.226
G1 X-24.400 Y-15.226
G1 X-24.100 Y-14.706
G1 X-24.400 Y-14.187
G1 X-24.700 Y-14.187
G1 X-24.700 Y-13.426
G1 X-24.400 Y-13.426
G1 X-24.100 Y-12.906
G1 X-24.400 Y-12.387
G1 X-24.700 Y-12.387
G1 X-24.700 Y-11.626
G1 X-24.400 Y-11.626
G1 X-24.100 Y-11.106
G1 X-24.400 Y-10.587
G1 X-24.700 Y-10.587
G1 X-24.700 Y-9.826
G1 X-24.400 Y-9.826
G1 X-24.100 Y-9.306
G1 X-24.400 Y-8.787
G1 X-24.700 Y-8.787
G1 X-24.700 Y-8.026
G1 X-24.400 Y-8.026
G1 X-24.100 Y-7.506
G1 X-24.400 Y-6.987
G1 X-24.700 Y-6.987
G1 X-24.700 Y-6.226
G1 X-24.400 Y-6.226
G1 X-24.100 Y-5.706
G1 X-24.400 Y-5.187
G1 X-24.700 Y-5.187
G1 X-24.700 Y-4.426
G1 X-24.400 Y-4.426
G1 X-24.100 Y-3.906
G1 X-24.400 Y-3.387
G1 X-24.700 Y-3.387
G1 X-24.700 Y-2.626
G1 X-24.400 Y-2.626
G1 X-24.100 Y-2.106
G1 X-24.400 Y-1.587
G1 X-24.700 Y-1.587
G1 X-24.700 Y-0.826
G1 X-24.400 Y-0.826
G1 X-24.100 Y-0.306
G1 X-24.400 Y0.213
G1 X-24.700 Y0.213
G1 X-24.700 Y0.974
G1 X-24.400 Y0.974
G1 X-24.100 Y1.494
G1 X-24.400 Y2.013
G1 X-24.700 Y2.013
G1 X-24.700 Y2.774
G1 X-24.400 Y2.774
G1 X-24.100 Y3.294
G1 X-24.400 Y3.813
G1 X-24.700 Y3.813
G1 X-24.700 Y4.574
G1 X-24.400 Y4.574
G1 X-24.100 Y5.094
G1 X-24.400 Y5.613
G1 X-24.700 Y5.613
G1 X-24.700 Y6.374
G1 X-24.400 Y6.374
G1 X-24.100 Y6.894
G1 X-24.400 Y7.413
G1 X-24.700 Y7.413
G1 X-24.700 Y8.174
G1 X-24.400 Y8.174
G1 X-24.100 Y8.694
G1 X-24.400 Y9.213
G1 X-24.700 Y9.213
G1 X-24.700 Y9.974
G1 X-24.400 Y9.974
G1 X-24.100 Y10.494
G1 X-24.400 Y11.013
G1 X-24.700 Y11.013
G1 X-24.700 Y11.774
G1 X-24.400 Y11.774
G1 X-24.100 Y12.294
G1 X-24.400 Y12.813
G1 X-24.700 Y12.813
G1 X-24.700 Y13.574
G1 X-24.400 Y13.574
G1 X-24.100 Y14.094
G1 X-24.400 Y14.613
G1 X-24.700 Y14.613
G1 X-24.700 Y15.374
G1 X-24.400 Y15.374
G1 X-24.100 Y15.894
G1 X-24.400 Y16.413
G1 X-24.700 Y16.413
G1 X-24.700 Y17.174
G1 X-24.400 Y17.174
G1 X-24.100 Y17.694
G1 X-24.400 Y18.213
G1 X-24.700 Y18.213
G1 X-24.700 Y18.974
G1 X-24.400 Y18.974
G1 X-24.100 Y19.494
G1 X-24.400 Y20.013
G1 X-24.700 Y20.013
G1 X-24.700 Y20.774
G1 X-24.400 Y20.774
G1 X-24.122 Y21.256
G1 X-23.952 Y20.963
G1 X-23.525 Y20.963
G1 X-23.352 Y20.254
G1 X-23.525 Y20.254
G1 X-23.825 Y19.734
G1 X-23.525 Y19.214
G1 X-23.098 Y19.214
G1 X-22.925 Y18.505
G1 X-23.098 Y18.505
G1 X-23.398 Y17.985
G1 X-23.098 Y17.466
G1 X-22.671 Y17.466
G1 X-22.498 Y16.756
G1 X-22.671 Y16.756
G1 X-22.971 Y16.237
G1 X-22.671 Y15.717
G1 X-22.244 Y15.717
G1 X-22.071 Y15.008
G1 X-22.244 Y15.008
G1 X-22.544 Y14.488
G1 X-22.244 Y13.969
G1 X-21.817 Y13.969
G1 X-21.644 Y13.259
G1 X-21.817 Y13.259
G1 X-22.117 Y12.740
G1 X-21.817 Y12.220
G1 X-21.390 Y12.220
G1 X-21.216 Y11.511
G1 X-21.389 Y11.511
G1 X-21.689 Y10.991
G1 X-21.389 Y10.471
G1 X-20.963 Y10.471
G1 X-20.818 Y9.879
G1 X-20.763 Y9.879
G1 X-20.463 Y9.359
G1 X-19.863 Y9.359
G1 X-19.563 Y9.879
G1 X-18.963 Y9.879
G1 X-18.663 Y9.359
G1 X-18.063 Y9.359
G1 X-17.763 Y9.879
G1 X-17.163 Y9.879
G1 X-16.863 Y9.359
G1 X-16.263 Y9.359
G1 X-15.963 Y9.879
G1 X-15.363 Y9.879
G1 X-15.063 Y9.359
G1 X-14.463 Y9.359
G1 X-14.163 Y9.879
G1 X-13.563 Y9.879
G1 X-13.263 Y9.359
G1 X-12.663 Y9.359
G1 X-12.363 Y9.879
G1 X-11.812 Y9.879
G1 X-11.579 Y9.475
G1 X-10.979 Y9.475
G1 X-10.679 Y9.994
G1 X-10.739 Y10.099
G1 X-10.183 Y10.099
G1 X-9.883 Y9.579
G1 X-9.283 Y9.579
G1 X-8.983 Y10.099
G1 X-8.305 Y10.099
M700 P0.000000
G1 X-8.303 Y10.100 F9000.000
M700 P0.113711
G1 X-8.166 Y9.861 F7200.000
G1 X-7.566 Y9.861
G1 X-7.266 Y10.381
G1 X-7.428 Y10.662
M700 P0.000000
G1 X-7.258 Y10.542 F9000.000
M700 P0.113711
G1 X-7.427 Y10.880 F7200.000
M700 P0.000000
G1 X-6.789 Y11.073 F9000.000
M700 P0.113711
G1 X-6.652 Y10.835 F7200.000
G1 X-6.052 Y10.835
G1 X-5.752 Y11.355
G1 X-5.914 Y11.636
M700 P0.000000
G1 X-5.744 Y11.516 F9000.000
M700 P0.113711
G1 X-5.913 Y11.854 F7200.000
M700 P0.000000
G1 X-5.275 Y12.047 F9000.000
M700 P0.113711
G1 X-5.138 Y11.809 F7200.000
G1 X-4.538 Y11.809
G1 X-4.238 Y12.328
G1 X-4.400 Y12.610
M700 P0.000000
G1 X-4.230 Y12.489 F9000.000
M700 P0.113711
G1 X-4.399 Y12.827 F7200.000
M700 P0.000000
G1 X-3.761 Y13.020 F9000.000
M700 P0.113711
G1 X-3.624 Y12.782 F7200.000
G1 X-3.024 Y12.782
G1 X-2.724 Y13.302
G1 X-2.886 Y13.583
M700 P0.000000
G1 X-2.716 Y13.463 F9000.000
M700 P0.113711
G1 X-2.885 Y13.801 F7200.000
M700 P0.000000
G1 X-2.248 Y13.994 F9000.000
M700 P0.113711
G1 X-2.110 Y13.756 F7200.000
G1 X-1.510 Y13.756
G1 X-1.212 Y14.279
G1 X-0.611 Y14.279
G1 X-0.311 Y13.759
G1 X0.289 Y13.759
G1 X0.589 Y14.279
G1 X1.189 Y14.279
G1 X1.489 Y13.759
G1 X2.089 Y13.759
G1 X2.389 Y14.279
G1 X2.989 Y14.279
G1 X3.289 Y13.759
G1 X3.889 Y13.759
G1 X4.189 Y14.279
G1 X4.789 Y14.279
G1 X5.089 Y13.759
G1 X5.689 Y13.759
G1 X5.989 Y14.279
G1 X6.589 Y14.279
G1 X6.889 Y13.759
G1 X7.489 Y13.759
G1 X7.789 Y14.279
G1 X8.389 Y14.279
G1 X8.689 Y13.759
G1 X9.289 Y13.759
G1 X9.589 Y14.279
G1 X10.189 Y14.279
G1 X10.489 Y13.759
G1 X11.089 Y13.759
G1 X11.389 Y14.279
G1 X11.989 Y14.279
G1 X12.289 Y13.759
G1 X12.889 Y13.759
G1 X13.189 Y14.279
G1 X13.789 Y14.279
G1 X14.089 Y13.759
G1 X14.689 Y13.759
G1 X14.989 Y14.279
G1 X15.570 Y14.279
G1 X15.844 Y13.804
G1 X16.444 Y13.804
G1 X16.744 Y14.323
G1 X16.712 Y14.379
M700 P0.000000
G1 X16.786 Y14.233 F9000.000
M700 P0.113711
G1 X16.630 Y14.543 F7200.000
M700 P0.000000
G1 X17.289 Y14.379 F9000.000
M700 P0.113711
G1 X17.589 Y13.859 F7200.000
G1 X18.189 Y13.859
G1 X18.489 Y14.379
M700 P0.000000
G1 X18.426 Y14.504 F9000.000
M700 P0.113711
G1 X18.568 Y14.220 F7200.000
G1 X19.161 Y14.235
G1 X19.016 Y14.524
M700 P0.000000
G1 X19.089 Y14.379 F9000.000
M700 P0.113711
G1 X19.389 Y13.859 F7200.000
G1 X19.989 Y13.859
G1 X20.289 Y14.379
M700 P0.000000
G1 X20.706 Y14.379 F9000.000
M700 P0.113711
G1 X20.456 Y13.945 F7200.000
G1 X20.756 Y13.426
G1 X21.056 Y13.426
M700 P0.000000
G1 X21.056 Y12.665 F9000.000
M700 P0.113711
G1 X20.756 Y12.665 F7200.000
G1 X20.456 Y12.145
G1 X20.756 Y11.626
G1 X21.056 Y11.626
M700 P0.000000
G1 X21.056 Y10.865 F9000.000
M700 P0.113711
G1 X20.756 Y10.865 F7200.000
G1 X20.456 Y10.345
G1 X20.756 Y9.826
G1 X21.056 Y9.826
M700 P0.000000
G1 X21.056 Y9.621 F9000.000
M700 P0.113711
G1 X20.579 Y9.621 F7200.000
G1 X20.279 Y10.141
G1 X19.679 Y10.141
G1 X19.379 Y9.621
G1 X18.779 Y9.621
G1 X18.479 Y10.141
G1 X17.879 Y10.141
G1 X17.579 Y9.621
G1 X16.979 Y9.621
G1 X16.679 Y10.141
G1 X16.079 Y10.141
G1 X15.837 Y9.721
G1 X15.279 Y9.721
G1 X14.979 Y10.241
G1 X14.379 Y10.241
G1 X14.079 Y9.721
G1 X13.479 Y9.721
G1 X13.179 Y10.241
G1 X12.579 Y10.241
G1 X12.279 Y9.721
G1 X11.679 Y9.721
G1 X11.379 Y10.241
G1 X10.779 Y10.241
G1 X10.479 Y9.721
G1 X9.879 Y9.721
G1 X9.579 Y10.241
G1 X8.979 Y10.241
G1 X8.679 Y9.721
G1 X8.079 Y9.721
G1 X7.779 Y10.241
G1 X7.179 Y10.241
G1 X6.879 Y9.721
G1 X6.279 Y9.721
G1 X5.979 Y10.241
G1 X5.379 Y10.241
G1 X5.079 Y9.721
G1 X4.479 Y9.721
G1 X4.179 Y10.241
G1 X3.579 Y10.241
G1 X3.279 Y9.721
G1 X2.679 Y9.721
G1 X2.379 Y10.241
G1 X1.779 Y10.241
G1 X1.479 Y9.721
G1 X0.879 Y9.721
G1 X0.579 Y10.241
G1 X-0.021 Y10.241
G1 X-0.321 Y9.721
G1 X-0.999 Y9.721
G1 X-1.145 Y9.973
G1 X-1.745 Y9.973
G1 X-2.045 Y9.454
G1 X-1.888 Y9.181
G1 X-2.535 Y8.783
G1 X-2.678 Y9.030
G1 X-3.278 Y9.030
G1 X-3.578 Y8.510
G1 X-3.421 Y8.238
M700 P0.000000
G1 X-3.503 Y8.402 F9000.000
M700 P0.113711
G1 X-3.334 Y8.066 F7200.000
M700 P0.000000
G1 X-3.979 Y7.662 F9000.000
M700 P0.113711
G1 X-4.150 Y8.004 F7200.000
M700 P0.000000
G1 X-4.068 Y7.839 F9000.000
M700 P0.113711
G1 X-4.211 Y8.087 F7200.000
G1 X-4.811 Y8.087
G1 X-5.111 Y7.567
G1 X-4.954 Y7.295
M700 P0.000000
G1 X-5.036 Y7.459 F9000.000
M700 P0.113711
G1 X-4.867 Y7.123 F7200.000
M700 P0.000000
G1 X-5.512 Y6.719 F9000.000
M700 P0.113711
G1 X-5.683 Y7.060 F7200.000
M700 P0.000000
G1 X-5.601 Y6.896 F9000.000
M700 P0.113711
G1 X-5.744 Y7.143 F7200.000
G1 X-6.344 Y7.143
G1 X-6.644 Y6.624
G1 X-6.486 Y6.351
M700 P0.000000
G1 X-6.569 Y6.516 F9000.000
M700 P0.113711
G1 X-6.395 Y6.169 F7200.000
M700 P0.000000
G1 X-6.521 Y5.610 F9000.000
M700 P0.113711
G1 X-6.821 Y5.610 F7200.000
G1 X-7.121 Y5.091
G1 X-6.821 Y4.571
G1 X-6.521 Y4.571
M700 P0.000000
G1 X-6.521 Y3.810 F9000.000
M700 P0.113711
G1 X-6.821 Y3.810 F7200.000
G1 X-7.121 Y3.291
G1 X-6.821 Y2.771
G1 X-6.521 Y2.771
M700 P0.000000
G1 X-6.521 Y2.010 F9000.000
M700 P0.113711
G1 X-6.821 Y2.010 F7200.000
G1 X-7.121 Y1.491
G1 X-6.821 Y0.971
G1 X-6.521 Y0.971
M700 P0.000000
G1 X-6.521 Y0.210 F9000.000
M700 P0.113711
G1 X-6.821 Y0.210 F7200.000
G1 X-7.121 Y-0.309
G1 X-6.821 Y-0.829
G1 X-6.521 Y-0.829
M700 P0.000000
G1 X-6.521 Y-1.590 F9000.000
M700 P0.113711
G1 X-6.821 Y-1.590 F7200.000
G1 X-7.121 Y-2.109
G1 X-6.821 Y-2.629
G1 X-6.521 Y-2.629
M700 P0.000000
G1 X-6.521 Y-3.390 F9000.000
M700 P0.113711
G1 X-6.821 Y-3.390 F7200.000
G1 X-7.121 Y-3.909
G1 X-6.821 Y-4.429
G1 X-6.521 Y-4.429
M700 P0.000000
G1 X-6.521 Y-5.190 F9000.000
M700 P0.113711
G1 X-6.821 Y-5.190 F7200.000
G1 X-7.121 Y-5.709
G1 X-6.821 Y-6.229
G1 X-6.521 Y-6.229
M700 P0.000000
G1 X-6.521 Y-6.990 F9000.000
M700 P0.113711
G1 X-6.821 Y-6.990 F7200.000
G1 X-7.121 Y-7.509
G1 X-6.821 Y-8.029
G1 X-6.521 Y-8.029
M700 P0.000000
G1 X-6.521 Y-8.790 F9000.000
M700 P0.113711
G1 X-6.821 Y-8.790 F7200.000
G1 X-7.121 Y-9.309
G1 X-6.821 Y-9.829
G1 X-6.521 Y-9.829
M700 P0.000000
G1 X-6.521 Y-10.590 F9000.000
M700 P0.113711
G1 X-6.821 Y-10.590 F7200.000
G1 X-7.121 Y-11.109
G1 X-6.821 Y-11.629
G1 X-6.521 Y-11.629
M700 P0.000000
G1 X-6.521 Y-12.390 F9000.000
M700 P0.113711
G1 X-6.821 Y-12.390 F7200.000
G1 X-7.121 Y-12.909
G1 X-6.821 Y-13.429
G1 X-6.521 Y-13.429
M700 P0.000000
G1 X-5.968 Y-15.187 F9000.000
M700 P0.113711
G1 X-4.129 Y-18.857 F7200.000
G1 X-3.605 Y-18.857
G1 X-5.445 Y-15.187
M700 P0.000000
G1 X-4.533 Y-15.961 F9000.000
M700 P0.113711
G1 X-3.014 Y-18.991 F7200.000
M700 P0.000000
G1 X-2.169 Y-19.632 F9000.000
M700 P0.113711
G1 X-4.009 Y-15.961 F7200.000
M700 P0.000000
G1 X-3.168 Y-16.595 F9000.000
M700 P0.113711
G1 X-1.645 Y-19.632 F7200.000
G1 X-0.970 Y-19.935
G1 X-2.573 Y-16.736
G1 X-2.049 Y-16.736
G1 X-0.492 Y-19.844
G1 X0.032 Y-19.844
G1 X-1.214 Y-17.356
G1 X-0.691 Y-17.356
G1 X0.665 Y-20.061
G1 X1.080 Y-19.844
G1 X-0.201 Y-17.288
G1 X0.283 Y-17.210
G1 X1.604 Y-19.844
G1 X2.207 Y-20.003
G1 X0.881 Y-17.356
G1 X1.404 Y-17.356
G1 X2.682 Y-19.905
G1 X3.175 Y-19.844
G1 X1.812 Y-17.125
G1 X2.452 Y-17.356
G1 X3.699 Y-19.844
G1 X4.305 Y-20.007
G1 X2.976 Y-17.356
G1 X3.450 Y-17.258
G1 X4.746 Y-19.844
G1 X5.270 Y-19.844
G1 X3.977 Y-17.264
G1 X4.547 Y-17.356
G1 X5.978 Y-20.211
G1 X6.333 Y-19.875
G1 X5.071 Y-17.356
G1 X5.448 Y-17.063
G1 X6.841 Y-19.844
G1 X7.379 Y-19.872
G1 X6.119 Y-17.356
G1 X6.642 Y-17.356
G1 X7.956 Y-19.978
G1 X8.413 Y-19.844
G1 X7.102 Y-17.228
G1 X7.671 Y-17.318
G1 X8.937 Y-19.844
G1 X9.614 Y-20.149
G1 X8.214 Y-17.356
G1 X8.725 Y-17.331
G1 X9.985 Y-19.845
G1 X10.508 Y-19.844
G1 X9.083 Y-17.001
G1 X9.785 Y-17.356
G1 X11.073 Y-19.926
G1 X11.608 Y-19.948
G1 X10.309 Y-17.356
G1 X10.754 Y-17.199
G1 X12.079 Y-19.844
G1 X12.603 Y-19.844
G1 X11.356 Y-17.356
G1 X11.880 Y-17.356
G1 X13.249 Y-20.088
G1 X13.651 Y-19.844
G1 X12.376 Y-17.301
G1 X12.842 Y-17.186
G1 X14.174 Y-19.844
G1 X14.766 Y-19.980
G1 X13.452 Y-17.356
G1 X13.975 Y-17.356
G1 X15.259 Y-19.918
G1 X15.746 Y-19.844
G1 X14.397 Y-17.152
G1 X15.023 Y-17.356
G1 X16.270 Y-19.844
G1 X16.915 Y-20.086
G1 X15.547 Y-17.356
G1 X16.028 Y-17.271
G1 X17.417 Y-20.044
G1 X17.945 Y-20.052
G1 X16.476 Y-17.121
G1 X17.018 Y-17.156
G1 X18.537 Y-20.188
G1 X18.989 Y-20.044
G1 X17.528 Y-17.129
G1 X17.886 Y-16.798
G1 X19.513 Y-20.044
G1 X20.201 Y-20.372
G1 X18.589 Y-17.156
G1 X19.113 Y-17.156
G1 X20.041 Y-19.008
M700 P0.000000
G1 X21.056 Y-18.818 F9000.000
M700 P0.113711
G1 X20.756 Y-18.818 F7200.000
G1 X20.456 Y-19.337
G1 X20.756 Y-19.857
G1 X21.056 Y-19.857
M700 P0.000000
G1 X21.056 Y-18.057 F9000.000
M700 P0.113711
G1 X20.756 Y-18.057 F7200.000
G1 X20.456 Y-17.537
G1 X20.756 Y-17.018
G1 X21.056 Y-17.018
M700 P0.000000
G1 X19.878 Y-17.638 F9000.000
M700 P0.113711
G1 X19.557 Y-16.997 F7200.000
M700 P0.000000
G1 X19.557 Y-16.292 F9000.000
M700 P0.113711
G1 X19.386 Y-15.951 F7200.000
M700 P0.000000
G1 X17.754 Y-16.286 F9000.000
M700 P0.113711
G1 X17.589 Y-15.957 F7200.000
G22 ; retract
G1 X-6.469 Y-17.323 F9000.000
G23 ; unretract
M700 P0.113711
G1 X-10.514 Y-9.252 F7200.000
G22 ; retract
G1 X-7.521 Y-8.954 F9000.000
G23 ; unretract
M700 P0.113711
G1 X-10.514 Y-2.982 F7200.000
G1 X-10.786 Y-3.485
G1 X-16.965 Y8.844
G1 X-16.441 Y8.844
G1 X-10.786 Y-2.440
G1 X-10.514 Y-1.937
G1 X-7.699 Y-7.554
G1 X-7.443 Y-7.019
G1 X-10.514 Y-0.891
G1 X-10.786 Y-1.395
G1 X-15.970 Y8.950
G1 X-15.433 Y8.922
G1 X-10.786 Y-0.350
G1 X-10.514 Y0.154
G1 X-7.646 Y-5.570
G1 X-7.365 Y-5.085
G1 X-10.514 Y1.199
M700 P0.000000
G1 X-10.786 Y0.695 F9000.000
M700 P0.113711
G1 X-14.870 Y8.844 F7200.000
G22 ; retract
G1 X-8.248 Y10.352 F9000.000
G23 ; unretract
M700 P0.113711
G1 X-8.076 Y10.008 F7200.000
M700 P0.000000
G1 X-6.562 Y10.982 F9000.000
M700 P0.113711
G1 X-6.734 Y11.326 F7200.000
M700 P0.000000
G1 X-5.220 Y12.300 F9000.000
M700 P0.113711
G1 X-5.048 Y11.955 F7200.000
M700 P0.000000
G1 X-3.534 Y12.929 F9000.000
M700 P0.113711
G1 X-3.706 Y13.273 F7200.000
M700 P0.000000
G1 X-2.192 Y14.247 F9000.000
M700 P0.113711
G1 X-2.020 Y13.903 F7200.000
G22 ; retract
G1 X2.358 Y14.805 F9000.000
G23 ; unretract
M700 P0.113711
G1 X2.475 Y14.571 F7200.000
G1 X2.849 Y14.571
G1 X2.358 Y15.551
M700 P0.000000
G1 X2.358 Y16.296 F9000.000
M700 P0.113711
G1 X3.222 Y14.571 F7200.000
G1 X3.596 Y14.571
G1 X2.358 Y17.042
M700 P0.000000
G1 X2.358 Y17.787 F9000.000
M700 P0.113711
G1 X3.970 Y14.571 F7200.000
G1 X4.343 Y14.571
G1 X2.532 Y18.186
G1 X2.905 Y18.186
G1 X4.717 Y14.571
G1 X5.090 Y14.571
G1 X3.279 Y18.186
G1 X3.652 Y18.186
G1 X5.464 Y14.571
G1 X5.838 Y14.571
G1 X4.026 Y18.186
G1 X4.400 Y18.186
G1 X6.211 Y14.571
G1 X6.585 Y14.571
G1 X4.773 Y18.186
G1 X5.147 Y18.186
G1 X6.959 Y14.571
G1 X7.332 Y14.571
G1 X5.521 Y18.186
G1 X5.894 Y18.186
G1 X7.706 Y14.571
G1 X8.079 Y14.571
G1 X6.268 Y18.186
G1 X6.641 Y18.186
G1 X8.453 Y14.571
G1 X8.827 Y14.571
G1 X7.015 Y18.186
G1 X7.389 Y18.186
G1 X9.200 Y14.571
G1 X9.574 Y14.571
G1 X7.762 Y18.186
G1 X8.136 Y18.186
G1 X9.948 Y14.571
G1 X10.321 Y14.571
G1 X8.510 Y18.186
G1 X8.883 Y18.186
G1 X10.695 Y14.571
G1 X11.068 Y14.571
G1 X9.257 Y18.186
G1 X9.630 Y18.186
G1 X11.242 Y14.970
M700 P0.000000
G1 X11.242 Y15.715 F9000.000
M700 P0.113711
G1 X10.004 Y18.186 F7200.000
G1 X10.378 Y18.186
G1 X11.242 Y16.461
M700 P0.000000
G1 X11.242 Y17.206 F9000.000
M700 P0.113711
G1 X10.751 Y18.186 F7200.000
G1 X11.242 Y17.952
G1 X11.125 Y18.186
G22 ; retract
G1 X20.064 Y13.344 F9000.000
G23 ; unretract
M700 P0.113711
G1 X20.287 Y12.899 F7200.000
G1 X20.006 Y12.413
G1 X19.540 Y13.344
G1 X18.960 Y13.457
G1 X20.209 Y10.964
G1 X19.839 Y10.656
G1 X18.449 Y13.431
G1 X17.969 Y13.344
G1 X19.373 Y10.542
G1 X18.824 Y10.593
G1 X17.445 Y13.344
G1 X16.857 Y13.472
G1 X18.268 Y10.656
G1 X17.750 Y10.645
G1 X16.425 Y13.288
G1 X15.901 Y13.288
G1 X17.384 Y10.330
G1 X16.697 Y10.656
G1 X15.212 Y13.618
G1 X14.858 Y13.279
G1 X16.173 Y10.656
G1 X15.721 Y10.512
G1 X14.352 Y13.244
G1 X13.817 Y13.265
G1 X15.075 Y10.756
G1 X14.551 Y10.756
G1 X13.236 Y13.381
G1 X12.781 Y13.244
G1 X14.082 Y10.648
G1 X13.540 Y10.683
G1 X12.257 Y13.244
G1 X11.577 Y13.556
G1 X12.980 Y10.756
G1 X12.459 Y10.750
G1 X11.207 Y13.249
G1 X10.686 Y13.244
G1 X12.090 Y10.441
G1 X11.409 Y10.756
G1 X10.124 Y13.319
G1 X9.584 Y13.351
G1 X10.885 Y10.756
G1 X10.430 Y10.618
G1 X9.114 Y13.244
G1 X8.591 Y13.244
G1 X9.847 Y10.737
G1 X9.313 Y10.756
G1 X7.941 Y13.495
G1 X7.543 Y13.244
G1 X8.808 Y10.720
G1 X8.455 Y10.379
G1 X7.019 Y13.244
G1 X6.430 Y13.373
G1 X7.742 Y10.756
G1 X7.218 Y10.756
G1 X5.933 Y13.321
G1 X5.448 Y13.244
G1 X6.779 Y10.588
G1 X6.171 Y10.756
G1 X4.924 Y13.244
G1 X4.305 Y13.433
G1 X5.647 Y10.756
G1 X5.156 Y10.690
G1 X3.876 Y13.244
G1 X3.353 Y13.244
G1 X4.675 Y10.605
G1 X4.076 Y10.756
G1 X2.643 Y13.615
G1 X2.281 Y13.292
G1 X3.552 Y10.756
G1 X3.142 Y10.530
G1 X1.781 Y13.244
G1 X1.257 Y13.244
G1 X2.504 Y10.756
G1 X1.980 Y10.756
G1 X0.658 Y13.394
G1 X0.210 Y13.244
G1 X1.505 Y10.661
G1 X0.981 Y10.659
G1 X-0.314 Y13.244
G1 X-1.007 Y13.581
G1 X0.409 Y10.756
G1 X-0.115 Y10.756
G1 X-1.369 Y13.259
G1 X-1.884 Y13.240
G1 X-0.494 Y10.468
G1 X-1.028 Y10.489
G1 X-2.290 Y13.006
G1 X-2.570 Y12.521
G1 X-1.552 Y10.489
G1 X-2.026 Y10.389
G1 X-2.967 Y12.267
G1 X-3.491 Y12.267
G1 X-2.345 Y9.981
G1 X-2.651 Y9.545
G1 X-3.854 Y11.946
G1 X-4.135 Y11.463
G1 X-3.174 Y9.545
G1 X-3.628 Y9.406
G1 X-4.574 Y11.293
G1 X-5.098 Y11.293
G1 X-3.926 Y8.955
G1 X-4.273 Y8.602
G1 X-5.418 Y10.886
G1 X-5.722 Y10.447
G1 X-4.797 Y8.602
G1 X-5.226 Y8.414
G1 X-6.181 Y10.320
G1 X-6.701 Y10.312
G1 X-5.507 Y7.928
G1 X-5.895 Y7.658
G1 X-6.982 Y9.826
G1 X-7.308 Y9.432
G1 X-6.419 Y7.658
G1 X-6.807 Y7.388
G1 X-7.789 Y9.346
G1 X-8.312 Y9.346
G1 X-7.087 Y6.902
G1 X-7.157 Y5.995
G1 X-8.825 Y9.325
G1 X-9.218 Y9.064
G1 X-7.459 Y5.553
G1 X-7.699 Y4.987
G1 X-9.742 Y9.064
G1 X-10.327 Y9.185
G1 X-7.537 Y3.618
M700 P0.000000
G1 X-7.334 Y2.169 F9000.000
M700 P0.113711
G1 X-10.767 Y9.018 F7200.000
G1 X-11.261 Y8.959
G1 X-7.615 Y1.683
M700 P0.000000
G1 X-7.412 Y0.234 F9000.000
M700 P0.113711
G1 X-11.785 Y8.959 F7200.000
G1 X-12.319 Y8.979
G1 X-7.692 Y-0.251
M700 P0.000000
G1 X-7.490 Y-1.701 F9000.000
M700 P0.113711
G1 X-12.775 Y8.844 F7200.000
G1 X-13.298 Y8.844
G1 X-7.287 Y-3.150
G1 X-7.568 Y-3.635
G1 X-10.514 Y2.244
G1 X-10.786 Y1.740
G1 X-14.348 Y8.847
G1 X-13.977 Y9.153
G1 X-10.786 Y2.785
G22 ; retract
G1 X-14.861 Y-1.624 F9000.000
G23 ; unretract
M700 P0.113711
G1 X-7.000 Y-17.308 F7200.000
G1 X-7.505 Y-17.346
G1 X-14.861 Y-2.669
M700 P0.000000
G1 X-14.861 Y-3.714 F9000.000
M700 P0.113711
G1 X-8.281 Y-16.844 F7200.000
G1 X-8.804 Y-16.844
G1 X-14.861 Y-4.759
M700 P0.000000
G1 X-14.861 Y-5.804 F9000.000
M700 P0.113711
G1 X-9.243 Y-17.015 F7200.000
G1 X-9.852 Y-16.844
G1 X-14.861 Y-6.850
M700 P0.000000
G1 X-14.861 Y-7.895 F9000.000
M700 P0.113711
G1 X-10.376 Y-16.844 F7200.000
G1 X-10.865 Y-16.912
G1 X-14.861 Y-8.940
M700 P0.000000
G1 X-14.861 Y-9.985 F9000.000
M700 P0.113711
G1 X-11.350 Y-16.990 F7200.000
G1 X-11.947 Y-16.844
G1 X-14.861 Y-11.030
G1 X-14.910 Y-11.977
G1 X-12.471 Y-16.844
G1 X-12.878 Y-17.076
G1 X-15.434 Y-11.977
G1 X-15.958 Y-11.977
G1 X-13.519 Y-16.844
G1 X-14.042 Y-16.844
G1 X-16.482 Y-11.977
G1 X-17.005 Y-11.977
G1 X-14.517 Y-16.942
G1 X-15.044 Y-16.936
G1 X-17.529 Y-11.977
G1 X-18.053 Y-11.977
G1 X-15.614 Y-16.844
G1 X-16.137 Y-16.844
G1 X-18.577 Y-11.977
G1 X-19.101 Y-11.977
G1 X-16.514 Y-17.137
G1 X-17.185 Y-16.844
G1 X-19.624 Y-11.977
G1 X-20.148 Y-11.977
G1 X-17.709 Y-16.844
G1 X-18.168 Y-16.972
G1 X-20.672 Y-11.977
G1 X-21.196 Y-11.977
G1 X-18.737 Y-16.882
G1 X-19.280 Y-16.844
G1 X-21.720 Y-11.977
M700 P0.000000
G1 X-21.939 Y-11.539 F9000.000
M700 P0.113711
G1 X-23.744 Y-7.937 F7200.000
G1 X-23.523 Y-7.334
G1 X-21.939 Y-10.494
M700 P0.000000
G1 X-21.939 Y-9.449 F9000.000
M700 P0.113711
G1 X-23.666 Y-6.002 F7200.000
M700 P0.000000
G1 X-23.869 Y-4.553 F9000.000
M700 P0.113711
G1 X-21.939 Y-8.404 F7200.000
M700 P0.000000
G1 X-21.939 Y-7.359 F9000.000
M700 P0.113711
G1 X-23.589 Y-4.067 F7200.000
M700 P0.000000
G1 X-23.791 Y-2.618 F9000.000
M700 P0.113711
G1 X-21.939 Y-6.314 F7200.000
M700 P0.000000
G1 X-21.939 Y-5.269 F9000.000
M700 P0.113711
G1 X-23.523 Y-2.109 F7200.000
M700 P0.000000
G1 X-23.713 Y-0.683 F9000.000
M700 P0.113711
G1 X-21.939 Y-4.224 F7200.000
M700 P0.000000
G1 X-21.939 Y-3.179 F9000.000
M700 P0.113711
G1 X-23.916 Y0.766 F7200.000
G1 X-23.635 Y1.251
G1 X-21.939 Y-2.133
M700 P0.000000
G1 X-21.939 Y-1.088 F9000.000
M700 P0.113711
G1 X-23.838 Y2.701 F7200.000
G1 X-23.558 Y3.186
G1 X-21.939 Y-0.043
M700 P0.000000
G1 X-21.939 Y1.002 F9000.000
M700 P0.113711
G1 X-23.760 Y4.635 F7200.000
G1 X-23.523 Y5.207
G1 X-21.939 Y2.047
G22 ; retract
G1 X-23.542 Y-9.386 F9000.000
G23 ; unretract
M700 P0.113711
G1 X-19.555 Y-17.341 F7200.000
G1 X-20.150 Y-17.199
G1 X-23.822 Y-9.872
M700 P0.000000
G1 X-23.620 Y-11.321 F9000.000
M700 P0.113711
G1 X-20.852 Y-16.844 F7200.000
G1 X-21.375 Y-16.844
G1 X-23.900 Y-11.807
M700 P0.000000
G1 X-23.697 Y-13.256 F9000.000
M700 P0.113711
G1 X-21.820 Y-17.002 F7200.000
G1 X-22.108 Y-17.473
G1 X-23.523 Y-14.650
G1 X-23.775 Y-15.191
G1 X-22.406 Y-17.922
G1 X-22.687 Y-18.407
G1 X-23.573 Y-16.640
G1 X-23.853 Y-17.125
G1 X-22.835 Y-19.157
G1 X-23.278 Y-19.318
G1 X-23.650 Y-18.575
G1 X-23.931 Y-19.060
G1 X-23.643 Y-19.634
G22 ; retract
G1 X-25.246 Y-22.000 F9000.000
G23 ; unretract
M700 P0.113711
G1 X-25.742 Y-22.000 F7200.000
G1 X-25.615 Y-22.220
G1 X-25.781 Y-22.508
M700 P0.000000
G1 X-25.695 Y-22.678 F9000.000
M700 P0.113711
G1 X-25.882 Y-22.305 F7200.000
M700 P0.000000
G1 X-25.292 Y-22.648 F9000.000
M700 P0.113711
G1 X-25.174 Y-22.683 F7200.000
G1 X-25.013 Y-22.404
G1 X-25.246 Y-22.000
G22 ; retract
G1 X21.538 Y9.457 F9000.000
G23 ; unretract
M700 P0.113711
G1 X21.363 Y9.805 F7200.000
G1 X21.902 Y10.097
G1 X21.363 Y11.171
G1 X21.902 Y11.463
G1 X21.363 Y12.537
G1 X21.902 Y12.829
G1 X21.363 Y13.903
G1 X21.902 Y14.195
G1 X21.728 Y14.543
M700 P0.000000
G1 X21.148 Y14.195 F9000.000
M700 P0.113711
G1 X20.974 Y14.543 F7200.000
G22 ; retract
G1 X22.424 Y12.760 F9000.000
G23 ; unretract
M700 P0.113711
G1 X23.864 Y12.760 F7200.000
M700 P0.000000
G1 X24.058 Y14.379 F9000.000
M700 P0.113711
G1 X24.058 Y9.621 F7200.000
G1 X22.210 Y9.621
G1 X22.210 Y14.379
G1 X24.058 Y14.379
G22 ; retract
G1 X24.058 Y-16.121 F9000.000
G23 ; unretract
M700 P0.113711
G1 X24.058 Y-21.079 F7200.000
G1 X22.210 Y-21.079
G1 X22.210 Y-16.121
G1 X24.058 Y-16.121
G22 ; retract
G1 X23.864 Y-18.786 F9000.000
G23 ; unretract
M700 P0.113711
G1 X22.424 Y-18.786 F7200.000
G22 ; retract
G1 X-27.200 Y-18.769 F9000.000
G23 ; unretract
M700 P0.113711
G1 X-27.200 Y-19.469 F7200.000
G1 X-27.979 Y-19.469
G1 X-27.979 Y-16.031
G1 X-27.675 Y-16.031
G1 X-27.675 Y8.031
G1 X-27.979 Y8.031
G1 X-27.979 Y11.469
G1 X-27.200 Y11.469
G1 X-27.200 Y-18.769
M700 P0.000000
G1 X-27.395 Y-18.786 F9000.000
M700 P0.113711
G1 X-27.764 Y-18.786 F7200.000
G22 ; retract
G1 X-27.764 Y9.892 F9000.000
G23 ; unretract
M700 P0.113711
G1 X-27.395 Y9.892 F7200.000
G22 ; retract
G1 Z1.700 F9000.000
G1 X-25.300 Y21.400 F9000.000
G23 ; unretract
M700 P0.055171
G1 X-26.400 Y21.400 F2400.000
G1 X-26.400 Y-21.400
G1 X-25.300 Y-21.400
G1 X-25.300 Y21.340
M700 P0.000000
G1 X-25.646 Y21.200 F9000.000
M700 P0.000000
G1 X-25.850 Y21.076 F9000.000
M700 P0.046171
G1 X-25.850 Y-21.076 F3600.000
M700 P0.148171
G1 X-25.850 Y21.076 F3600.000
G22 ; retract
G1 Z1.700 F9000.000
G1 X2.421 Y17.316 F9000.000
G23 ; unretract
M700 P0.055171
G1 X2.721 Y17.316 F7200.000
G1 X3.021 Y17.836
G1 X2.881 Y18.079
M700 P0.055171
G1 X3.379 Y18.079 F7200.000
G1 X3.679 Y17.559
G1 X4.279 Y17.559
G1 X4.579 Y18.079
M700 P0.055171
G1 X5.179 Y18.079 F7200.000
G1 X5.479 Y17.559
G1 X6.079 Y17.559
G1 X6.379 Y18.079
M700 P0.055171
G1 X6.979 Y18.079 F7200.000
G1 X7.279 Y17.559
G1 X7.879 Y17.559
G1 X8.179 Y18.079
M700 P0.055171
G1 X8.779 Y18.079 F7200.000
G1 X9.079 Y17.559
G1 X9.679 Y17.559
G1 X9.979 Y18.079
M700 P0.055171
G1 X10.579 Y18.079 F7200.000
G1 X10.599 Y18.043
G1 X10.579 Y18.007
G1 X10.879 Y17.488
G1 X11.179 Y17.488
M700 P0.000000
G1 X11.179 Y16.727 F9000.000
M700 P0.055171
G1 X10.879 Y16.727 F7200.000
G1 X10.579 Y16.207
G1 X10.879 Y15.688
G1 X11.179 Y15.688
M700 P0.000000
G1 X11.179 Y14.927 F9000.000
M700 P0.055171
G1 X10.879 Y14.927 F7200.000
G1 X10.579 Y14.407
G1 X10.879 Y13.888
G1 X11.179 Y13.888
M700 P0.000000
G1 X11.179 Y13.300 F9000.000
M700 P0.055171
G1 X11.086 Y13.300 F7200.000
G1 X10.786 Y13.820
G1 X10.186 Y13.820
G1 X9.886 Y13.300
G1 X9.286 Y13.300
G1 X8.986 Y13.820
G1 X8.386 Y13.820
G1 X8.086 Y13.300
G1 X7.486 Y13.300
G1 X7.186 Y13.820
G1 X6.586 Y13.820
G1 X6.286 Y13.300
G1 X5.686 Y13.300
G1 X5.386 Y13.820
G1 X4.786 Y13.820
G1 X4.486 Y13.300
G1 X3.886 Y13.300
G1 X3.586 Y13.820
G1 X2.986 Y13.820
G1 X2.686 Y13.300
G1 X2.421 Y13.300
M700 P0.000000
G1 X2.421 Y13.716 F9000.000
M700 P0.055171
G1 X2.721 Y13.716 F7200.000
G1 X3.021 Y14.236
G1 X2.721 Y14.755
G1 X2.421 Y14.755
M700 P0.000000
G1 X2.421 Y15.516 F9000.000
M700 P0.055171
G1 X2.721 Y15.516 F7200.000
G1 X3.021 Y16.036
G1 X2.721 Y16.555
G1 X2.421 Y16.555
M700 P0.000000
G1 X3.593 Y17.018 F9000.000
M700 P0.055171
G1 X4.925 Y14.361 F7200.000
G1 X5.349 Y14.361
G1 X4.017 Y17.018
G1 X4.432 Y17.036
G1 X5.841 Y14.226
G1 X6.257 Y14.242
G1 X4.742 Y17.266
G1 X5.290 Y17.018
G1 X6.622 Y14.361
G1 X7.046 Y14.361
G1 X5.714 Y17.018
G1 X6.139 Y17.018
G1 X7.496 Y14.309
G1 X7.977 Y14.195
G1 X6.482 Y17.180
G1 X6.958 Y17.075
G1 X8.319 Y14.361
G1 X8.743 Y14.361
G1 X7.411 Y17.018
G1 X7.836 Y17.018
G1 X9.167 Y14.361
G1 X9.719 Y14.106
G1 X8.202 Y17.134
G1 X8.613 Y17.159
G1 X9.988 Y14.416
G1 X10.198 Y14.844
G1 X9.108 Y17.018
M700 P0.000000
G1 X10.203 Y17.372 F9000.000
M700 P0.055171
G1 X10.396 Y16.987 F7200.000
G1 X10.169 Y16.594
G1 X9.922 Y17.088
G1 X9.533 Y17.018
G1 X9.988 Y16.109
G22 ; retract
G1 X8.228 Y17.980 F9000.000
G23 ; unretract
M700 P0.055171
G1 X8.129 Y18.177 F7200.000
M700 P0.000000
G1 X6.428 Y17.980 F9000.000
M700 P0.055171
G1 X6.329 Y18.177 F7200.000
M700 P0.000000
G1 X4.628 Y17.980 F9000.000
M700 P0.055171
G1 X4.529 Y18.177 F7200.000
M700 P0.000000
G1 X2.935 Y17.971 F9000.000
M700 P0.055171
G1 X2.822 Y18.197 F7200.000
G22 ; retract
G1 X3.612 Y16.134 F9000.000
G23 ; unretract
M700 P0.055171
G1 X4.537 Y14.288 F7200.000
G1 X4.257 Y14.000
G1 X3.431 Y15.649
G1 X3.204 Y15.256
G1 X3.465 Y14.734
G22 ; retract
G1 X18.506 Y14.434 F9000.000
G23 ; unretract
M700 P0.055171
G1 X18.639 Y14.169 F7200.000
G1 X19.023 Y14.264
G1 X18.904 Y14.500
M700 P0.000000
G1 X18.965 Y14.379 F9000.000
M700 P0.055171
G1 X19.177 Y14.011 F7200.000
G1 X18.877 Y13.492
G1 X18.577 Y13.492
G1 X18.577 Y13.400
G1 X19.166 Y13.400
G1 X19.466 Y13.920
M700 P0.055171
G1 X19.675 Y13.920 F7200.000
G1 X19.410 Y14.379
M700 P0.000000
G1 X20.558 Y14.482 F9000.000
M700 P0.055171
G1 X20.678 Y14.243 F7200.000
G1 X21.271 Y14.257
G1 X21.148 Y14.502
M700 P0.000000
G1 X21.210 Y14.379 F9000.000
M700 P0.055171
G1 X21.493 Y13.889 F7200.000
G1 X21.210 Y13.399
G1 X21.510 Y12.879
G1 X21.810 Y12.879
M700 P0.000000
G1 X21.810 Y12.119 F9000.000
M700 P0.055171
G1 X21.510 Y12.119 F7200.000
G1 X21.210 Y11.599
G1 X21.510 Y11.079
G1 X21.810 Y11.079
M700 P0.000000
G1 X21.810 Y10.319 F9000.000
M700 P0.055171
G1 X21.510 Y10.319 F7200.000
G1 X21.210 Y9.799
M700 P0.055171
G1 X21.312 Y9.621 F7200.000
G1 X20.787 Y9.621
G1 X20.487 Y10.141
G1 X19.923 Y10.141
G1 X20.188 Y10.600
G1 X20.077 Y10.793
G1 X20.077 Y11.392
G1 X20.377 Y11.392
G1 X20.677 Y11.911
G1 X20.377 Y12.431
G1 X20.077 Y12.431
G1 X20.077 Y12.900
G1 X20.366 Y13.400
G1 X20.101 Y13.859
G1 X20.310 Y13.859
G1 X20.610 Y14.379
M700 P0.000000
G1 X22.269 Y14.543 F9000.000
M700 P0.055171
G1 X22.443 Y14.195 F7200.000
G1 X22.118 Y13.584
G1 X22.443 Y12.935
G1 X22.118 Y12.325
G1 X22.443 Y11.675
G1 X22.118 Y11.065
G1 X22.443 Y10.416
G1 X22.118 Y9.805
G1 X22.292 Y9.457
M700 P0.000000
G1 X21.054 Y10.526 F9000.000
M700 P0.055171
G1 X20.786 Y11.060 F7200.000
M700 P0.000000
G1 X19.288 Y10.080 F9000.000
M700 P0.055171
G1 X19.852 Y10.080 F7200.000
G1 X19.587 Y9.621
G1 X19.068 Y9.621
G1 X19.177 Y9.811
G1 X18.877 Y10.331
G1 X18.577 Y10.331
G1 X18.577 Y10.600
G1 X18.988 Y10.600
G1 X19.288 Y10.080
G22 ; retract
G1 X18.876 Y-15.944 F9000.000
G23 ; unretract
M700 P0.055171
G1 X19.051 Y-16.292 F7200.000
M700 P0.000000
G1 X18.965 Y-16.121 F9000.000
M700 P0.055171
G1 X19.410 Y-16.121 F7200.000
G1 X19.675 Y-16.580
G1 X19.466 Y-16.580
M700 P0.055171
G1 X19.166 Y-17.100 F7200.000
G1 X18.577 Y-17.100
G1 X18.577 Y-17.008
G1 X18.877 Y-17.008
G1 X19.177 Y-16.489
G1 X18.965 Y-16.121
M700 P0.000000
G1 X20.531 Y-15.964 F9000.000
M700 P0.055171
G1 X20.689 Y-16.279 F7200.000
M700 P0.000000
G1 X20.610 Y-16.121 F9000.000
M700 P0.055171
G1 X21.210 Y-16.121 F7200.000
G1 X21.510 Y-16.641
G1 X21.810 Y-16.641
M700 P0.000000
G1 X21.810 Y-16.981 F9000.000
M700 P0.055171
G1 X21.510 Y-16.981 F7200.000
G1 X21.210 Y-17.501
G1 X21.510 Y-18.021
G1 X21.810 Y-18.021
M700 P0.000000
G1 X21.810 Y-18.781 F9000.000
M700 P0.055171
G1 X21.510 Y-18.781 F7200.000
G1 X21.210 Y-19.301
G1 X21.510 Y-19.821
G1 X21.810 Y-19.821
M700 P0.000000
G1 X21.399 Y-20.303 F9000.000
M700 P0.055171
G1 X21.586 Y-20.678 F7200.000
M700 P0.000000
G1 X21.487 Y-20.559 F9000.000
M700 P0.055171
G1 X21.810 Y-20.559 F7200.000
M700 P0.000000
G1 X21.487 Y-20.559 F9000.000
M700 P0.055171
G1 X21.187 Y-21.079 F7200.000
G1 X20.587 Y-21.079
G1 X20.287 Y-20.559
G1 X20.123 Y-20.559
G1 X20.388 Y-20.100
G1 X20.077 Y-19.580
G1 X20.077 Y-19.108
G1 X20.377 Y-19.108
G1 X20.677 Y-18.589
G1 X20.377 Y-18.069
G1 X20.077 Y-18.069
G1 X20.077 Y-17.600
G1 X20.366 Y-17.100
G1 X20.101 Y-16.641
G1 X20.310 Y-16.641
G1 X20.610 Y-16.121
M700 P0.000000
G1 X22.265 Y-15.950 F9000.000
M700 P0.055171
G1 X22.447 Y-16.313 F7200.000
G1 X22.114 Y-16.958
G1 X22.447 Y-17.622
G1 X22.114 Y-18.268
G1 X22.447 Y-18.932
G1 X22.114 Y-19.578
G1 X22.447 Y-20.242
G1 X22.114 Y-20.887
G1 X22.296 Y-21.250
G22 ; retract
G1 X19.488 Y-20.620 F9000.000
G23 ; unretract
M700 P0.055171
G1 X19.652 Y-20.620 F7200.000
G1 X19.387 Y-21.079
G1 X18.952 Y-21.079
G1 X19.177 Y-20.689
G1 X18.877 Y-20.169
G1 X18.577 Y-20.169
G1 X18.577 Y-20.100
G1 X19.188 Y-20.100
G1 X19.488 Y-20.620
M700 P0.000000
G1 X18.177 Y-20.300 F9000.000
M700 P0.055171
G1 X18.177 Y-21.079 F7200.000
G1 X14.958 Y-21.079
G1 X14.958 Y-20.300
G1 X15.644 Y-20.300
G1 X15.644 Y-20.100
G1 X15.658 Y-20.100
G1 X15.658 Y-20.300
G1 X18.177 Y-20.300
G22 ; retract
G1 X15.658 Y-16.900 F9000.000
G23 ; unretract
M700 P0.055171
G1 X15.658 Y-17.100 F7200.000
G1 X15.644 Y-17.100
G1 X15.644 Y-16.900
G1 X14.958 Y-16.900
G1 X14.958 Y-16.121
G1 X18.177 Y-16.121
G1 X18.177 Y-16.900
G1 X15.658 Y-16.900
G22 ; retract
G1 X23.008 Y-18.786 F9000.000
G23 ; unretract
M700 P0.055171
G1 X23.821 Y-18.786 F7200.000
G22 ; retract
G1 X24.058 Y-16.121 F9000.000
G23 ; unretract
M700 P0.055171
G1 X24.058 Y-21.079 F7200.000
G1 X22.751 Y-21.079
G1 X22.751 Y-16.121
G1 X24.058 Y-16.121
G22 ; retract
G1 X18.177 Y10.400 F9000.000
G23 ; unretract
M700 P0.055171
G1 X18.177 Y9.621 F7200.000
G1 X15.561 Y9.621
G1 X15.561 Y10.400
G1 X18.177 Y10.400
G22 ; retract
G1 X16.261 Y13.600 F9000.000
G23 ; unretract
M700 P0.055171
G1 X15.561 Y13.600 F7200.000
G1 X15.561 Y14.379
G1 X18.177 Y14.379
G1 X18.177 Y13.600
G1 X16.261 Y13.600
G22 ; retract
G1 X23.008 Y12.760 F9000.000
G23 ; unretract
M700 P0.055171
G1 X23.821 Y12.760 F7200.000
M700 P0.000000
G1 X24.058 Y14.379 F9000.000
M700 P0.055171
G1 X24.058 Y9.621 F7200.000
G1 X22.751 Y9.621
G1 X22.751 Y14.379
G1 X24.058 Y14.379
G22 ; retract
G1 X-10.500 Y9.320 F9000.000
G23 ; unretract
M700 P0.055171
G1 X-10.500 Y9.100 F7200.000
G1 X-21.638 Y9.100
G1 X-21.779 Y9.690
G1 X-9.300 Y9.690
G1 X-9.300 Y9.320
G1 X-10.500 Y9.320
G22 ; retract
G1 X-14.000 Y4.400 F9000.000
G23 ; unretract
M700 P0.055171
G1 X-14.000 Y-12.900 F7200.000
G1 X-22.800 Y-12.900
G1 X-22.800 Y4.400
G1 X-14.000 Y4.400
M700 P0.000000
G1 X-14.541 Y1.288 F9000.000
M700 P0.055171
G1 X-14.237 Y1.288 F7200.000
G1 X-14.237 Y-1.579
G1 X-14.541 Y-1.579
G1 X-14.541 Y-4.447
G1 X-14.237 Y-4.447
G1 X-14.237 Y-7.315
G1 X-14.541 Y-7.315
G1 X-14.541 Y-10.183
G1 X-14.237 Y-10.183
G22 ; retract
G1 X-22.259 Y-10.183 F9000.000
G23 ; unretract
M700 P0.055171
G1 X-22.543 Y-10.183 F7200.000
G1 X-22.543 Y-7.315
G1 X-22.259 Y-7.315
G1 X-22.259 Y-4.447
G1 X-22.543 Y-4.447
G1 X-22.543 Y-1.579
G1 X-22.259 Y-1.579
G1 X-22.259 Y1.288
G1 X-22.543 Y1.288
G22 ; retract
G1 X-27.437 Y9.892 F9000.000
G23 ; unretract
M700 P0.055171
G1 X-27.721 Y9.892 F7200.000
G22 ; retract
G1 X-22.021 Y-12.121 F9000.000
G23 ; unretract
M700 P0.055171
G1 X-14.779 Y-12.121 F7200.000
G1 X-14.779 Y3.621
G1 X-22.021 Y3.621
G1 X-22.021 Y-12.121
G22 ; retract
G1 X-27.200 Y-18.769 F9000.000
G23 ; unretract
M700 P0.055171
G1 X-27.200 Y-19.469 F7200.000
G1 X-27.979 Y-19.469
G1 X-27.979 Y-16.031
G1 X-27.675 Y-16.031
G1 X-27.675 Y8.031
G1 X-27.979 Y8.031
G1 X-27.979 Y11.469
G1 X-27.200 Y11.469
G1 X-27.200 Y-18.769
M700 P0.000000
G1 X-27.437 Y-18.786 F9000.000
M700 P0.055171
G1 X-27.721 Y-18.786 F7200.000
G22 ; retract
G1 X-8.800 Y-17.000 F9000.000
G23 ; unretract
M700 P0.055171
G1 X-8.800 Y-17.879 F7200.000
G1 X-22.057 Y-17.879
G1 X-21.880 Y-17.597
G1 X-22.005 Y-17.597
G1 X-22.005 Y-17.420
G1 X-21.804 Y-17.100
G1 X-9.500 Y-17.100
G1 X-9.500 Y-17.000
G1 X-8.800 Y-17.000
G22 ; retract
G1 Z1.850 F9000.000
G1 X-25.300 Y21.400 F9000.000
G23 ; unretract
M700 P0.055171
G1 X-26.400 Y21.400 F2400.000
G1 X-26.400 Y-21.400
G1 X-25.300 Y-21.400
G1 X-25.300 Y21.340
M700 P0.000000
G1 X-25.646 Y21.200 F9000.000
M700 P0.000000
G1 X-25.850 Y21.076 F9000.000
M700 P0.046171
G1 X-25.850 Y-21.076 F3600.000
M700 P0.148171
G1 X-25.850 Y21.076 F3600.000
G22 ; retract
G1 Z1.850 F9000.000
G1 X19.331 Y14.379 F9000.000
G23 ; unretract
M700 P0.055171
G1 X19.951 Y14.379 F7200.000
G1 X20.251 Y13.859
G1 X20.398 Y13.859
M700 P0.055171
G1 X20.133 Y13.400 F7200.000
G1 X19.702 Y13.400
G1 X19.931 Y13.798
G1 X19.631 Y14.318
G1 X19.331 Y14.318
G1 X19.331 Y14.379
M700 P0.000000
G1 X21.151 Y14.379 F9000.000
M700 P0.055171
G1 X21.751 Y14.379 F7200.000
G1 X21.910 Y14.102
G1 X21.751 Y13.825
G1 X22.051 Y13.306
G1 X22.351 Y13.306
M700 P0.000000
G1 X22.351 Y12.545 F9000.000
M700 P0.055171
G1 X22.051 Y12.545 F7200.000
G1 X21.751 Y12.025
G1 X22.051 Y11.506
G1 X22.351 Y11.506
M700 P0.000000
G1 X22.351 Y10.745 F9000.000
M700 P0.055171
G1 X22.051 Y10.745 F7200.000
G1 X21.751 Y10.225
G1 X22.051 Y9.706
G1 X22.351 Y9.706
M700 P0.000000
G1 X22.351 Y9.621 F9000.000
M700 P0.055171
G1 X21.755 Y9.621 F7200.000
G1 X21.455 Y10.141
G1 X20.855 Y10.141
G1 X20.555 Y9.621
G1 X19.955 Y9.621
G1 X19.655 Y10.141
G1 X19.331 Y10.141
G1 X19.331 Y10.600
G1 X19.529 Y10.600
G1 X19.829 Y10.080
G1 X20.429 Y10.080
G1 X20.729 Y10.600
G1 X20.831 Y10.600
G1 X20.831 Y11.178
G1 X21.131 Y11.178
G1 X21.431 Y11.698
G1 X21.131 Y12.218
G1 X20.831 Y12.218
G1 X20.831 Y12.880
G1 X21.033 Y12.880
G1 X21.333 Y13.400
G1 X21.033 Y13.920
G1 X20.886 Y13.920
G1 X21.151 Y14.379
M700 P0.000000
G1 X22.735 Y14.494 F9000.000
M700 P0.055171
G1 X22.862 Y14.240 F7200.000
G1 X22.681 Y13.633
G1 X22.862 Y13.272
G1 X22.681 Y12.665
G1 X22.862 Y12.304
G1 X22.681 Y11.696
G1 X22.862 Y11.335
G1 X22.681 Y10.728
G1 X22.862 Y10.367
G1 X22.681 Y9.760
G1 X22.809 Y9.506
G22 ; retract
G1 X22.726 Y-15.988 F9000.000
G23 ; unretract
M700 P0.055171
G1 X22.871 Y-16.278 F7200.000
G1 X22.672 Y-16.889
G1 X22.871 Y-17.286
G1 X22.672 Y-17.898
G1 X22.871 Y-18.294
G1 X22.672 Y-18.906
G1 X22.871 Y-19.302
G1 X22.672 Y-19.914
G1 X22.871 Y-20.311
G1 X22.672 Y-20.922
G1 X22.817 Y-21.212
M700 P0.000000
G1 X22.351 Y-20.155 F9000.000
M700 P0.055171
G1 X22.051 Y-20.155 F7200.000
G1 X21.751 Y-20.675
M700 P0.055171
G1 X21.984 Y-21.079 F7200.000
G1 X21.555 Y-21.079
G1 X21.255 Y-20.559
G1 X20.664 Y-20.559
G1 X20.929 Y-20.100
G1 X20.831 Y-19.930
G1 X20.831 Y-19.322
G1 X21.131 Y-19.322
G1 X21.431 Y-18.802
G1 X21.131 Y-18.282
G1 X20.831 Y-18.282
G1 X20.831 Y-17.620
G1 X21.033 Y-17.620
G1 X21.333 Y-17.100
G1 X21.033 Y-16.580
G1 X20.886 Y-16.580
G1 X21.151 Y-16.121
M700 P0.055171
G1 X21.751 Y-16.121 F7200.000
G1 X22.026 Y-16.598
G1 X21.751 Y-17.075
G1 X22.051 Y-17.594
G1 X22.351 Y-17.594
M700 P0.000000
G1 X22.351 Y-18.355 F9000.000
M700 P0.055171
G1 X22.051 Y-18.355 F7200.000
G1 X21.751 Y-18.875
G1 X22.051 Y-19.394
G1 X22.351 Y-19.394
G22 ; retract
G1 X20.029 Y-20.620 F9000.000
G23 ; unretract
M700 P0.055171
G1 X20.620 Y-20.620 F7200.000
G1 X20.355 Y-21.079
G1 X19.829 Y-21.079
G1 X19.931 Y-20.902
G1 X19.631 Y-20.382
G1 X19.331 Y-20.382
G1 X19.331 Y-20.100
G1 X19.729 Y-20.100
G1 X20.029 Y-20.620
G22 ; retract
G1 X20.398 Y-16.641 F9000.000
G23 ; unretract
M700 P0.055171
G1 X20.251 Y-16.641 F7200.000
G1 X19.951 Y-16.121
G1 X19.331 Y-16.121
M700 P0.055171
G1 X19.331 Y-16.182 F7200.000
G1 X19.631 Y-16.182
G1 X19.931 Y-16.702
G1 X19.702 Y-17.100
G1 X20.133 Y-17.100
G1 X20.398 Y-16.641
G22 ; retract
G1 X24.058 Y-16.121 F9000.000
G23 ; unretract
M700 P0.055171
G1 X24.058 Y-21.079 F7200.000
G1 X23.193 Y-21.079
G1 X23.193 Y-16.121
G1 X24.058 Y-16.121
G22 ; retract
G1 X23.821 Y-18.786 F9000.000
G23 ; unretract
M700 P0.055171
G1 X23.450 Y-18.786 F7200.000
G22 ; retract
G1 X18.931 Y-20.300 F9000.000
G23 ; unretract
M700 P0.055171
G1 X18.931 Y-21.079 F7200.000
G1 X14.958 Y-21.079
G1 X14.958 Y-20.300
G1 X15.644 Y-20.300
G1 X15.644 Y-20.100
G1 X15.658 Y-20.100
G1 X15.658 Y-20.300
G1 X18.931 Y-20.300
G22 ; retract
G1 X15.658 Y-16.900 F9000.000
G23 ; unretract
M700 P0.055171
G1 X15.658 Y-17.100 F7200.000
G1 X15.644 Y-17.100
G1 X15.644 Y-16.900
G1 X14.958 Y-16.900
G1 X14.958 Y-16.121
G1 X18.931 Y-16.121
G1 X18.931 Y-16.900
G1 X15.658 Y-16.900
G22 ; retract
G1 X-8.800 Y-17.000 F9000.000
G23 ; unretract
M700 P0.055171
G1 X-8.800 Y-17.879 F7200.000
G1 X-22.057 Y-17.879
G1 X-21.880 Y-17.597
G1 X-22.005 Y-17.597
G1 X-22.005 Y-17.420
G1 X-21.804 Y-17.100
G1 X-9.500 Y-17.100
G1 X-9.500 Y-17.000
G1 X-8.800 Y-17.000
G22 ; retract
G1 X-14.237 Y-10.183 F9000.000
G23 ; unretract
M700 P0.055171
G1 X-14.541 Y-10.183 F7200.000
G1 X-14.541 Y-7.315
G1 X-14.237 Y-7.315
G1 X-14.237 Y-4.447
G1 X-14.541 Y-4.447
G1 X-14.541 Y-1.579
G1 X-14.237 Y-1.579
G1 X-14.237 Y1.288
G1 X-14.541 Y1.288
M700 P0.000000
G1 X-14.000 Y4.400 F9000.000
M700 P0.055171
G1 X-14.000 Y-12.900 F7200.000
G1 X-22.800 Y-12.900
G1 X-22.800 Y4.400
G1 X-14.000 Y4.400
G22 ; retract
G1 X-10.500 Y9.320 F9000.000
G23 ; unretract
M700 P0.055171
G1 X-10.500 Y9.100 F7200.000
G1 X-21.638 Y9.100
G1 X-21.779 Y9.690
G1 X-9.300 Y9.690
G1 X-9.300 Y9.320
G1 X-10.500 Y9.320
G22 ; retract
G1 X-22.543 Y1.288 F9000.000
G23 ; unretract
M700 P0.055171
G1 X-22.259 Y1.288 F7200.000
G1 X-22.259 Y-1.579
G1 X-22.543 Y-1.579
G1 X-22.543 Y-4.447
G1 X-22.259 Y-4.447
G1 X-22.259 Y-7.315
G1 X-22.543 Y-7.315
G1 X-22.543 Y-10.183
G1 X-22.259 Y-10.183
M700 P0.000000
G1 X-22.021 Y-12.121 F9000.000
M700 P0.055171
G1 X-14.779 Y-12.121 F7200.000
G1 X-14.779 Y3.621
G1 X-22.021 Y3.621
G1 X-22.021 Y-12.121
G22 ; retract
G1 X-27.200 Y-18.769 F9000.000
G23 ; unretract
M700 P0.055171
G1 X-27.200 Y-19.469 F7200.000
G1 X-27.979 Y-19.469
G1 X-27.979 Y-16.031
G1 X-27.675 Y-16.031
G1 X-27.675 Y8.031
G1 X-27.979 Y8.031
G1 X-27.979 Y11.469
G1 X-27.200 Y11.469
G1 X-27.200 Y-18.769
M700 P0.000000
G1 X-27.437 Y-18.786 F9000.000
M700 P0.055171
G1 X-27.721 Y-18.786 F7200.000
G22 ; retract
G1 X-27.721 Y9.892 F9000.000
G23 ; unretract
M700 P0.055171
G1 X-27.437 Y9.892 F7200.000
G22 ; retract
G1 X2.679 Y15.627 F9000.000
G23 ; unretract
M700 P0.055171
G1 X2.963 Y15.627 F7200.000
M700 P0.000000
G1 X3.200 Y17.300 F9000.000
M700 P0.055171
G1 X3.200 Y13.500 F7200.000
G1 X2.421 Y13.500
G1 X2.421 Y18.079
G1 X11.179 Y18.079
G1 X11.179 Y13.600
G1 X10.400 Y13.600
G1 X10.400 Y17.300
G1 X3.200 Y17.300
G22 ; retract
G1 X10.637 Y15.627 F9000.000
G23 ; unretract
M700 P0.055171
G1 X10.941 Y15.627 F7200.000
G22 ; retract
G1 X16.261 Y13.600 F9000.000
G23 ; unretract
M700 P0.055171
G1 X15.561 Y13.600 F7200.000
G1 X15.561 Y14.379
G1 X18.931 Y14.379
G1 X18.931 Y13.600
G1 X16.261 Y13.600
G22 ; retract
G1 X18.931 Y10.400 F9000.000
G23 ; unretract
M700 P0.055171
G1 X18.931 Y9.621 F7200.000
G1 X15.561 Y9.621
G1 X15.561 Y10.400
G1 X18.931 Y10.400
G22 ; retract
G1 X23.450 Y12.760 F9000.000
G23 ; unretract
M700 P0.055171
G1 X23.821 Y12.760 F7200.000
M700 P0.000000
G1 X24.058 Y14.379 F9000.000
M700 P0.055171
G1 X24.058 Y9.621 F7200.000
G1 X23.193 Y9.621
G1 X23.193 Y14.379
G1 X24.058 Y14.379
G22 ; retract
G1 Z2.000 F9000.000
G1 X-25.300 Y21.400 F9000.000
G23 ; unretract
M700 P0.055171
G1 X-26.400 Y21.400 F2400.000
G1 X-26.400 Y-21.400
G1 X-25.300 Y-21.400
G1 X-25.300 Y21.340
M700 P0.000000
G1 X-25.646 Y21.200 F9000.000
M700 P0.000000
G1 X-25.850 Y21.076 F9000.000
M700 P0.046171
G1 X-25.850 Y-21.076 F3600.000
M700 P0.148171
G1 X-25.850 Y21.076 F3600.000
G22 ; retract
G1 Z2.000 F9000.000
G1 X19.872 Y14.379 F9000.000
G23 ; unretract
M700 P0.055171
G1 X20.393 Y14.379 F7200.000
G1 X20.693 Y13.859
G1 X21.038 Y13.859
M700 P0.055171
G1 X20.773 Y13.400 F7200.000
G1 X20.300 Y13.400
G1 X20.472 Y13.699
G1 X20.172 Y14.219
G1 X19.872 Y14.219
G1 X19.872 Y14.379
M700 P0.000000
G1 X21.593 Y14.379 F9000.000
M700 P0.055171
G1 X22.193 Y14.379 F7200.000
G1 X22.295 Y14.201
G1 X22.193 Y14.024
G1 X22.493 Y13.504
G1 X22.793 Y13.504
M700 P0.000000
G1 X22.793 Y12.743 F9000.000
M700 P0.055171
G1 X22.493 Y12.743 F7200.000
G1 X22.193 Y12.224
G1 X22.493 Y11.704
G1 X22.793 Y11.704
M700 P0.000000
G1 X22.793 Y10.943 F9000.000
M700 P0.055171
G1 X22.493 Y10.943 F7200.000
G1 X22.193 Y10.424
G1 X22.493 Y9.904
G1 X22.793 Y9.904
M700 P0.000000
G1 X22.793 Y9.621 F9000.000
M700 P0.055171
G1 X22.395 Y9.621 F7200.000
G1 X22.095 Y10.141
G1 X21.495 Y10.141
G1 X21.195 Y9.621
G1 X20.595 Y9.621
G1 X20.330 Y10.080
G1 X20.871 Y10.080
G1 X21.171 Y10.600
G1 X21.372 Y10.600
G1 X21.372 Y11.079
G1 X21.672 Y11.079
G1 X21.972 Y11.599
G1 X21.672 Y12.119
G1 X21.372 Y12.119
G1 X21.372 Y12.879
G1 X21.672 Y12.879
G1 X21.972 Y13.399
G1 X21.672 Y13.919
G1 X21.327 Y13.919
G1 X21.593 Y14.379
G22 ; retract
G1 X19.872 Y10.600 F9000.000
G23 ; unretract
M700 P0.055171
G1 X19.971 Y10.600 F7200.000
G1 X20.236 Y10.141
G1 X19.872 Y10.141
G1 X19.872 Y10.600
G22 ; retract
G1 X19.872 Y-16.121 F9000.000
G23 ; unretract
M700 P0.055171
G1 X20.393 Y-16.121 F7200.000
G1 X20.693 Y-16.641
G1 X21.038 Y-16.641
M700 P0.055171
G1 X20.773 Y-17.100 F7200.000
G1 X20.300 Y-17.100
G1 X20.472 Y-16.801
G1 X20.172 Y-16.281
G1 X19.872 Y-16.281
G1 X19.872 Y-16.121
M700 P0.000000
G1 X21.593 Y-16.121 F9000.000
M700 P0.055171
G1 X22.193 Y-16.121 F7200.000
G1 X22.411 Y-16.499
G1 X22.193 Y-16.876
G1 X22.493 Y-17.396
G1 X22.793 Y-17.396
M700 P0.000000
G1 X22.793 Y-18.157 F9000.000
M700 P0.055171
G1 X22.493 Y-18.157 F7200.000
G1 X22.193 Y-18.676
G1 X22.493 Y-19.196
G1 X22.793 Y-19.196
M700 P0.000000
G1 X22.793 Y-19.957 F9000.000
M700 P0.055171
G1 X22.493 Y-19.957 F7200.000
G1 X22.193 Y-20.476
G1 X22.493 Y-20.996
G1 X22.793 Y-20.996
M700 P0.000000
G1 X22.793 Y-21.079 F9000.000
M700 P0.055171
G1 X22.195 Y-21.079 F7200.000
G1 X21.895 Y-20.559
G1 X21.295 Y-20.559
G1 X20.995 Y-21.079
G1 X20.428 Y-21.079
G1 X20.472 Y-21.001
G1 X20.172 Y-20.481
G1 X19.872 Y-20.481
G1 X19.872 Y-20.100
G1 X20.171 Y-20.100
G1 X20.471 Y-20.620
G1 X21.071 Y-20.620
G1 X21.372 Y-20.100
G1 X21.372 Y-19.421
G1 X21.672 Y-19.421
G1 X21.972 Y-18.901
G1 X21.672 Y-18.381
G1 X21.372 Y-18.381
G1 X21.372 Y-17.621
G1 X21.672 Y-17.621
G1 X21.972 Y-17.101
G1 X21.672 Y-16.581
G1 X21.327 Y-16.581
G1 X21.593 Y-16.121
G22 ; retract
G1 X24.058 Y-16.121 F9000.000
G23 ; unretract
M700 P0.055171
G1 X24.058 Y-21.079 F7200.000
G1 X23.574 Y-21.079
G1 X23.574 Y-16.121
G1 X24.058 Y-16.121
G22 ; retract
G1 X19.472 Y-20.300 F9000.000
G23 ; unretract
M700 P0.055171
G1 X19.472 Y-21.079 F7200.000
G1 X14.958 Y-21.079
G1 X14.958 Y-20.300
G1 X15.644 Y-20.300
G1 X15.644 Y-20.100
G1 X15.658 Y-20.100
G1 X15.658 Y-20.300
G1 X19.472 Y-20.300
G22 ; retract
G1 X15.658 Y-16.900 F9000.000
G23 ; unretract
M700 P0.055171
G1 X15.658 Y-17.100 F7200.000
G1 X15.644 Y-17.100
G1 X15.644 Y-16.900
G1 X14.958 Y-16.900
G1 X14.958 Y-16.121
G1 X19.472 Y-16.121
G1 X19.472 Y-16.900
G1 X15.658 Y-16.900
G22 ; retract
G1 X-8.800 Y-17.000 F9000.000
G23 ; unretract
M700 P0.055171
G1 X-8.800 Y-17.879 F7200.000
G1 X-22.057 Y-17.879
G1 X-21.568 Y-17.100
G1 X-9.100 Y-17.100
G1 X-9.100 Y-17.000
G1 X-8.800 Y-17.000
G22 ; retract
G1 X-14.237 Y-10.183 F9000.000
G23 ; unretract
M700 P0.055171
G1 X-14.541 Y-10.183 F7200.000
G1 X-14.541 Y-7.315
G1 X-14.237 Y-7.315
G1 X-14.237 Y-4.447
G1 X-14.541 Y-4.447
G1 X-14.541 Y-1.579
G1 X-14.237 Y-1.579
G1 X-14.237 Y1.288
G1 X-14.541 Y1.288
M700 P0.000000
G1 X-14.000 Y4.400 F9000.000
M700 P0.055171
G1 X-14.000 Y-12.900 F7200.000
G1 X-22.800 Y-12.900
G1 X-22.800 Y4.400
G1 X-14.000 Y4.400
G22 ; retract
G1 X-10.500 Y9.320 F9000.000
G23 ; unretract
M700 P0.055171
G1 X-10.500 Y9.100 F7200.000
G1 X-21.429 Y9.100
G1 X-21.573 Y9.690
G1 X-9.300 Y9.690
G1 X-9.300 Y9.320
G1 X-10.500 Y9.320
G22 ; retract
G1 X-22.543 Y1.288 F9000.000
G23 ; unretract
M700 P0.055171
G1 X-22.259 Y1.288 F7200.000
G1 X-22.259 Y-1.579
G1 X-22.543 Y-1.579
G1 X-22.543 Y-4.447
G1 X-22.259 Y-4.447
G1 X-22.259 Y-7.315
G1 X-22.543 Y-7.315
G1 X-22.543 Y-10.183
G1 X-22.259 Y-10.183
M700 P0.000000
G1 X-22.021 Y-12.121 F9000.000
M700 P0.055171
G1 X-14.779 Y-12.121 F7200.000
G1 X-14.779 Y3.621
G1 X-22.021 Y3.621
G1 X-22.021 Y-12.121
G22 ; retract
G1 X-27.200 Y-18.769 F9000.000
G23 ; unretract
M700 P0.055171
G1 X-27.200 Y-19.469 F7200.000
G1 X-27.979 Y-19.469
G1 X-27.979 Y-16.031
G1 X-27.675 Y-16.031
G1 X-27.675 Y8.031
G1 X-27.979 Y8.031
G1 X-27.979 Y11.469
G1 X-27.200 Y11.469
G1 X-27.200 Y-18.769
M700 P0.000000
G1 X-27.437 Y-18.786 F9000.000
M700 P0.055171
G1 X-27.721 Y-18.786 F7200.000
G22 ; retract
G1 X-27.721 Y9.892 F9000.000
G23 ; unretract
M700 P0.055171
G1 X-27.437 Y9.892 F7200.000
G22 ; retract
G1 X2.679 Y15.627 F9000.000
G23 ; unretract
M700 P0.055171
G1 X2.963 Y15.627 F7200.000
M700 P0.000000
G1 X3.200 Y17.300 F9000.000
M700 P0.055171
G1 X3.200 Y13.500 F7200.000
G1 X2.421 Y13.500
G1 X2.421 Y18.079
G1 X11.179 Y18.079
G1 X11.179 Y13.600
G1 X10.400 Y13.600
G1 X10.400 Y17.300
G1 X3.200 Y17.300
G22 ; retract
G1 X10.637 Y15.627 F9000.000
G23 ; unretract
M700 P0.055171
G1 X10.941 Y15.627 F7200.000
G22 ; retract
G1 X16.261 Y13.600 F9000.000
G23 ; unretract
M700 P0.055171
G1 X15.561 Y13.600 F7200.000
G1 X15.561 Y14.379
G1 X19.472 Y14.379
G1 X19.472 Y13.600
G1 X16.261 Y13.600
G22 ; retract
G1 X19.472 Y10.400 F9000.000
G23 ; unretract
M700 P0.055171
G1 X19.472 Y9.621 F7200.000
G1 X15.561 Y9.621
G1 X15.561 Y10.400
G1 X19.472 Y10.400
G22 ; retract
G1 X24.058 Y14.379 F9000.000
G23 ; unretract
M700 P0.055171
G1 X24.058 Y9.621 F7200.000
G1 X23.574 Y9.621
G1 X23.574 Y14.379
G1 X24.058 Y14.379
G22 ; retract
G1 Z2.150 F9000.000
G1 X-24.108 Y-14.208 F9000.000
G23 ; unretract
M700 P0.125664
G1 X-12.692 Y-14.208 F7200.000
G1 X-12.692 Y5.708
G1 X-24.108 Y5.708
G1 X-24.108 Y-14.148
M700 P0.000000
G1 X-23.600 Y-13.700 F9000.000
M700 P0.125664
G1 X-13.200 Y-13.700 F7200.000
G1 X-13.200 Y5.200
G1 X-23.600 Y5.200
G1 X-23.600 Y-13.640
M700 P0.000000
G1 X-8.608 Y-15.047 F9000.000
M700 P0.125664
G1 X-8.608 Y7.496 F7200.000
G1 X-8.228 Y7.729
G1 X-8.308 Y8.012
G1 X-9.192 Y8.012
G1 X-9.192 Y7.792
G1 X-22.456 Y7.792
G1 X-24.900 Y17.798
M700 P0.097171
G1 X-25.550 Y20.459 F4800.000
G1 X-25.892 Y20.418
G1 X-25.892 Y-20.892
G1 X-25.491 Y-20.892
G1 X-24.900 Y-19.950
M700 P0.125664
G1 X-22.291 Y-15.792 F7200.000
G1 X-10.408 Y-15.792
G1 X-10.408 Y-15.692
G1 X-7.958 Y-15.692
G1 X-7.889 Y-15.389
G1 X-8.554 Y-15.072
G22 ; retract
G1 X-8.800 Y7.720 F9000.000
G1 X18.523 Y12.000 F9000.000
G1 X18.969 Y12.292 F9000.000
G23 ; unretract
M700 P0.125664
G1 X18.231 Y12.292 F2880.000
G1 X18.231 Y11.708
G1 X18.969 Y11.708
G1 X18.969 Y12.232
G22 ; retract
G1 X18.677 Y12.000 F9000.000
G1 X18.677 Y12.000 F9000.000
G1 X18.969 Y-18.208 F9000.000
G23 ; unretract
M700 P0.125664
G1 X18.231 Y-18.208 F2880.000
G1 X18.231 Y-18.992
G1 X18.969 Y-18.992
G1 X18.969 Y-18.268
G22 ; retract
G1 X18.523 Y-18.500 F9000.000
G1 X18.523 Y-18.500 F9000.000
G1 X-8.100 Y-14.726 F9000.000
G23 ; unretract
M700 P0.125664
G1 X-8.100 Y7.212 F7200.000
G1 X-1.457 Y11.300
G1 X17.723 Y11.300
G1 X17.723 Y11.200
G1 X19.477 Y11.200
G1 X19.477 Y12.800
G1 X17.723 Y12.800
G1 X17.723 Y12.700
G1 X-1.341 Y12.700
G1 X-7.841 Y8.520
G1 X-9.700 Y8.520
G1 X-9.700 Y8.300
G1 X-22.057 Y8.300
G1 X-24.900 Y19.938
M700 P0.055171
G1 X-25.257 Y21.400 F2400.000
G1 X-26.400 Y21.400
G1 X-26.400 Y-21.400
G1 X-25.211 Y-21.400
G1 X-24.900 Y-20.905
M700 P0.125664
G1 X-22.011 Y-16.300 F7200.000
G1 X-9.900 Y-16.300
G1 X-9.900 Y-16.200
G1 X-7.855 Y-16.200
G1 X-1.355 Y-19.300
G1 X17.723 Y-19.300
G1 X17.723 Y-19.500
G1 X19.477 Y-19.500
G1 X19.477 Y-17.700
G1 X17.723 Y-17.700
G1 X17.723 Y-17.900
G1 X-1.445 Y-17.900
G1 X-8.046 Y-14.752
M700 P0.000000
G1 X-7.613 Y-15.637 F9000.000
M700 P0.046171
G1 X-1.682 Y-18.465 F3600.000
M700 P0.000000
G1 X-7.613 Y-15.637 F9000.000
M700 P0.148171
G1 X-1.643 Y-18.484 F3600.000
G1 X-1.196 Y-18.600
G1 X17.907 Y-18.600
G22 ; retract
G1 X-8.546 Y-15.400 F9000.000
G1 X-12.368 Y-15.000 F9000.000
G23 ; unretract
M700 P0.148171
G1 X-22.177 Y-15.000 F3600.000
M700 P0.000000
G1 X-23.344 Y-16.244 F9000.000
M700 P0.126542
G1 X-23.344 Y-14.796 F7200.000
G1 X-23.795 Y-14.796
G1 X-23.795 Y-16.964
G1 X-24.247 Y-17.683
G1 X-24.247 Y-14.796
G1 X-24.698 Y-14.796
G1 X-24.698 Y-18.403
G1 X-25.149 Y-18.498
G1 X-25.149 Y14.781
M700 P0.000000
G1 X-24.698 Y14.061 F9000.000
M700 P0.126542
G1 X-24.698 Y6.296 F7200.000
M700 P0.000000
G1 X-23.344 Y8.517 F9000.000
M700 P0.126542
G1 X-23.344 Y6.296 F7200.000
G1 X-22.892 Y6.296
G1 X-22.892 Y7.204
G1 X-22.441 Y7.204
G1 X-22.441 Y6.296
G1 X-21.990 Y6.296
G1 X-21.990 Y7.204
G1 X-21.538 Y7.204
G1 X-21.538 Y6.296
G1 X-21.087 Y6.296
G1 X-21.087 Y7.204
G1 X-20.635 Y7.204
G1 X-20.635 Y6.296
G1 X-20.184 Y6.296
G1 X-20.184 Y7.204
G1 X-19.733 Y7.204
G1 X-19.733 Y6.296
G1 X-19.281 Y6.296
G1 X-19.281 Y7.204
G1 X-18.830 Y7.204
G1 X-18.830 Y6.296
G1 X-18.378 Y6.296
G1 X-18.378 Y7.204
G1 X-17.927 Y7.204
G1 X-17.927 Y6.296
G1 X-17.476 Y6.296
G1 X-17.476 Y7.204
G1 X-17.024 Y7.204
G1 X-17.024 Y6.296
G1 X-16.573 Y6.296
G1 X-16.573 Y7.204
G1 X-16.122 Y7.204
G1 X-16.122 Y6.296
G1 X-15.670 Y6.296
G1 X-15.670 Y7.204
G1 X-15.219 Y7.204
G1 X-15.219 Y6.296
G1 X-14.767 Y6.296
G1 X-14.767 Y7.204
G1 X-14.316 Y7.204
G1 X-14.316 Y6.296
G1 X-13.865 Y6.296
G1 X-13.865 Y7.204
G1 X-13.413 Y7.204
G1 X-13.413 Y6.296
G1 X-12.962 Y6.296
G1 X-12.962 Y7.204
G1 X-12.510 Y7.204
G1 X-12.510 Y6.296
G1 X-12.059 Y6.296
G1 X-12.059 Y7.204
G1 X-11.608 Y7.204
G1 X-11.608 Y-15.204
G1 X-11.156 Y-15.204
G1 X-11.156 Y7.204
G1 X-10.705 Y7.204
G1 X-10.705 Y-15.104
G1 X-10.253 Y-15.104
G1 X-10.253 Y7.204
G1 X-9.802 Y7.204
G1 X-9.802 Y-15.104
G1 X-9.351 Y-15.104
G1 X-9.351 Y7.204
M700 P0.000000
G1 X-24.157 Y7.443 F9000.000
G1 X-23.795 Y10.365 F9000.000
M700 P0.126542
G1 X-23.795 Y6.296 F7200.000
G1 X-24.247 Y6.296
G1 X-24.247 Y12.213
M700 P0.000000
G1 X-22.685 Y7.500 F9000.000
G1 X-7.956 Y7.959 F9000.000
M700 P0.046171
G1 X-7.657 Y8.058 F3600.000
G1 X-1.587 Y11.877
M700 P0.000000
G1 X-4.457 Y10.071 F9000.000
M700 P0.148171
G1 X-1.671 Y11.824 F3600.000
G1 X-1.548 Y11.879
G1 X-1.136 Y12.000
G1 X17.907 Y12.000
G22 ; retract
G1 X-8.800 Y7.720 F9000.000
G1 X-8.900 Y7.659 F9000.000
G1 X-8.900 Y7.500 F9000.000
G1 X-24.157 Y7.443 F9000.000
G1 X-25.112 Y15.378 F9000.000
G23 ; unretract
M700 P0.148171
G1 X-25.389 Y17.677 F3600.000
M700 P0.000000
G1 X-25.269 Y16.682 F9000.000
M700 P0.046171
G1 X-25.550 Y19.020 F3600.000
M700 P0.000000
G1 X-25.193 Y-19.102 F9000.000
M700 P0.046171
G1 X-25.554 Y-20.354 F3600.000
G22 ; retract
G1 Z2.150 F9000.000
G1 X20.314 Y-16.121 F9000.000
G23 ; unretract
M700 P0.055171
G1 X20.774 Y-16.121 F7200.000
G1 X21.074 Y-16.641
G1 X21.674 Y-16.641
G1 X21.974 Y-16.121
M700 P0.055171
G1 X22.574 Y-16.121 F7200.000
G1 X22.757 Y-16.438
G1 X22.574 Y-16.755
G1 X22.874 Y-17.275
G1 X23.174 Y-17.275
M700 P0.000000
G1 X23.174 Y-18.036 F9000.000
M700 P0.055171
G1 X22.874 Y-18.036 F7200.000
G1 X22.574 Y-18.555
G1 X22.874 Y-19.075
G1 X23.174 Y-19.075
M700 P0.000000
G1 X23.174 Y-19.836 F9000.000
M700 P0.055171
G1 X22.874 Y-19.836 F7200.000
G1 X22.574 Y-20.355
G1 X22.874 Y-20.875
G1 X23.174 Y-20.875
M700 P0.000000
G1 X23.174 Y-21.079 F9000.000
M700 P0.055171
G1 X22.697 Y-21.079 F7200.000
G1 X22.397 Y-20.559
G1 X21.797 Y-20.559
G1 X21.497 Y-21.079
G1 X20.904 Y-21.079
G1 X20.914 Y-21.062
G1 X20.614 Y-20.542
G1 X20.314 Y-20.542
G1 X20.314 Y-20.100
G1 X20.552 Y-20.100
G1 X20.852 Y-20.620
G1 X21.452 Y-20.620
G1 X21.752 Y-20.100
G1 X21.814 Y-20.100
G1 X21.814 Y-19.481
G1 X22.114 Y-19.481
G1 X22.414 Y-18.962
G1 X22.114 Y-18.442
G1 X21.814 Y-18.442
G1 X21.814 Y-17.681
G1 X22.114 Y-17.681
G1 X22.414 Y-17.162
G1 X22.114 Y-16.642
G1 X21.514 Y-16.642
G1 X21.250 Y-17.100
G1 X20.777 Y-17.100
G1 X20.914 Y-16.862
G1 X20.614 Y-16.342
G1 X20.314 Y-16.342
G1 X20.314 Y-16.121
G22 ; retract
G1 X23.174 Y9.621 F9000.000
G23 ; unretract
M700 P0.055171
G1 X22.897 Y9.621 F7200.000
G1 X22.597 Y10.141
G1 X21.997 Y10.141
G1 X21.697 Y9.621
G1 X21.097 Y9.621
G1 X20.832 Y10.080
G1 X21.252 Y10.080
G1 X21.552 Y10.600
G1 X21.814 Y10.600
G1 X21.814 Y11.019
G1 X22.114 Y11.019
G1 X22.414 Y11.538
G1 X22.114 Y12.058
G1 X21.814 Y12.058
G1 X21.814 Y12.819
G1 X22.114 Y12.819
G1 X22.414 Y13.338
G1 X22.114 Y13.858
G1 X21.514 Y13.858
G1 X21.250 Y13.400
G1 X20.777 Y13.400
G1 X20.914 Y13.638
G1 X20.614 Y14.158
G1 X20.314 Y14.158
G1 X20.314 Y14.379
M700 P0.055171
G1 X20.774 Y14.379 F7200.000
G1 X21.074 Y13.859
G1 X21.674 Y13.859
G1 X21.974 Y14.379
M700 P0.055171
G1 X22.574 Y14.379 F7200.000
G1 X22.641 Y14.262
G1 X22.574 Y14.145
G1 X22.874 Y13.625
G1 X23.174 Y13.625
M700 P0.000000
G1 X23.174 Y12.864 F9000.000
M700 P0.055171
G1 X22.874 Y12.864 F7200.000
G1 X22.574 Y12.345
G1 X22.874 Y11.825
G1 X23.174 Y11.825
M700 P0.000000
G1 X23.174 Y11.064 F9000.000
M700 P0.055171
G1 X22.874 Y11.064 F7200.000
G1 X22.574 Y10.545
G1 X22.874 Y10.025
G1 X23.174 Y10.025
G22 ; retract
G1 X20.314 Y10.600 F9000.000
G23 ; unretract
M700 P0.055171
G1 X20.352 Y10.600 F7200.000
G1 X20.617 Y10.141
G1 X20.314 Y10.141
G1 X20.314 Y10.600
M700 P0.000000
G1 X19.914 Y10.400 F9000.000
M700 P0.055171
G1 X19.914 Y9.621 F7200.000
G1 X15.561 Y9.621
G1 X15.561 Y10.400
G1 X19.914 Y10.400
G22 ; retract
G1 X16.261 Y13.600 F9000.000
G23 ; unretract
M700 P0.055171
G1 X15.561 Y13.600 F7200.000
G1 X15.561 Y14.379
G1 X19.914 Y14.379
G1 X19.914 Y13.600
G1 X16.261 Y13.600
G22 ; retract
G1 X10.941 Y15.627 F9000.000
G23 ; unretract
M700 P0.055171
G1 X10.637 Y15.627 F7200.000
G22 ; retract
G1 X3.200 Y17.300 F9000.000
G23 ; unretract
M700 P0.055171
G1 X3.200 Y13.500 F7200.000
G1 X2.421 Y13.500
G1 X2.421 Y18.079
G1 X11.179 Y18.079
G1 X11.179 Y13.600
G1 X10.400 Y13.600
G1 X10.400 Y17.300
G1 X3.200 Y17.300
M700 P0.000000
G1 X2.963 Y15.627 F9000.000
M700 P0.055171
G1 X2.679 Y15.627 F7200.000
G22 ; retract
G1 X-10.500 Y9.320 F9000.000
G23 ; unretract
M700 P0.055171
G1 X-10.500 Y9.100 F7200.000
G1 X-21.429 Y9.100
G1 X-21.573 Y9.690
G1 X-9.300 Y9.690
G1 X-9.300 Y9.320
G1 X-10.500 Y9.320
G22 ; retract
G1 X-14.000 Y4.400 F9000.000
G23 ; unretract
M700 P0.055171
G1 X-14.000 Y-12.900 F7200.000
G1 X-22.800 Y-12.900
G1 X-22.800 Y4.400
G1 X-14.000 Y4.400
M700 P0.000000
G1 X-14.541 Y1.288 F9000.000
M700 P0.055171
G1 X-14.237 Y1.288 F7200.000
G1 X-14.237 Y-1.579
G1 X-14.541 Y-1.579
G1 X-14.541 Y-4.447
G1 X-14.237 Y-4.447
G1 X-14.237 Y-7.315
G1 X-14.541 Y-7.315
G1 X-14.541 Y-10.183
G1 X-14.237 Y-10.183
G22 ; retract
G1 X-22.259 Y-10.183 F9000.000
G23 ; unretract
M700 P0.055171
G1 X-22.543 Y-10.183 F7200.000
G1 X-22.543 Y-7.315
G1 X-22.259 Y-7.315
G1 X-22.259 Y-4.447
G1 X-22.543 Y-4.447
G1 X-22.543 Y-1.579
G1 X-22.259 Y-1.579
G1 X-22.259 Y1.288
G1 X-22.543 Y1.288
G22 ; retract
G1 X-27.437 Y9.892 F9000.000
G23 ; unretract
M700 P0.055171
G1 X-27.721 Y9.892 F7200.000
G22 ; retract
G1 X-22.021 Y-12.121 F9000.000
G23 ; unretract
M700 P0.055171
G1 X-14.779 Y-12.121 F7200.000
G1 X-14.779 Y3.621
G1 X-22.021 Y3.621
G1 X-22.021 Y-12.121
G22 ; retract
G1 X-27.200 Y-18.769 F9000.000
G23 ; unretract
M700 P0.055171
G1 X-27.200 Y-19.469 F7200.000
