; generated by Slic3r 1.2.7-dev on 2015-03-11 at 15:18:27

; external perimeters extrusion width = 0.40mm
; perimeters extrusion width = 0.68mm
; infill extrusion width = 2.52mm
; solid infill extrusion width = 0.68mm
; top infill extrusion width = 0.68mm

; external perimeters extrusion width = 0.40mm
; perimeters extrusion width = 0.68mm
; infill extrusion width = 2.52mm
; solid infill extrusion width = 0.68mm
; top infill extrusion width = 0.68mm

M190 P80 ; set bed temperature
M104 P220 ; set temperature
G28; move extruder to 0
M420 R0.0 E0.0 D0.0 P0.8 ; turn the lights on
M107; turn off fan
G64 P0.1  Q0.1 ; blend tolerance
M109 P220 ; wait for temperature to be reached
G21 ; set units to millimeters
G90 ; use absolute coordinates
G22 ; retract
G1 Z0.350 F9000.000
G1 X18.417 Y-18.417 F9000.000
G23 ; unretract
M700 P0.157461
G1 X33.124 Y-3.709 F3600.000
G1 X33.978 Y-2.298
G1 X34.135 Y-1.270
G1 X34.135 Y1.270
G1 X33.741 Y2.871
G1 X33.124 Y3.709
G1 X3.709 Y33.124
G1 X2.298 Y33.978
G1 X1.270 Y34.135
G1 X-1.270 Y34.135
G1 X-2.871 Y33.741
G1 X-3.709 Y33.124
G1 X-33.124 Y3.709
G1 X-33.978 Y2.298
G1 X-34.135 Y1.270
G1 X-34.135 Y-1.270
G1 X-33.741 Y-2.871
G1 X-33.124 Y-3.709
G1 X-3.709 Y-33.124
G1 X-2.298 Y-33.978
G1 X-1.270 Y-34.135
G1 X1.270 Y-34.135
G1 X2.871 Y-33.741
M700 P0.157461
G1 X3.709 Y-33.124 F3600.000
G1 X18.375 Y-18.459
G22 ; retract
G1 X-1.008 Y-30.423 F9000.000
G23 ; unretract
M700 P0.157461
G1 X1.008 Y-30.423 F1200.000
G1 X1.008 Y-11.602
G1 X1.062 Y-10.585
G1 X1.205 Y-9.666
G1 X1.501 Y-8.553
G1 X1.707 Y-8.009
G1 X2.151 Y-7.045
G1 X2.469 Y-6.509
G1 X2.840 Y-5.961
G1 X3.329 Y-5.366
G1 X4.466 Y-4.237
G1 X5.223 Y-3.450
G1 X5.677 Y-3.062
G1 X6.375 Y-2.552
G1 X7.158 Y-2.091
G1 X7.926 Y-1.738
G1 X8.095 Y-1.664
G1 X8.973 Y-1.371
G1 X9.746 Y-1.189
G1 X10.654 Y-1.055
G1 X11.603 Y-1.008
G1 X30.422 Y-1.008
G1 X30.422 Y1.008
G1 X11.602 Y1.008
G1 X10.585 Y1.062
G1 X9.666 Y1.204
G1 X8.667 Y1.464
G1 X8.013 Y1.705
G1 X7.043 Y2.153
G1 X6.509 Y2.469
G1 X5.961 Y2.840
G1 X5.249 Y3.426
G1 X4.465 Y4.238
G1 X3.331 Y5.362
G1 X2.928 Y5.846
G1 X2.551 Y6.377
G1 X2.091 Y7.157
G1 X1.665 Y8.093
G1 X1.371 Y8.974
G1 X1.160 Y9.904
G1 X1.055 Y10.655
G1 X1.008 Y11.603
G1 X1.008 Y30.422
G1 X-1.008 Y30.422
G1 X-1.008 Y11.602
G1 X-1.062 Y10.584
G1 X-1.253 Y9.437
G1 X-1.465 Y8.665
G1 X-1.706 Y8.011
G1 X-2.151 Y7.045
G1 X-2.469 Y6.509
G1 X-2.840 Y5.961
G1 X-3.331 Y5.363
G1 X-4.465 Y4.238
G1 X-5.224 Y3.449
G1 X-5.846 Y2.928
G1 X-6.377 Y2.551
G1 X-7.157 Y2.092
G1 X-8.093 Y1.665
G1 X-8.974 Y1.371
G1 X-9.904 Y1.160
G1 X-10.655 Y1.055
G1 X-11.603 Y1.008
G1 X-30.423 Y1.008
G1 X-30.423 Y-1.008
G1 X-11.602 Y-1.008
G1 X-10.585 Y-1.062
G1 X-9.666 Y-1.204
G1 X-8.667 Y-1.464
G1 X-8.013 Y-1.705
G1 X-7.043 Y-2.153
G1 X-6.509 Y-2.469
G1 X-5.961 Y-2.840
G1 X-5.249 Y-3.426
G1 X-4.465 Y-4.238
G1 X-3.331 Y-5.362
G1 X-2.928 Y-5.846
G1 X-2.551 Y-6.377
G1 X-2.092 Y-7.157
G1 X-1.665 Y-8.093
G1 X-1.371 Y-8.974
G1 X-1.160 Y-9.904
G1 X-1.055 Y-10.655
G1 X-1.008 Y-11.603
G1 X-1.008 Y-30.363
G22 ; retract
G1 X0.852 Y-9.656 F9000.000
G23 ; unretract
M700 P0.157664
G1 X0.617 Y-9.891 F3600.000
G1 X-0.020 Y-9.891
G1 X1.057 Y-8.814
G1 X1.357 Y-7.876
G1 X-0.657 Y-9.891
G1 X-0.923 Y-9.520
G1 X1.893 Y-6.703
M700 P0.000000
G1 X-1.356 Y-8.042 F9000.000
M700 P0.157664
G1 X8.049 Y1.364 F3600.000
G1 X7.602 Y1.554
G1 X-1.555 Y-7.603
G1 X-1.754 Y-7.165
G1 X7.166 Y1.755
G1 X6.751 Y1.978
G1 X-1.981 Y-6.755
G1 X-2.217 Y-6.354
G1 X6.352 Y2.215
G1 X5.973 Y2.473
G1 X-2.474 Y-5.973
G1 X-2.744 Y-5.606
G1 X5.609 Y2.747
G1 X5.260 Y3.034
G1 X-3.033 Y-5.259
G1 X-3.345 Y-4.933
G1 X4.925 Y3.337
G1 X4.612 Y3.661
G1 X-3.665 Y-4.616
G1 X-3.985 Y-4.299
G1 X4.299 Y3.985
G1 X3.980 Y4.303
G1 X-4.303 Y-3.981
G1 X-4.616 Y-3.657
G1 X3.661 Y4.620
G1 X3.341 Y4.937
G1 X-4.929 Y-3.333
G1 X-5.264 Y-3.031
G1 X3.029 Y5.263
G1 X2.740 Y5.611
G1 X-5.614 Y-2.743
G1 X-5.977 Y-2.469
G1 X2.470 Y5.978
G1 X2.214 Y6.359
G1 X-6.357 Y-2.212
G1 X-6.757 Y-1.974
G1 X1.978 Y6.760
G1 X1.752 Y7.171
G1 X-7.172 Y-1.753
G1 X-7.608 Y-1.551
G1 X1.552 Y7.609
G1 X1.354 Y8.048
G1 X-8.055 Y-1.362
G1 X-8.521 Y-1.191
G1 X1.195 Y8.525
G1 X1.040 Y9.007
G1 X-9.017 Y-1.050
G1 X-9.522 Y-0.918
G1 X-6.708 Y1.896
M700 P0.000000
G1 X-7.902 Y1.339 F9000.000
M700 P0.157664
G1 X-9.891 Y-0.649 F3600.000
G1 X-9.891 Y-0.012
G1 X-8.845 Y1.033
G1 X-9.669 Y0.846
G1 X-9.891 Y0.625
M700 P0.000000
G1 X-5.204 Y2.496 F9000.000
G1 X-0.001 Y1.428 F9000.000
G1 X-3.079 Y4.559 F9000.000
G1 X-1.882 Y6.723 F9000.000
M700 P0.157664
G1 X0.922 Y9.526 F3600.000
G1 X0.649 Y9.891
G1 X-1.354 Y7.888
G1 X-1.041 Y8.837
G1 X0.012 Y9.891
G1 X-0.625 Y9.891
G1 X-0.860 Y9.655
M700 P0.000000
G1 X-1.028 Y7.718 F9000.000
G1 X3.538 Y4.108 F9000.000
G1 X8.515 Y1.193 F9000.000
M700 P0.157664
G1 X-1.197 Y-8.519 F3600.000
G1 X-1.041 Y-9.000
G1 X9.010 Y1.051
G1 X9.516 Y0.920
G1 X6.692 Y-1.904
M700 P0.000000
G1 X7.890 Y-1.343 F9000.000
M700 P0.157664
G1 X9.891 Y0.657 F3600.000
G1 X9.891 Y0.020
G1 X8.835 Y-1.035
G1 X9.658 Y-0.849
G1 X9.891 Y-0.617
M700 P0.000000
G1 X10.109 Y0.547 F9000.000
M700 P0.162164
G1 X10.338 Y0.775 F3600.000
G1 X10.931 Y0.713
G1 X10.109 Y-0.108
G1 X10.122 Y-0.751
G1 X11.553 Y0.680
G1 X12.201 Y0.673
G1 X10.822 Y-0.707
G1 X11.510 Y-0.673
G1 X12.857 Y0.673
G1 X13.512 Y0.673
G1 X12.166 Y-0.673
G1 X12.821 Y-0.673
G1 X14.167 Y0.673
G1 X14.822 Y0.673
G1 X13.476 Y-0.673
G1 X14.131 Y-0.673
G1 X15.478 Y0.673
G1 X16.133 Y0.673
G1 X14.787 Y-0.673
G1 X15.442 Y-0.673
G1 X16.788 Y0.673
G1 X17.443 Y0.673
G1 X16.097 Y-0.673
G1 X16.752 Y-0.673
G1 X18.099 Y0.673
G1 X18.754 Y0.673
G1 X17.408 Y-0.673
G1 X18.063 Y-0.673
G1 X19.409 Y0.673
G1 X20.064 Y0.673
G1 X18.718 Y-0.673
G1 X19.373 Y-0.673
G1 X20.720 Y0.673
G1 X21.375 Y0.673
G1 X20.029 Y-0.673
G1 X20.684 Y-0.673
G1 X22.030 Y0.673
G1 X22.685 Y0.673
G1 X21.339 Y-0.673
G1 X21.994 Y-0.673
G1 X23.340 Y0.673
G1 X23.996 Y0.673
G1 X22.650 Y-0.673
G1 X23.305 Y-0.673
G1 X24.651 Y0.673
G1 X25.306 Y0.673
G1 X23.960 Y-0.673
G1 X24.615 Y-0.673
G1 X25.961 Y0.673
G1 X26.617 Y0.673
G1 X25.271 Y-0.673
G1 X25.926 Y-0.673
G1 X27.272 Y0.673
G1 X27.927 Y0.673
G1 X26.581 Y-0.673
G1 X27.236 Y-0.673
G1 X28.582 Y0.673
G1 X29.238 Y0.673
G1 X27.891 Y-0.673
G1 X28.547 Y-0.673
G1 X29.893 Y0.673
G1 X30.088 Y0.213
G1 X29.202 Y-0.673
G1 X29.857 Y-0.673
G1 X30.088 Y-0.442
G22 ; retract
G1 X11.586 Y-0.270 F9000.000
G1 X1.487 Y0.002 F9000.000
G1 X4.614 Y3.024 F9000.000
G1 X0.774 Y10.338 F9000.000
G23 ; unretract
M700 P0.162152
G1 X0.545 Y10.109 F3600.000
G1 X-0.110 Y10.109
G1 X0.711 Y10.930
G1 X0.680 Y11.554
G1 X-0.753 Y10.122
G1 X-0.709 Y10.821
G1 X0.673 Y12.203
G1 X0.673 Y12.858
G1 X-0.673 Y11.512
G1 X-0.673 Y12.167
G1 X0.673 Y13.513
G1 X0.673 Y14.168
G1 X-0.673 Y12.822
G1 X-0.673 Y13.477
G1 X0.673 Y14.824
G1 X0.673 Y15.479
G1 X-0.673 Y14.133
G1 X-0.673 Y14.788
G1 X0.673 Y16.134
G1 X0.673 Y16.789
G1 X-0.673 Y15.443
G1 X-0.673 Y16.098
G1 X0.673 Y17.444
G1 X0.673 Y18.100
G1 X-0.673 Y16.753
G1 X-0.673 Y17.409
G1 X0.673 Y18.755
G1 X0.673 Y19.410
G1 X-0.673 Y18.064
G1 X-0.673 Y18.719
G1 X0.673 Y20.065
G1 X0.673 Y20.720
G1 X-0.673 Y19.374
G1 X-0.673 Y20.029
G1 X0.673 Y21.375
G1 X0.673 Y22.031
G1 X-0.673 Y20.685
G1 X-0.673 Y21.340
G1 X0.673 Y22.686
G1 X0.673 Y23.341
G1 X-0.673 Y21.995
G1 X-0.673 Y22.650
G1 X0.673 Y23.996
G1 X0.673 Y24.651
G1 X-0.673 Y23.305
G1 X-0.673 Y23.960
G1 X0.673 Y25.307
G1 X0.673 Y25.962
G1 X-0.673 Y24.616
G1 X-0.673 Y25.271
G1 X0.673 Y26.617
G1 X0.673 Y27.272
G1 X-0.673 Y25.926
G1 X-0.673 Y26.581
G1 X0.673 Y27.927
G1 X0.673 Y28.583
G1 X-0.673 Y27.236
G1 X-0.673 Y27.892
G1 X0.673 Y29.238
G1 X0.673 Y29.893
G1 X-0.673 Y28.547
G1 X-0.673 Y29.202
G1 X0.213 Y30.088
G1 X-0.442 Y30.088
G1 X-0.673 Y29.857
G22 ; retract
G1 X-0.270 Y11.584 F9000.000
G1 X-0.492 Y0.000 F9000.000
G1 X-7.718 Y-1.028 F9000.000
G1 X-10.109 Y-0.547 F9000.000
G23 ; unretract
M700 P0.162164
G1 X-10.338 Y-0.775 F3600.000
G1 X-10.931 Y-0.713
G1 X-10.109 Y0.108
G1 X-10.123 Y0.750
G1 X-11.553 Y-0.680
G1 X-12.201 Y-0.673
G1 X-10.822 Y0.707
G1 X-11.510 Y0.673
G1 X-12.857 Y-0.673
G1 X-13.512 Y-0.673
G1 X-12.166 Y0.673
G1 X-12.821 Y0.673
G1 X-14.167 Y-0.673
G1 X-14.822 Y-0.673
G1 X-13.476 Y0.673
G1 X-14.131 Y0.673
G1 X-15.478 Y-0.673
G1 X-16.133 Y-0.673
G1 X-14.787 Y0.673
G1 X-15.442 Y0.673
G1 X-16.788 Y-0.673
G1 X-17.443 Y-0.673
G1 X-16.097 Y0.673
G1 X-16.752 Y0.673
G1 X-18.099 Y-0.673
G1 X-18.754 Y-0.673
G1 X-17.408 Y0.673
G1 X-18.063 Y0.673
G1 X-19.409 Y-0.673
G1 X-20.064 Y-0.673
G1 X-18.718 Y0.673
G1 X-19.373 Y0.673
G1 X-20.720 Y-0.673
G1 X-21.375 Y-0.673
G1 X-20.029 Y0.673
G1 X-20.684 Y0.673
G1 X-22.030 Y-0.673
G1 X-22.685 Y-0.673
G1 X-21.339 Y0.673
G1 X-21.994 Y0.673
G1 X-23.340 Y-0.673
G1 X-23.996 Y-0.673
G1 X-22.650 Y0.673
G1 X-23.305 Y0.673
G1 X-24.651 Y-0.673
G1 X-25.306 Y-0.673
G1 X-23.960 Y0.673
G1 X-24.615 Y0.673
G1 X-25.961 Y-0.673
G1 X-26.617 Y-0.673
G1 X-25.271 Y0.673
G1 X-25.926 Y0.673
G1 X-27.272 Y-0.673
G1 X-27.927 Y-0.673
G1 X-26.581 Y0.673
G1 X-27.236 Y0.673
G1 X-28.582 Y-0.673
G1 X-29.238 Y-0.673
G1 X-27.891 Y0.673
G1 X-28.547 Y0.673
G1 X-29.893 Y-0.673
G1 X-30.088 Y-0.213
G1 X-29.202 Y0.673
G1 X-29.857 Y0.673
G1 X-30.088 Y0.442
G22 ; retract
G1 X-11.586 Y0.270 F9000.000
G1 X-1.487 Y-0.002 F9000.000
G1 X-4.614 Y-3.024 F9000.000
G1 X-0.774 Y-10.338 F9000.000
G23 ; unretract
M700 P0.162152
G1 X-0.545 Y-10.109 F3600.000
G1 X0.110 Y-10.109
G1 X-0.711 Y-10.930
G1 X-0.680 Y-11.554
G1 X0.751 Y-10.123
G1 X0.709 Y-10.821
G1 X-0.673 Y-12.203
G1 X-0.673 Y-12.858
G1 X0.673 Y-11.512
G1 X0.673 Y-12.167
G1 X-0.673 Y-13.513
G1 X-0.673 Y-14.168
G1 X0.673 Y-12.822
G1 X0.673 Y-13.477
G1 X-0.673 Y-14.824
G1 X-0.673 Y-15.479
G1 X0.673 Y-14.133
G1 X0.673 Y-14.788
G1 X-0.673 Y-16.134
G1 X-0.673 Y-16.789
G1 X0.673 Y-15.443
G1 X0.673 Y-16.098
G1 X-0.673 Y-17.444
G1 X-0.673 Y-18.099
G1 X0.673 Y-16.753
G1 X0.673 Y-17.409
G1 X-0.673 Y-18.755
G1 X-0.673 Y-19.410
G1 X0.673 Y-18.064
G1 X0.673 Y-18.719
G1 X-0.673 Y-20.065
G1 X-0.673 Y-20.720
G1 X0.673 Y-19.374
G1 X0.673 Y-20.029
G1 X-0.673 Y-21.375
G1 X-0.673 Y-22.031
G1 X0.673 Y-20.684
G1 X0.673 Y-21.340
G1 X-0.673 Y-22.686
G1 X-0.673 Y-23.341
G1 X0.673 Y-21.995
G1 X0.673 Y-22.650
G1 X-0.673 Y-23.996
G1 X-0.673 Y-24.651
G1 X0.673 Y-23.305
G1 X0.673 Y-23.960
G1 X-0.673 Y-25.307
G1 X-0.673 Y-25.962
G1 X0.673 Y-24.616
G1 X0.673 Y-25.271
G1 X-0.673 Y-26.617
G1 X-0.673 Y-27.272
G1 X0.673 Y-25.926
G1 X0.673 Y-26.581
G1 X-0.673 Y-27.927
G1 X-0.673 Y-28.583
G1 X0.673 Y-27.236
G1 X0.673 Y-27.892
G1 X-0.673 Y-29.238
G1 X-0.673 Y-29.893
G1 X0.673 Y-28.547
G1 X0.673 Y-29.202
G1 X-0.213 Y-30.088
G1 X0.442 Y-30.088
G1 X0.673 Y-29.857
M106 P255
M104 P215 ; set temperature
G22 ; retract
G1 Z0.400 F9000.000
M700 P0.000000
G1 X-1.070 Y-30.485 F9000.000
G23 ; unretract
M700 P0.019463
G1 X1.070 Y-30.485 F2400.000
G1 X1.070 Y-11.700
G1 X1.148 Y-10.518
G1 X1.322 Y-9.516
G1 X1.503 Y-8.859
G1 X1.761 Y-8.139
G1 X2.165 Y-7.254
G1 X2.604 Y-6.521
G1 X2.844 Y-6.167
G1 X3.396 Y-5.489
G1 X4.566 Y-4.335
G1 X5.379 Y-3.489
G1 X5.732 Y-3.187
G1 X6.433 Y-2.659
G1 X7.254 Y-2.166
G1 X8.211 Y-1.725
G1 X9.121 Y-1.423
G1 X9.780 Y-1.268
G1 X10.703 Y-1.123
G1 X11.701 Y-1.070
G1 X30.485 Y-1.070
G1 X30.485 Y1.070
G1 X11.701 Y1.070
G1 X10.649 Y1.128
G1 X9.516 Y1.322
G1 X8.859 Y1.503
G1 X8.139 Y1.761
G1 X7.254 Y2.165
G1 X6.521 Y2.604
G1 X6.166 Y2.844
G1 X5.399 Y3.470
G1 X4.566 Y4.335
G1 X3.395 Y5.488
G1 X2.901 Y6.092
G1 X2.657 Y6.436
G1 X2.166 Y7.254
G1 X1.725 Y8.211
G1 X1.422 Y9.123
G1 X1.206 Y10.116
G1 X1.123 Y10.705
G1 X1.070 Y11.701
G1 X1.070 Y30.485
G1 X-1.070 Y30.485
G1 X-1.070 Y11.701
G1 X-1.128 Y10.649
G1 X-1.322 Y9.516
G1 X-1.503 Y8.859
G1 X-1.761 Y8.139
G1 X-2.165 Y7.254
G1 X-2.604 Y6.521
G1 X-2.844 Y6.167
G1 X-3.396 Y5.489
G1 X-4.566 Y4.335
G1 X-5.381 Y3.487
G1 X-6.092 Y2.901
G1 X-6.436 Y2.657
G1 X-7.254 Y2.166
G1 X-8.211 Y1.725
G1 X-9.121 Y1.423
G1 X-9.780 Y1.268
G1 X-10.703 Y1.123
G1 X-11.701 Y1.070
G1 X-30.485 Y1.070
G1 X-30.485 Y-1.070
G1 X-11.701 Y-1.070
G1 X-10.649 Y-1.128
G1 X-9.516 Y-1.322
G1 X-8.859 Y-1.503
G1 X-8.139 Y-1.761
G1 X-7.254 Y-2.165
G1 X-6.521 Y-2.604
G1 X-6.166 Y-2.844
G1 X-5.399 Y-3.470
G1 X-4.566 Y-4.335
G1 X-3.395 Y-5.488
G1 X-2.901 Y-6.092
G1 X-2.657 Y-6.436
G1 X-2.166 Y-7.254
G1 X-1.725 Y-8.211
G1 X-1.422 Y-9.123
G1 X-1.206 Y-10.116
G1 X-1.123 Y-10.705
G1 X-1.070 Y-11.701
G1 X-1.070 Y-30.425
G22 ; retract
G1 X0.142 Y-8.725 F9000.000
G23 ; unretract
M700 P0.033718
G1 X-0.171 Y-8.412 F7200.000
G1 X0.399 Y-8.028
G1 X-0.772 Y-6.857
M700 P0.000000
G1 X-6.855 Y-0.774 F9000.000
M700 P0.033718
G1 X-8.024 Y0.395 F7200.000
G1 X-7.351 Y0.676
G1 X0.677 Y-7.353
G1 X0.976 Y-6.698
G1 X-6.698 Y0.976
G1 X-6.102 Y1.334
G1 X1.333 Y-6.101
G1 X1.706 Y-5.521
G1 X-5.522 Y1.707
G1 X-4.987 Y2.126
G1 X2.126 Y-4.987
G1 X2.570 Y-4.477
G1 X-4.468 Y2.560
G1 X-4.001 Y3.047
G1 X3.050 Y-4.004
G1 X3.530 Y-3.530
G1 X-3.530 Y3.530
G1 X-3.050 Y4.004
G1 X4.001 Y-3.047
G1 X4.468 Y-2.560
G1 X-2.570 Y4.477
G1 X-2.126 Y4.987
G1 X4.983 Y-2.121
G1 X5.526 Y-1.711
G1 X-1.706 Y5.521
G1 X-1.333 Y6.101
G1 X6.102 Y-1.334
G1 X6.698 Y-0.976
G1 X-0.976 Y6.698
G1 X-0.677 Y7.353
G1 X7.351 Y-0.676
M700 P0.000000
G1 X8.412 Y0.172 F9000.000
M700 P0.033718
G1 X8.725 Y-0.142 F7200.000
G1 X8.024 Y-0.395
G1 X6.855 Y0.774
M700 P0.000000
G1 X0.772 Y6.857 F9000.000
M700 P0.033718
G1 X-0.399 Y8.028 F7200.000
G1 X0.171 Y8.412
G1 X-0.142 Y8.725
M700 P0.000000
G1 X-8.725 Y0.142 F9000.000
M700 P0.033718
G1 X-8.412 Y-0.172 F7200.000
G22 ; retract
G1 Z0.450 F9000.000
G1 X-1.070 Y-30.485 F9000.000
G23 ; unretract
M700 P0.019463
G1 X1.070 Y-30.485 F2400.000
G1 X1.070 Y-11.724
G1 X1.148 Y-10.541
G1 X1.324 Y-9.532
G1 X1.497 Y-8.903
G1 X1.761 Y-8.165
G1 X2.168 Y-7.275
G1 X2.625 Y-6.516
G1 X2.833 Y-6.209
G1 X3.400 Y-5.510
G1 X4.580 Y-4.349
G1 X5.408 Y-3.487
G1 X5.736 Y-3.206
G1 X6.439 Y-2.672
G1 X7.275 Y-2.168
G1 X8.235 Y-1.726
G1 X9.154 Y-1.421
G1 X9.785 Y-1.272
G1 X10.714 Y-1.125
G1 X11.725 Y-1.070
G1 X30.485 Y-1.070
G1 X30.485 Y1.070
G1 X11.725 Y1.070
G1 X10.663 Y1.130
G1 X9.532 Y1.324
G1 X8.903 Y1.497
G1 X8.165 Y1.761
G1 X7.275 Y2.168
G1 X6.516 Y2.625
G1 X6.208 Y2.833
G1 X5.426 Y3.469
G1 X4.581 Y4.349
G1 X3.400 Y5.509
G1 X2.882 Y6.144
G1 X2.671 Y6.442
G1 X2.168 Y7.275
G1 X1.726 Y8.235
G1 X1.420 Y9.156
G1 X1.202 Y10.166
G1 X1.125 Y10.716
G1 X1.070 Y11.725
G1 X1.070 Y30.485
G1 X-1.070 Y30.485
G1 X-1.070 Y11.725
G1 X-1.130 Y10.663
G1 X-1.324 Y9.533
G1 X-1.497 Y8.903
G1 X-1.761 Y8.165
G1 X-2.168 Y7.275
G1 X-2.625 Y6.516
G1 X-2.833 Y6.209
G1 X-3.400 Y5.510
G1 X-4.580 Y4.349
G1 X-5.409 Y3.486
G1 X-6.144 Y2.882
G1 X-6.442 Y2.671
G1 X-7.275 Y2.168
G1 X-8.235 Y1.726
G1 X-9.154 Y1.421
G1 X-9.785 Y1.272
G1 X-10.714 Y1.125
G1 X-11.725 Y1.070
G1 X-30.485 Y1.070
G1 X-30.485 Y-1.070
G1 X-11.725 Y-1.070
G1 X-10.663 Y-1.130
G1 X-9.533 Y-1.324
G1 X-8.903 Y-1.497
G1 X-8.165 Y-1.761
G1 X-7.275 Y-2.168
G1 X-6.516 Y-2.625
G1 X-6.208 Y-2.833
G1 X-5.426 Y-3.469
G1 X-4.581 Y-4.349
G1 X-3.400 Y-5.509
G1 X-2.882 Y-6.144
G1 X-2.671 Y-6.442
G1 X-2.168 Y-7.275
G1 X-1.726 Y-8.235
G1 X-1.420 Y-9.156
G1 X-1.202 Y-10.166
G1 X-1.125 Y-10.716
G1 X-1.070 Y-11.725
G1 X-1.070 Y-30.425
G22 ; retract
G1 X0.171 Y-8.437 F9000.000
G23 ; unretract
M700 P0.033815
G1 X-0.142 Y-8.750 F7200.000
G1 X-0.368 Y-8.020
G1 X0.756 Y-6.896
M700 P0.000000
G1 X-0.669 Y-7.365 F9000.000
M700 P0.033815
G1 X7.366 Y0.671 F7200.000
G1 X8.022 Y0.371
G1 X6.898 Y-0.753
M700 P0.000000
G1 X8.436 Y-0.172 F9000.000
M700 P0.033815
G1 X8.750 Y0.142 F7200.000
M700 P0.000000
G1 X6.709 Y0.971 F9000.000
M700 P0.033815
G1 X-0.971 Y-6.710 F7200.000
G1 X-1.328 Y-6.111
G1 X6.110 Y1.327
G1 X5.528 Y1.702
G1 X-1.703 Y-5.529
G1 X-2.121 Y-4.990
G1 X4.992 Y2.123
G1 X4.472 Y2.559
G1 X-2.567 Y-4.479
G1 X-3.048 Y-4.005
G1 X4.002 Y3.046
G1 X3.530 Y3.530
G1 X-3.530 Y-3.530
G1 X-4.002 Y-3.046
G1 X3.048 Y4.005
G1 X2.566 Y4.479
G1 X-4.472 Y-2.559
G1 X-4.992 Y-2.123
G1 X2.121 Y4.990
G1 X1.703 Y5.529
G1 X-5.528 Y-1.702
G1 X-6.110 Y-1.327
G1 X1.328 Y6.111
G1 X0.971 Y6.710
G1 X-6.709 Y-0.971
G1 X-7.366 Y-0.671
G1 X0.669 Y7.365
G1 X0.368 Y8.020
G1 X-0.756 Y6.896
M700 P0.000000
G1 X-0.171 Y8.437 F9000.000
M700 P0.033815
G1 X0.142 Y8.750 F7200.000
M700 P0.000000
G1 X-6.898 Y0.753 F9000.000
M700 P0.033815
G1 X-8.022 Y-0.371 F7200.000
G1 X-8.436 Y0.172
G1 X-8.750 Y-0.142
G22 ; retract
G1 Z0.500 F9000.000
G1 X-1.070 Y-30.485 F9000.000
G23 ; unretract
M700 P0.019463
G1 X1.070 Y-30.485 F2400.000
G1 X1.070 Y-11.749
G1 X1.148 Y-10.565
G1 X1.326 Y-9.549
G1 X1.492 Y-8.947
G1 X1.760 Y-8.191
G1 X2.170 Y-7.295
G1 X2.819 Y-6.254
G1 X3.405 Y-5.530
G1 X4.595 Y-4.362
G1 X5.436 Y-3.485
G1 X5.741 Y-3.225
G1 X6.445 Y-2.686
G1 X7.296 Y-2.170
G1 X8.258 Y-1.726
G1 X9.187 Y-1.418
G1 X9.790 Y-1.276
G1 X10.725 Y-1.126
G1 X11.750 Y-1.070
G1 X30.485 Y-1.070
G1 X30.485 Y1.070
G1 X11.750 Y1.070
G1 X10.677 Y1.131
G1 X9.549 Y1.326
G1 X8.947 Y1.492
G1 X8.191 Y1.760
G1 X7.296 Y2.170
G1 X6.250 Y2.821
G1 X5.454 Y3.469
G1 X4.595 Y4.362
G1 X3.405 Y5.530
G1 X2.863 Y6.196
G1 X2.684 Y6.448
G1 X2.170 Y7.296
G1 X1.726 Y8.259
G1 X1.418 Y9.187
G1 X1.276 Y9.790
G1 X1.126 Y10.725
G1 X1.070 Y11.750
G1 X1.070 Y30.485
G1 X-1.070 Y30.485
G1 X-1.070 Y11.750
G1 X-1.131 Y10.677
G1 X-1.326 Y9.549
G1 X-1.492 Y8.947
G1 X-1.760 Y8.191
G1 X-2.170 Y7.296
G1 X-2.645 Y6.510
G1 X-2.821 Y6.251
G1 X-3.405 Y5.530
G1 X-4.595 Y4.362
G1 X-5.437 Y3.484
G1 X-6.196 Y2.863
G1 X-6.448 Y2.684
G1 X-7.296 Y2.170
G1 X-8.258 Y1.726
G1 X-9.187 Y1.418
G1 X-9.790 Y1.276
G1 X-10.725 Y1.126
G1 X-11.750 Y1.070
G1 X-30.485 Y1.070
G1 X-30.485 Y-1.070
G1 X-11.750 Y-1.070
G1 X-10.677 Y-1.131
G1 X-9.549 Y-1.326
G1 X-8.947 Y-1.492
G1 X-8.191 Y-1.760
G1 X-7.296 Y-2.170
G1 X-6.250 Y-2.821
G1 X-5.454 Y-3.469
G1 X-4.595 Y-4.362
G1 X-3.405 Y-5.530
G1 X-2.863 Y-6.196
G1 X-2.684 Y-6.448
G1 X-2.170 Y-7.296
G1 X-1.726 Y-8.258
G1 X-1.418 Y-9.188
G1 X-1.197 Y-10.217
G1 X-1.126 Y-10.727
G1 X-1.070 Y-11.750
G1 X-1.070 Y-30.425
G22 ; retract
G1 X1.423 Y-7.045 F9000.000
G23 ; unretract
M700 P0.125664
G1 X-7.045 Y1.423 F7200.000
M700 P0.000000
G1 X-0.558 Y9.153 F9000.000
M700 P0.125664
G1 X0.582 Y8.013 F7200.000
G1 X-3.199 Y4.686
G1 X4.680 Y-3.193
G1 X9.147 Y-0.552
G1 X8.019 Y0.576
G22 ; retract
G1 Z0.550 F9000.000
G1 X-1.070 Y-30.485 F9000.000
G23 ; unretract
M700 P0.019463
G1 X1.070 Y-30.485 F2400.000
G1 X1.070 Y-11.773
G1 X1.147 Y-10.588
G1 X1.328 Y-9.565
G1 X1.486 Y-8.990
G1 X1.759 Y-8.217
G1 X2.172 Y-7.316
G1 X2.807 Y-6.296
G1 X3.410 Y-5.551
G1 X4.609 Y-4.376
G1 X5.464 Y-3.484
G1 X5.745 Y-3.244
G1 X6.451 Y-2.700
G1 X7.317 Y-2.172
G1 X8.282 Y-1.727
G1 X9.219 Y-1.416
G1 X9.796 Y-1.281
G1 X10.735 Y-1.128
G1 X11.774 Y-1.070
G1 X30.485 Y-1.070
G1 X30.485 Y1.070
G1 X11.774 Y1.070
G1 X10.692 Y1.132
G1 X9.565 Y1.328
G1 X8.990 Y1.486
G1 X8.217 Y1.759
G1 X7.317 Y2.172
G1 X6.292 Y2.810
G1 X5.481 Y3.468
G1 X4.609 Y4.375
G1 X3.408 Y5.552
G1 X2.700 Y6.450
G1 X2.172 Y7.317
G1 X1.727 Y8.282
G1 X1.416 Y9.219
G1 X1.281 Y9.796
G1 X1.128 Y10.735
G1 X1.070 Y11.774
G1 X1.070 Y30.485
G1 X-1.070 Y30.485
G1 X-1.070 Y11.774
G1 X-1.132 Y10.692
G1 X-1.328 Y9.565
G1 X-1.486 Y8.990
G1 X-1.759 Y8.217
G1 X-2.172 Y7.317
G1 X-2.810 Y6.292
G1 X-3.410 Y5.551
G1 X-4.609 Y4.376
G1 X-5.466 Y3.482
G1 X-6.248 Y2.844
G1 X-6.454 Y2.698
G1 X-7.317 Y2.172
G1 X-8.282 Y1.727
G1 X-9.219 Y1.416
G1 X-9.796 Y1.281
G1 X-10.735 Y1.128
G1 X-11.774 Y1.070
G1 X-30.485 Y1.070
G1 X-30.485 Y-1.070
G1 X-11.774 Y-1.070
G1 X-10.692 Y-1.132
G1 X-9.565 Y-1.328
G1 X-8.990 Y-1.486
G1 X-8.217 Y-1.759
G1 X-7.317 Y-2.172
G1 X-6.292 Y-2.810
G1 X-5.481 Y-3.468
G1 X-4.609 Y-4.375
G1 X-3.408 Y-5.552
G1 X-2.700 Y-6.450
G1 X-2.172 Y-7.317
G1 X-1.727 Y-8.282
G1 X-1.416 Y-9.219
G1 X-1.281 Y-9.794
G1 X-1.127 Y-10.738
G1 X-1.070 Y-11.774
G1 X-1.070 Y-30.425
G22 ; retract
G1 X0.585 Y-8.010 F9000.000
G23 ; unretract
M700 P0.125664
G1 X-0.564 Y-9.160 F7200.000
G1 X-3.212 Y-4.698
G1 X4.694 Y3.208
G1 X8.000 Y-0.595
G1 X9.158 Y0.563
M700 P0.000000
G1 X1.432 Y7.054 F9000.000
M700 P0.125664
G1 X-7.054 Y-1.432 F7200.000
G22 ; retract
G1 Z0.600 F9000.000
G1 X-1.070 Y-30.485 F9000.000
G23 ; unretract
M700 P0.019463
G1 X1.070 Y-30.485 F2400.000
G1 X1.070 Y-11.798
G1 X1.133 Y-10.707
G1 X1.296 Y-9.744
G1 X1.480 Y-9.035
G1 X1.759 Y-8.243
G1 X2.174 Y-7.338
G1 X2.796 Y-6.338
G1 X3.414 Y-5.572
G1 X4.623 Y-4.389
G1 X5.492 Y-3.482
G1 X6.457 Y-2.713
G1 X7.338 Y-2.174
G1 X8.306 Y-1.727
G1 X9.252 Y-1.414
G1 X9.801 Y-1.285
G1 X10.746 Y-1.129
G1 X11.798 Y-1.070
G1 X30.485 Y-1.070
G1 X30.485 Y1.070
G1 X11.798 Y1.070
G1 X10.706 Y1.133
G1 X9.582 Y1.330
G1 X9.034 Y1.481
G1 X8.243 Y1.759
G1 X7.338 Y2.174
G1 X6.334 Y2.799
G1 X5.508 Y3.468
G1 X4.623 Y4.389
G1 X3.413 Y5.572
G1 X2.714 Y6.456
G1 X2.174 Y7.338
G1 X1.727 Y8.306
G1 X1.414 Y9.252
G1 X1.285 Y9.801
G1 X1.129 Y10.746
G1 X1.070 Y11.798
G1 X1.070 Y30.485
G1 X-1.070 Y30.485
G1 X-1.070 Y11.798
G1 X-1.133 Y10.706
G1 X-1.330 Y9.582
G1 X-1.481 Y9.034
G1 X-1.759 Y8.243
G1 X-2.174 Y7.338
G1 X-2.799 Y6.334
G1 X-3.414 Y5.572
G1 X-4.623 Y4.389
G1 X-5.494 Y3.480
G1 X-6.304 Y2.821
G1 X-7.337 Y2.175
G1 X-8.306 Y1.727
G1 X-9.252 Y1.414
G1 X-9.801 Y1.285
G1 X-10.746 Y1.129
G1 X-11.798 Y1.070
G1 X-30.485 Y1.070
G1 X-30.485 Y-1.070
G1 X-11.798 Y-1.070
G1 X-10.706 Y-1.133
G1 X-9.582 Y-1.330
G1 X-9.034 Y-1.481
G1 X-8.243 Y-1.759
G1 X-7.338 Y-2.174
G1 X-6.334 Y-2.799
G1 X-5.508 Y-3.468
G1 X-4.623 Y-4.389
G1 X-3.413 Y-5.572
G1 X-2.714 Y-6.456
G1 X-2.174 Y-7.338
G1 X-1.727 Y-8.306
G1 X-1.414 Y-9.252
G1 X-1.285 Y-9.799
G1 X-1.129 Y-10.749
G1 X-1.070 Y-11.798
G1 X-1.070 Y-30.425
G22 ; retract
G1 X1.442 Y-7.063 F9000.000
G23 ; unretract
M700 P0.125664
G1 X-7.063 Y1.442 F7200.000
M700 P0.000000
G1 X-0.568 Y9.163 F9000.000
M700 P0.125664
G1 X0.608 Y7.988 F7200.000
G1 X-3.225 Y4.712
G1 X4.708 Y-3.221
G1 X9.166 Y-0.571
G1 X7.995 Y0.600
G22 ; retract
G1 Z0.650 F9000.000
G1 X-1.070 Y-30.485 F9000.000
G23 ; unretract
M700 P0.019463
G1 X1.070 Y-30.485 F2400.000
G1 X1.070 Y-11.822
G1 X1.134 Y-10.722
G1 X1.299 Y-9.753
G1 X1.475 Y-9.079
G1 X1.758 Y-8.269
G1 X2.176 Y-7.359
G1 X2.785 Y-6.380
G1 X3.419 Y-5.593
G1 X4.637 Y-4.402
G1 X5.521 Y-3.480
G1 X6.462 Y-2.727
G1 X7.359 Y-2.176
G1 X8.329 Y-1.728
G1 X9.285 Y-1.412
G1 X9.806 Y-1.289
G1 X10.757 Y-1.131
G1 X11.822 Y-1.070
G1 X30.485 Y-1.070
G1 X30.485 Y1.070
G1 X11.822 Y1.070
G1 X10.721 Y1.134
G1 X9.598 Y1.332
G1 X9.078 Y1.475
G1 X8.269 Y1.758
G1 X7.359 Y2.176
G1 X6.488 Y2.711
G1 X5.535 Y3.466
G1 X4.637 Y4.402
G1 X3.418 Y5.593
G1 X2.728 Y6.462
G1 X2.176 Y7.359
G1 X1.728 Y8.329
G1 X1.412 Y9.285
G1 X1.289 Y9.806
G1 X1.131 Y10.757
G1 X1.070 Y11.822
G1 X1.070 Y30.485
G1 X-1.070 Y30.485
G1 X-1.070 Y11.822
G1 X-1.134 Y10.721
G1 X-1.332 Y9.598
G1 X-1.475 Y9.078
G1 X-1.758 Y8.269
G1 X-2.176 Y7.359
G1 X-2.711 Y6.488
G1 X-3.418 Y5.593
G1 X-4.637 Y4.402
G1 X-5.523 Y3.478
G1 X-6.356 Y2.802
G1 X-7.358 Y2.177
G1 X-8.329 Y1.728
G1 X-9.285 Y1.412
G1 X-9.807 Y1.289
G1 X-10.757 Y1.131
G1 X-11.822 Y1.070
G1 X-30.485 Y1.070
G1 X-30.485 Y-1.070
G1 X-11.822 Y-1.070
G1 X-10.721 Y-1.134
G1 X-9.598 Y-1.332
G1 X-9.078 Y-1.475
G1 X-8.269 Y-1.758
G1 X-7.359 Y-2.176
G1 X-6.488 Y-2.711
G1 X-5.535 Y-3.466
G1 X-4.637 Y-4.402
G1 X-3.418 Y-5.593
G1 X-2.728 Y-6.462
G1 X-2.176 Y-7.359
G1 X-1.728 Y-8.329
G1 X-1.412 Y-9.285
G1 X-1.290 Y-9.805
G1 X-1.130 Y-10.760
G1 X-1.070 Y-11.822
G1 X-1.070 Y-30.425
G22 ; retract
G1 X0.615 Y-7.980 F9000.000
G23 ; unretract
M700 P0.125664
G1 X-0.577 Y-9.173 F7200.000
G1 X-3.238 Y-4.725
G1 X4.722 Y3.235
G1 X1.451 Y7.073
G1 X-7.073 Y-1.451
M700 P0.000000
G1 X7.975 Y-0.621 F9000.000
M700 P0.125664
G1 X9.168 Y0.573 F7200.000
G22 ; retract
G1 Z0.700 F9000.000
G1 X-1.070 Y-30.485 F9000.000
G23 ; unretract
M700 P0.019463
G1 X1.070 Y-30.485 F2400.000
G1 X1.070 Y-11.846
G1 X1.135 Y-10.736
G1 X1.303 Y-9.761
G1 X1.469 Y-9.123
G1 X1.757 Y-8.295
G1 X2.178 Y-7.380
G1 X2.773 Y-6.422
G1 X3.423 Y-5.614
G1 X4.651 Y-4.416
G1 X5.549 Y-3.478
G1 X6.468 Y-2.741
G1 X7.380 Y-2.178
G1 X8.353 Y-1.728
G1 X9.317 Y-1.410
G1 X9.812 Y-1.293
G1 X10.768 Y-1.132
G1 X11.846 Y-1.070
G1 X30.485 Y-1.070
G1 X30.485 Y1.070
G1 X11.846 Y1.070
G1 X10.735 Y1.135
G1 X9.614 Y1.334
G1 X9.121 Y1.470
G1 X8.295 Y1.757
G1 X7.380 Y2.178
G1 X6.482 Y2.732
G1 X5.562 Y3.466
G1 X4.651 Y4.416
G1 X3.423 Y5.613
G1 X2.783 Y6.409
G1 X2.179 Y7.380
G1 X1.728 Y8.353
G1 X1.410 Y9.317
G1 X1.293 Y9.812
G1 X1.132 Y10.768
G1 X1.070 Y11.846
G1 X1.070 Y30.485
G1 X-1.070 Y30.485
G1 X-1.070 Y11.846
G1 X-1.135 Y10.735
G1 X-1.334 Y9.614
G1 X-1.470 Y9.121
G1 X-1.757 Y8.295
G1 X-2.178 Y7.380
G1 X-2.732 Y6.482
G1 X-3.423 Y5.614
G1 X-4.651 Y4.416
G1 X-5.551 Y3.476
G1 X-6.409 Y2.783
G1 X-7.380 Y2.179
G1 X-8.353 Y1.728
G1 X-9.317 Y1.410
G1 X-9.812 Y1.293
G1 X-10.768 Y1.132
G1 X-11.846 Y1.070
G1 X-30.485 Y1.070
G1 X-30.485 Y-1.070
G1 X-11.846 Y-1.070
G1 X-10.735 Y-1.135
G1 X-9.614 Y-1.334
G1 X-9.121 Y-1.470
G1 X-8.295 Y-1.757
G1 X-7.380 Y-2.178
G1 X-6.482 Y-2.732
G1 X-5.562 Y-3.466
G1 X-4.651 Y-4.416
G1 X-3.423 Y-5.614
G1 X-2.741 Y-6.468
G1 X-2.178 Y-7.380
G1 X-1.728 Y-8.353
G1 X-1.410 Y-9.317
G1 X-1.294 Y-9.810
G1 X-1.132 Y-10.771
G1 X-1.070 Y-11.846
G1 X-1.070 Y-30.425
G22 ; retract
G1 X1.460 Y-7.082 F9000.000
G23 ; unretract
M700 P0.125664
G1 X-7.082 Y1.460 F7200.000
G1 X-3.251 Y4.738
G1 X4.735 Y-3.248
G1 X9.179 Y-0.584
G1 X7.966 Y0.630
M700 P0.000000
G1 X0.633 Y7.962 F9000.000
M700 P0.125664
G1 X-0.580 Y9.175 F7200.000
G22 ; retract
G1 Z0.750 F9000.000
G1 X-1.070 Y-30.485 F9000.000
G23 ; unretract
M700 P0.019463
G1 X1.070 Y-30.485 F2400.000
G1 X1.070 Y-11.869
G1 X1.136 Y-10.750
G1 X1.307 Y-9.769
G1 X1.464 Y-9.166
G1 X1.757 Y-8.321
G1 X2.180 Y-7.401
G1 X2.762 Y-6.464
G1 X3.428 Y-5.634
G1 X4.666 Y-4.429
G1 X5.577 Y-3.477
G1 X6.474 Y-2.754
G1 X7.401 Y-2.181
G1 X8.377 Y-1.729
G1 X9.350 Y-1.408
G1 X9.817 Y-1.298
G1 X10.779 Y-1.134
G1 X11.869 Y-1.070
G1 X30.485 Y-1.070
G1 X30.485 Y1.070
G1 X11.869 Y1.070
G1 X10.750 Y1.136
G1 X9.631 Y1.336
G1 X9.165 Y1.464
G1 X8.321 Y1.757
G1 X7.401 Y2.180
G1 X6.477 Y2.753
G1 X5.589 Y3.466
G1 X4.666 Y4.429
G1 X3.428 Y5.634
G1 X2.764 Y6.461
G1 X2.181 Y7.401
G1 X1.729 Y8.377
G1 X1.408 Y9.350
G1 X1.298 Y9.817
G1 X1.134 Y10.779
G1 X1.070 Y11.869
G1 X1.070 Y30.485
G1 X-1.070 Y30.485
G1 X-1.070 Y11.869
G1 X-1.136 Y10.750
G1 X-1.336 Y9.631
G1 X-1.464 Y9.165
G1 X-1.757 Y8.321
G1 X-2.180 Y7.401
G1 X-2.753 Y6.477
G1 X-3.428 Y5.634
G1 X-4.666 Y4.429
G1 X-5.579 Y3.475
G1 X-6.461 Y2.764
G1 X-7.401 Y2.181
G1 X-8.377 Y1.729
G1 X-9.350 Y1.408
G1 X-9.817 Y1.298
G1 X-10.779 Y1.134
G1 X-11.869 Y1.070
G1 X-30.485 Y1.070
G1 X-30.485 Y-1.070
G1 X-11.869 Y-1.070
G1 X-10.750 Y-1.136
G1 X-9.631 Y-1.336
G1 X-9.165 Y-1.464
G1 X-8.321 Y-1.757
G1 X-7.401 Y-2.180
G1 X-6.477 Y-2.753
G1 X-5.589 Y-3.466
G1 X-4.666 Y-4.429
G1 X-3.428 Y-5.634
G1 X-2.755 Y-6.474
G1 X-2.181 Y-7.401
G1 X-1.729 Y-8.377
G1 X-1.408 Y-9.350
G1 X-1.298 Y-9.816
G1 X-1.133 Y-10.782
G1 X-1.070 Y-11.869
G1 X-1.070 Y-30.425
G22 ; retract
G1 X0.644 Y-7.951 F9000.000
G23 ; unretract
M700 P0.125664
G1 X-0.590 Y-9.186 F7200.000
G1 X-3.264 Y-4.751
G1 X4.749 Y3.262
G1 X1.470 Y7.091
G1 X-7.091 Y-1.470
M700 P0.000000
G1 X7.949 Y-0.646 F9000.000
M700 P0.125664
G1 X9.183 Y0.587 F7200.000
G22 ; retract
G1 Z0.800 F9000.000
G1 X-1.070 Y-30.485 F9000.000
G23 ; unretract
M700 P0.019463
G1 X1.070 Y-30.485 F2400.000
G1 X1.070 Y-11.892
G1 X1.137 Y-10.765
G1 X1.311 Y-9.777
G1 X1.458 Y-9.210
G1 X1.756 Y-8.347
G1 X2.182 Y-7.422
G1 X2.761 Y-6.490
G1 X3.433 Y-5.655
G1 X4.680 Y-4.443
G1 X5.606 Y-3.475
G1 X6.490 Y-2.761
G1 X7.422 Y-2.183
G1 X8.400 Y-1.729
G1 X9.383 Y-1.405
G1 X9.823 Y-1.302
G1 X10.789 Y-1.135
G1 X11.892 Y-1.070
G1 X30.485 Y-1.070
G1 X30.485 Y1.070
G1 X11.892 Y1.070
G1 X10.764 Y1.138
G1 X9.645 Y1.338
G1 X8.707 Y1.620
G1 X8.344 Y1.757
G1 X7.422 Y2.182
G1 X6.490 Y2.761
G1 X5.616 Y3.465
G1 X4.680 Y4.443
G1 X3.433 Y5.655
G1 X2.761 Y6.490
G1 X2.183 Y7.422
G1 X1.729 Y8.401
G1 X1.405 Y9.383
G1 X1.302 Y9.823
G1 X1.135 Y10.789
G1 X1.070 Y11.892
G1 X1.070 Y30.485
G1 X-1.070 Y30.485
G1 X-1.070 Y11.892
G1 X-1.138 Y10.764
G1 X-1.339 Y9.645
G1 X-1.620 Y8.707
G1 X-1.757 Y8.344
G1 X-2.182 Y7.422
G1 X-2.761 Y6.490
G1 X-3.433 Y5.655
G1 X-4.680 Y4.443
G1 X-5.608 Y3.473
G1 X-6.490 Y2.761
G1 X-7.422 Y2.183
G1 X-8.401 Y1.729
G1 X-9.383 Y1.405
G1 X-9.823 Y1.302
G1 X-10.789 Y1.135
G1 X-11.892 Y1.070
G1 X-30.485 Y1.070
G1 X-30.485 Y-1.070
G1 X-11.892 Y-1.070
G1 X-10.764 Y-1.138
G1 X-9.645 Y-1.339
G1 X-8.707 Y-1.620
G1 X-8.344 Y-1.757
G1 X-7.422 Y-2.182
G1 X-6.490 Y-2.761
G1 X-5.616 Y-3.465
G1 X-4.680 Y-4.443
G1 X-3.432 Y-5.655
G1 X-2.748 Y-6.510
G1 X-2.183 Y-7.422
G1 X-1.729 Y-8.401
G1 X-1.405 Y-9.383
G1 X-1.302 Y-9.822
G1 X-1.135 Y-10.793
G1 X-1.070 Y-11.892
G1 X-1.070 Y-30.425
G22 ; retract
G1 X1.479 Y-7.101 F9000.000
G23 ; unretract
M700 P0.125664
G1 X-7.101 Y1.479 F7200.000
G1 X-3.277 Y4.764
G1 X4.762 Y-3.275
G1 X9.192 Y-0.597
G1 X7.940 Y0.656
M700 P0.000000
G1 X0.659 Y7.937 F9000.000
M700 P0.125664
G1 X-0.599 Y9.195 F7200.000
G22 ; retract
G1 Z0.850 F9000.000
G1 X-1.070 Y-30.485 F9000.000
G23 ; unretract
M700 P0.019463
G1 X1.070 Y-30.485 F2400.000
G1 X1.070 Y-11.915
G1 X1.139 Y-10.779
G1 X1.314 Y-9.785
G1 X1.453 Y-9.254
G1 X1.755 Y-8.373
G1 X2.185 Y-7.443
G1 X2.764 Y-6.511
G1 X3.438 Y-5.676
G1 X4.694 Y-4.456
G1 X5.634 Y-3.473
G1 X6.511 Y-2.764
G1 X7.443 Y-2.185
G1 X8.424 Y-1.730
G1 X9.416 Y-1.403
G1 X9.828 Y-1.306
G1 X10.800 Y-1.137
G1 X11.915 Y-1.070
G1 X30.485 Y-1.070
G1 X30.485 Y1.070
G1 X11.915 Y1.070
G1 X10.779 Y1.139
G1 X9.661 Y1.341
G1 X8.719 Y1.625
G1 X8.370 Y1.757
G1 X7.443 Y2.185
G1 X6.510 Y2.764
G1 X5.643 Y3.465
G1 X4.694 Y4.456
G1 X3.437 Y5.676
G1 X2.764 Y6.511
G1 X2.185 Y7.443
G1 X1.730 Y8.424
G1 X1.403 Y9.416
G1 X1.306 Y9.828
G1 X1.137 Y10.800
G1 X1.070 Y11.915
G1 X1.070 Y30.485
G1 X-1.070 Y30.485
G1 X-1.070 Y11.915
G1 X-1.139 Y10.779
G1 X-1.341 Y9.661
G1 X-1.625 Y8.719
G1 X-1.757 Y8.370
G1 X-2.185 Y7.443
G1 X-2.764 Y6.511
G1 X-3.438 Y5.676
G1 X-4.694 Y4.456
G1 X-5.636 Y3.471
G1 X-6.510 Y2.764
G1 X-7.443 Y2.185
G1 X-8.424 Y1.730
G1 X-9.416 Y1.403
G1 X-9.828 Y1.306
G1 X-10.800 Y1.137
G1 X-11.915 Y1.070
G1 X-30.485 Y1.070
G1 X-30.485 Y-1.070
G1 X-11.915 Y-1.070
G1 X-10.779 Y-1.139
G1 X-9.661 Y-1.341
G1 X-8.719 Y-1.625
G1 X-8.370 Y-1.757
G1 X-7.443 Y-2.185
G1 X-6.510 Y-2.764
G1 X-5.643 Y-3.465
G1 X-4.694 Y-4.456
G1 X-3.437 Y-5.676
G1 X-2.733 Y-6.559
G1 X-2.185 Y-7.443
G1 X-1.730 Y-8.424
G1 X-1.403 Y-9.416
G1 X-1.306 Y-9.827
G1 X-1.136 Y-10.803
G1 X-1.070 Y-11.915
G1 X-1.070 Y-30.425
G22 ; retract
G1 X0.672 Y-7.923 F9000.000
G23 ; unretract
M700 P0.125664
G1 X-0.603 Y-9.198 F7200.000
G1 X-3.290 Y-4.777
G1 X4.776 Y3.289
G1 X1.489 Y7.110
G1 X-7.110 Y-1.489
M700 P0.000000
G1 X7.924 Y-0.671 F9000.000
M700 P0.125664
G1 X9.201 Y0.605 F7200.000
G22 ; retract
G1 Z0.900 F9000.000
G1 X-1.070 Y-30.485 F9000.000
G23 ; unretract
M700 P0.019463
G1 X1.070 Y-30.485 F2400.000
G1 X1.070 Y-11.938
G1 X1.140 Y-10.794
G1 X1.318 Y-9.794
G1 X1.447 Y-9.297
G1 X1.755 Y-8.399
G1 X2.187 Y-7.465
G1 X2.767 Y-6.531
G1 X3.442 Y-5.696
G1 X4.709 Y-4.469
G1 X5.766 Y-3.382
G1 X6.531 Y-2.767
G1 X7.464 Y-2.187
G1 X8.448 Y-1.730
G1 X9.448 Y-1.401
G1 X9.834 Y-1.310
G1 X10.811 Y-1.138
G1 X11.939 Y-1.070
G1 X30.485 Y-1.070
G1 X30.485 Y1.070
G1 X11.938 Y1.070
G1 X10.793 Y1.140
G1 X9.678 Y1.343
G1 X8.730 Y1.629
G1 X8.396 Y1.756
G1 X7.465 Y2.187
G1 X6.531 Y2.767
G1 X5.670 Y3.465
G1 X4.708 Y4.469
G1 X3.442 Y5.696
G1 X2.767 Y6.531
G1 X2.187 Y7.464
G1 X1.730 Y8.448
G1 X1.401 Y9.448
G1 X1.310 Y9.834
G1 X1.138 Y10.811
G1 X1.070 Y11.939
G1 X1.070 Y30.485
G1 X-1.070 Y30.485
G1 X-1.070 Y11.938
G1 X-1.140 Y10.793
G1 X-1.343 Y9.678
G1 X-1.629 Y8.730
G1 X-1.756 Y8.396
G1 X-2.187 Y7.465
G1 X-2.767 Y6.531
G1 X-3.442 Y5.696
G1 X-4.708 Y4.469
G1 X-5.664 Y3.470
G1 X-6.531 Y2.767
G1 X-7.464 Y2.187
G1 X-8.448 Y1.730
G1 X-9.448 Y1.401
G1 X-9.834 Y1.310
G1 X-10.811 Y1.138
G1 X-11.939 Y1.070
G1 X-30.485 Y1.070
G1 X-30.485 Y-1.070
G1 X-11.938 Y-1.070
G1 X-10.793 Y-1.140
G1 X-9.678 Y-1.343
G1 X-8.730 Y-1.629
G1 X-8.396 Y-1.756
G1 X-7.465 Y-2.187
G1 X-6.531 Y-2.767
G1 X-5.670 Y-3.465
G1 X-4.708 Y-4.469
G1 X-3.442 Y-5.697
G1 X-2.717 Y-6.608
G1 X-2.187 Y-7.465
G1 X-1.730 Y-8.448
G1 X-1.400 Y-9.452
G1 X-1.164 Y-10.625
G1 X-1.070 Y-11.937
G1 X-1.070 Y-30.425
G22 ; retract
G1 X1.498 Y-7.120 F9000.000
G23 ; unretract
M700 P0.125664
G1 X-7.120 Y1.498 F7200.000
G1 X-3.303 Y4.790
G1 X4.795 Y-3.308
G1 X9.205 Y-0.609
G1 X7.917 Y0.679
M700 P0.000000
G1 X0.684 Y7.912 F9000.000
M700 P0.125664
G1 X-0.611 Y9.207 F7200.000
G22 ; retract
G1 Z0.950 F9000.000
G1 X-1.070 Y-30.485 F9000.000
G23 ; unretract
M700 P0.019463
G1 X1.070 Y-30.485 F2400.000
G1 X1.070 Y-11.962
G1 X1.141 Y-10.808
G1 X1.322 Y-9.802
G1 X1.442 Y-9.341
G1 X1.754 Y-8.425
G1 X2.189 Y-7.486
G1 X2.770 Y-6.552
G1 X3.447 Y-5.717
G1 X4.723 Y-4.482
G1 X5.770 Y-3.401
G1 X6.552 Y-2.770
G1 X7.486 Y-2.189
G1 X8.472 Y-1.730
G1 X9.481 Y-1.399
G1 X9.839 Y-1.315
G1 X10.822 Y-1.140
G1 X11.962 Y-1.070
G1 X30.485 Y-1.070
G1 X30.485 Y1.070
G1 X11.962 Y1.070
G1 X10.808 Y1.141
G1 X9.694 Y1.345
G1 X8.741 Y1.634
G1 X8.422 Y1.755
G1 X7.486 Y2.189
G1 X6.552 Y2.770
G1 X5.697 Y3.464
G1 X4.722 Y4.483
G1 X3.447 Y5.717
G1 X2.770 Y6.552
G1 X2.189 Y7.486
G1 X1.730 Y8.472
G1 X1.399 Y9.481
G1 X1.315 Y9.839
G1 X1.140 Y10.822
G1 X1.070 Y11.962
G1 X1.070 Y30.485
G1 X-1.070 Y30.485
G1 X-1.070 Y11.962
G1 X-1.141 Y10.808
G1 X-1.345 Y9.694
G1 X-1.634 Y8.741
G1 X-1.755 Y8.422
G1 X-2.189 Y7.486
G1 X-2.770 Y6.552
G1 X-3.447 Y5.717
G1 X-4.722 Y4.483
G1 X-5.692 Y3.468
G1 X-6.552 Y2.770
G1 X-7.486 Y2.189
G1 X-8.472 Y1.730
G1 X-9.481 Y1.399
G1 X-9.839 Y1.315
G1 X-10.822 Y1.140
G1 X-11.962 Y1.070
G1 X-30.485 Y1.070
G1 X-30.485 Y-1.070
G1 X-11.962 Y-1.070
G1 X-10.808 Y-1.141
G1 X-9.694 Y-1.345
G1 X-8.741 Y-1.634
G1 X-8.422 Y-1.755
G1 X-7.486 Y-2.189
G1 X-6.552 Y-2.770
G1 X-5.697 Y-3.464
G1 X-4.722 Y-4.483
G1 X-3.446 Y-5.718
G1 X-2.702 Y-6.657
G1 X-2.189 Y-7.486
G1 X-1.730 Y-8.472
G1 X-1.398 Y-9.484
G1 X-1.160 Y-10.675
G1 X-1.070 Y-11.961
G1 X-1.070 Y-30.425
G22 ; retract
G1 X0.700 Y-7.896 F9000.000
G23 ; unretract
M700 P0.125664
G1 X-0.616 Y-9.211 F7200.000
G1 X-3.316 Y-4.803
G1 X4.803 Y3.317
G1 X1.507 Y7.129
G1 X-7.129 Y-1.507
M700 P0.000000
G1 X7.899 Y-0.696 F9000.000
M700 P0.125664
G1 X9.213 Y0.617 F7200.000
G22 ; retract
G1 Z1.000 F9000.000
G1 X-1.070 Y-30.485 F9000.000
G23 ; unretract
M700 P0.019463
G1 X1.070 Y-30.485 F2400.000
G1 X1.070 Y-11.985
G1 X1.142 Y-10.823
G1 X1.326 Y-9.810
G1 X1.436 Y-9.384
G1 X1.753 Y-8.451
G1 X2.191 Y-7.507
G1 X2.774 Y-6.572
G1 X3.452 Y-5.738
G1 X4.737 Y-4.496
G1 X5.774 Y-3.420
G1 X6.571 Y-2.775
G1 X6.714 Y-2.682
G1 X7.507 Y-2.191
G1 X8.495 Y-1.731
G1 X9.514 Y-1.397
G1 X9.844 Y-1.319
G1 X10.832 Y-1.141
G1 X11.985 Y-1.070
G1 X30.485 Y-1.070
G1 X30.485 Y1.070
G1 X11.985 Y1.070
G1 X10.822 Y1.142
G1 X9.710 Y1.347
G1 X8.753 Y1.639
G1 X8.447 Y1.755
G1 X7.507 Y2.191
G1 X6.572 Y2.774
G1 X5.723 Y3.464
G1 X4.737 Y4.496
G1 X3.452 Y5.738
G1 X2.774 Y6.572
G1 X2.191 Y7.507
G1 X1.731 Y8.495
G1 X1.397 Y9.514
G1 X1.319 Y9.844
G1 X1.141 Y10.832
G1 X1.070 Y11.985
G1 X1.070 Y30.485
G1 X-1.070 Y30.485
G1 X-1.070 Y11.985
G1 X-1.142 Y10.822
G1 X-1.347 Y9.710
G1 X-1.639 Y8.753
G1 X-1.755 Y8.447
G1 X-2.191 Y7.507
G1 X-2.774 Y6.572
G1 X-3.452 Y5.738
G1 X-4.737 Y4.496
G1 X-5.721 Y3.466
G1 X-6.572 Y2.774
G1 X-7.507 Y2.191
G1 X-8.495 Y1.731
G1 X-9.514 Y1.397
G1 X-9.844 Y1.319
G1 X-10.832 Y1.141
G1 X-11.985 Y1.070
G1 X-30.485 Y1.070
G1 X-30.485 Y-1.070
G1 X-11.985 Y-1.070
G1 X-10.822 Y-1.142
G1 X-9.710 Y-1.347
G1 X-8.753 Y-1.639
G1 X-8.447 Y-1.755
G1 X-7.507 Y-2.191
G1 X-6.572 Y-2.774
G1 X-5.724 Y-3.464
G1 X-4.737 Y-4.496
G1 X-3.452 Y-5.738
G1 X-2.775 Y-6.571
G1 X-2.682 Y-6.714
G1 X-2.191 Y-7.507
G1 X-1.731 Y-8.495
G1 X-1.396 Y-9.517
G1 X-1.156 Y-10.725
G1 X-1.070 Y-11.984
G1 X-1.070 Y-30.425
G22 ; retract
G1 X1.517 Y-7.139 F9000.000
G23 ; unretract
M700 P0.125664
G1 X-7.139 Y1.517 F7200.000
G1 X-3.330 Y4.816
G1 X4.820 Y-3.333
G1 X9.218 Y-0.622
G1 X7.893 Y0.702
M700 P0.000000
G1 X0.709 Y7.887 F9000.000
M700 P0.125664
G1 X-0.623 Y9.219 F7200.000
G22 ; retract
G1 Z1.050 F9000.000
G1 X-1.070 Y-30.485 F9000.000
G23 ; unretract
M700 P0.019463
G1 X1.070 Y-30.485 F2400.000
G1 X1.070 Y-12.008
G1 X1.143 Y-10.837
G1 X1.329 Y-9.818
G1 X1.431 Y-9.428
G1 X1.753 Y-8.476
G1 X2.193 Y-7.528
G1 X2.777 Y-6.593
G1 X3.457 Y-5.758
G1 X4.751 Y-4.509
G1 X5.778 Y-3.439
G1 X6.592 Y-2.778
G1 X6.762 Y-2.667
G1 X7.528 Y-2.193
G1 X8.519 Y-1.731
G1 X9.547 Y-1.395
G1 X10.843 Y-1.143
G1 X12.008 Y-1.070
G1 X30.485 Y-1.070
G1 X30.485 Y1.070
G1 X12.008 Y1.070
G1 X10.837 Y1.143
G1 X9.726 Y1.349
G1 X8.764 Y1.644
G1 X8.473 Y1.754
G1 X7.528 Y2.193
G1 X6.593 Y2.777
G1 X5.750 Y3.463
G1 X4.751 Y4.510
G1 X3.457 Y5.758
G1 X2.777 Y6.593
G1 X2.193 Y7.528
G1 X1.731 Y8.519
G1 X1.393 Y9.550
G1 X1.143 Y10.842
G1 X1.070 Y12.008
G1 X1.070 Y30.485
G1 X-1.070 Y30.485
G1 X-1.070 Y12.008
G1 X-1.143 Y10.837
G1 X-1.349 Y9.726
G1 X-1.644 Y8.764
G1 X-1.754 Y8.473
G1 X-2.193 Y7.528
G1 X-2.777 Y6.593
G1 X-3.457 Y5.758
G1 X-4.751 Y4.510
G1 X-5.749 Y3.465
G1 X-6.593 Y2.777
G1 X-7.528 Y2.193
G1 X-8.519 Y1.731
G1 X-9.550 Y1.393
G1 X-10.842 Y1.143
G1 X-12.008 Y1.070
G1 X-30.485 Y1.070
G1 X-30.485 Y-1.070
G1 X-12.008 Y-1.070
G1 X-10.837 Y-1.143
G1 X-9.726 Y-1.349
G1 X-8.764 Y-1.644
G1 X-8.473 Y-1.754
G1 X-7.528 Y-2.193
G1 X-6.593 Y-2.777
G1 X-5.750 Y-3.463
G1 X-4.751 Y-4.510
G1 X-3.457 Y-5.758
G1 X-2.778 Y-6.592
G1 X-2.667 Y-6.762
G1 X-2.193 Y-7.528
G1 X-1.731 Y-8.519
G1 X-1.394 Y-9.550
G1 X-1.152 Y-10.776
G1 X-1.070 Y-12.007
G1 X-1.070 Y-30.425
G22 ; retract
G1 X0.726 Y-7.869 F9000.000
G23 ; unretract
M700 P0.125664
G1 X-0.628 Y-9.224 F7200.000
G1 X-3.343 Y-4.830
G1 X4.831 Y3.344
G1 X1.526 Y7.148
G1 X-7.148 Y-1.526
M700 P0.000000
G1 X7.874 Y-0.721 F9000.000
M700 P0.125664
G1 X9.225 Y0.629 F7200.000
G22 ; retract
G1 Z1.100 F9000.000
G1 X-1.070 Y-30.485 F9000.000
G23 ; unretract
M700 P0.019463
G1 X1.070 Y-30.485 F2400.000
G1 X1.070 Y-12.031
G1 X1.144 Y-10.852
G1 X1.333 Y-9.826
G1 X1.425 Y-9.472
G1 X1.752 Y-8.502
G1 X2.195 Y-7.549
G1 X2.780 Y-6.613
G1 X3.461 Y-5.779
G1 X4.765 Y-4.523
G1 X5.782 Y-3.458
G1 X6.612 Y-2.781
G1 X6.811 Y-2.652
G1 X7.549 Y-2.195
G1 X8.543 Y-1.732
G1 X9.579 Y-1.393
G1 X10.854 Y-1.144
G1 X12.031 Y-1.070
G1 X30.485 Y-1.070
G1 X30.485 Y1.070
G1 X12.031 Y1.070
G1 X10.851 Y1.144
G1 X9.743 Y1.351
G1 X8.776 Y1.649
G1 X8.499 Y1.754
G1 X7.549 Y2.195
G1 X6.613 Y2.780
G1 X5.777 Y3.463
G1 X4.765 Y4.523
G1 X3.461 Y5.779
G1 X2.780 Y6.613
G1 X2.195 Y7.549
G1 X1.732 Y8.543
G1 X1.391 Y9.583
G1 X1.144 Y10.853
G1 X1.070 Y12.031
G1 X1.070 Y30.485
G1 X-1.070 Y30.485
G1 X-1.070 Y12.031
G1 X-1.144 Y10.851
G1 X-1.351 Y9.743
G1 X-1.649 Y8.776
G1 X-1.754 Y8.499
G1 X-2.195 Y7.549
G1 X-2.780 Y6.613
G1 X-3.461 Y5.779
G1 X-4.765 Y4.523
G1 X-5.777 Y3.463
G1 X-6.613 Y2.780
G1 X-7.549 Y2.195
G1 X-8.543 Y1.732
G1 X-9.583 Y1.391
G1 X-10.853 Y1.144
G1 X-12.031 Y1.070
G1 X-30.485 Y1.070
G1 X-30.485 Y-1.070
G1 X-12.031 Y-1.070
G1 X-10.851 Y-1.144
G1 X-9.743 Y-1.351
G1 X-8.776 Y-1.649
G1 X-8.499 Y-1.754
G1 X-7.549 Y-2.195
G1 X-6.613 Y-2.780
G1 X-5.777 Y-3.463
G1 X-4.765 Y-4.523
G1 X-3.461 Y-5.779
G1 X-2.781 Y-6.612
G1 X-2.652 Y-6.811
G1 X-2.195 Y-7.549
G1 X-1.732 Y-8.543
G1 X-1.391 Y-9.583
G1 X-1.148 Y-10.826
G1 X-1.070 Y-12.031
G1 X-1.070 Y-30.425
G22 ; retract
G1 X1.536 Y-7.157 F9000.000
G23 ; unretract
M700 P0.125664
G1 X-7.157 Y1.536 F7200.000
G1 X-3.356 Y4.843
G1 X4.845 Y-3.358
G1 X9.230 Y-0.635
G1 X7.869 Y0.726
M700 P0.000000
G1 X0.734 Y7.862 F9000.000
M700 P0.125664
G1 X-0.635 Y9.231 F7200.000
G22 ; retract
G1 Z1.150 F9000.000
G1 X-1.070 Y-30.485 F9000.000
G23 ; unretract
M700 P0.019463
G1 X1.070 Y-30.485 F2400.000
G1 X1.070 Y-12.054
G1 X1.145 Y-10.868
G1 X1.337 Y-9.835
G1 X1.420 Y-9.515
G1 X1.751 Y-8.528
G1 X2.197 Y-7.570
G1 X2.783 Y-6.634
G1 X3.466 Y-5.799
G1 X4.779 Y-4.536
G1 X5.818 Y-3.450
G1 X6.633 Y-2.784
G1 X6.860 Y-2.637
G1 X7.571 Y-2.197
G1 X8.566 Y-1.732
G1 X9.612 Y-1.390
G1 X10.868 Y-1.145
G1 X12.054 Y-1.070
G1 X30.485 Y-1.070
G1 X30.485 Y1.070
G1 X12.054 Y1.070
G1 X10.868 Y1.145
G1 X9.759 Y1.353
G1 X8.787 Y1.654
G1 X8.525 Y1.753
G1 X7.570 Y2.197
G1 X6.634 Y2.783
G1 X5.799 Y3.466
G1 X4.779 Y4.536
G1 X3.466 Y5.799
G1 X2.783 Y6.634
G1 X2.197 Y7.570
G1 X1.732 Y8.566
G1 X1.389 Y9.616
G1 X1.145 Y10.868
G1 X1.070 Y12.054
G1 X1.070 Y30.485
G1 X-1.070 Y30.485
G1 X-1.070 Y12.054
G1 X-1.145 Y10.868
G1 X-1.353 Y9.759
G1 X-1.654 Y8.787
G1 X-1.753 Y8.525
G1 X-2.197 Y7.570
G1 X-2.783 Y6.634
G1 X-3.466 Y5.799
G1 X-4.779 Y4.536
G1 X-5.799 Y3.466
G1 X-6.634 Y2.783
G1 X-7.570 Y2.197
G1 X-8.566 Y1.732
G1 X-9.616 Y1.389
G1 X-10.868 Y1.145
G1 X-12.054 Y1.070
G1 X-30.485 Y1.070
G1 X-30.485 Y-1.070
G1 X-12.054 Y-1.070
G1 X-10.868 Y-1.145
G1 X-9.759 Y-1.353
G1 X-8.787 Y-1.654
G1 X-8.525 Y-1.753
G1 X-7.570 Y-2.197
G1 X-6.634 Y-2.783
G1 X-5.799 Y-3.466
G1 X-4.779 Y-4.536
G1 X-3.466 Y-5.799
G1 X-2.784 Y-6.633
G1 X-2.637 Y-6.860
G1 X-2.197 Y-7.571
G1 X-1.732 Y-8.566
G1 X-1.389 Y-9.616
G1 X-1.145 Y-10.868
G1 X-1.070 Y-12.054
G1 X-1.070 Y-30.425
G22 ; retract
G1 X0.752 Y-7.844 F9000.000
G23 ; unretract
M700 P0.125664
G1 X-0.641 Y-9.237 F7200.000
G1 X-3.369 Y-4.856
G1 X4.858 Y3.371
G1 X1.545 Y7.167
G1 X-7.167 Y-1.545
M700 P0.000000
G1 X7.849 Y-0.746 F9000.000
M700 P0.125664
G1 X9.237 Y0.641 F7200.000
G22 ; retract
G1 Z1.200 F9000.000
G1 X-1.070 Y-30.485 F9000.000
G23 ; unretract
M700 P0.019463
G1 X1.070 Y-30.485 F2400.000
G1 X1.070 Y-12.077
G1 X1.145 Y-10.891
G1 X1.341 Y-9.843
G1 X1.414 Y-9.559
G1 X1.751 Y-8.554
G1 X2.199 Y-7.591
G1 X2.786 Y-6.654
G1 X3.470 Y-5.820
G1 X4.793 Y-4.550
G1 X5.863 Y-3.433
G1 X6.653 Y-2.787
G1 X6.908 Y-2.622
G1 X7.592 Y-2.199
G1 X8.590 Y-1.733
G1 X9.645 Y-1.388
G1 X10.891 Y-1.145
G1 X12.077 Y-1.070
G1 X30.485 Y-1.070
G1 X30.485 Y1.070
G1 X12.077 Y1.070
G1 X10.891 Y1.145
G1 X9.774 Y1.355
G1 X8.555 Y1.750
G1 X7.591 Y2.199
G1 X6.654 Y2.786
G1 X5.819 Y3.471
G1 X4.793 Y4.550
G1 X3.470 Y5.820
G1 X2.786 Y6.654
G1 X2.199 Y7.591
G1 X1.733 Y8.590
G1 X1.387 Y9.648
G1 X1.145 Y10.890
G1 X1.070 Y12.077
G1 X1.070 Y30.485
G1 X-1.070 Y30.485
G1 X-1.070 Y12.077
G1 X-1.145 Y10.891
G1 X-1.355 Y9.774
G1 X-1.750 Y8.555
G1 X-2.199 Y7.591
G1 X-2.786 Y6.654
G1 X-3.470 Y5.820
G1 X-4.793 Y4.550
G1 X-5.819 Y3.471
G1 X-6.654 Y2.786
G1 X-7.591 Y2.199
G1 X-8.590 Y1.733
G1 X-9.648 Y1.387
G1 X-10.890 Y1.145
G1 X-12.077 Y1.070
G1 X-30.485 Y1.070
G1 X-30.485 Y-1.070
G1 X-12.077 Y-1.070
G1 X-10.891 Y-1.145
G1 X-9.774 Y-1.355
G1 X-8.555 Y-1.750
G1 X-7.591 Y-2.199
G1 X-6.654 Y-2.786
G1 X-5.819 Y-3.471
G1 X-4.793 Y-4.550
G1 X-3.470 Y-5.820
G1 X-2.787 Y-6.653
G1 X-2.622 Y-6.908
G1 X-2.199 Y-7.592
G1 X-1.733 Y-8.590
G1 X-1.387 Y-9.648
G1 X-1.145 Y-10.890
G1 X-1.070 Y-12.077
G1 X-1.070 Y-30.425
G22 ; retract
G1 X1.555 Y-7.176 F9000.000
G23 ; unretract
M700 P0.125664
G1 X-7.176 Y1.555 F7200.000
G1 X-3.382 Y4.869
G1 X4.873 Y-3.386
G1 X9.243 Y-0.647
G1 X7.827 Y0.769
M700 P0.000000
G1 X0.758 Y7.837 F9000.000
M700 P0.125664
G1 X-0.653 Y9.249 F7200.000
G22 ; retract
G1 Z1.250 F9000.000
G1 X-1.070 Y-30.485 F9000.000
G23 ; unretract
M700 P0.019463
G1 X1.070 Y-30.485 F2400.000
G1 X1.070 Y-12.100
G1 X1.145 Y-10.913
G1 X1.344 Y-9.851
G1 X1.409 Y-9.602
G1 X1.750 Y-8.580
G1 X2.201 Y-7.613
G1 X2.790 Y-6.675
G1 X3.475 Y-5.840
G1 X4.808 Y-4.563
G1 X5.908 Y-3.416
G1 X6.674 Y-2.790
G1 X6.957 Y-2.607
G1 X7.613 Y-2.201
G1 X8.614 Y-1.733
G1 X9.678 Y-1.386
G1 X10.913 Y-1.145
G1 X12.100 Y-1.070
G1 X30.485 Y-1.070
G1 X30.485 Y1.070
G1 X12.100 Y1.070
G1 X10.913 Y1.145
G1 X9.790 Y1.357
G1 X8.581 Y1.750
G1 X7.612 Y2.201
G1 X6.675 Y2.790
G1 X5.840 Y3.475
G1 X4.807 Y4.563
G1 X3.475 Y5.840
G1 X2.790 Y6.675
G1 X2.201 Y7.612
G1 X1.733 Y8.614
G1 X1.385 Y9.681
G1 X1.145 Y10.912
G1 X1.070 Y12.100
G1 X1.070 Y30.485
G1 X-1.070 Y30.485
G1 X-1.070 Y12.100
G1 X-1.145 Y10.913
G1 X-1.357 Y9.790
G1 X-1.750 Y8.581
G1 X-2.201 Y7.612
G1 X-2.790 Y6.675
G1 X-3.475 Y5.840
G1 X-4.807 Y4.563
G1 X-5.840 Y3.475
G1 X-6.675 Y2.790
G1 X-7.612 Y2.201
G1 X-8.614 Y1.733
G1 X-9.681 Y1.385
G1 X-10.912 Y1.145
G1 X-12.100 Y1.070
G1 X-30.485 Y1.070
G1 X-30.485 Y-1.070
G1 X-12.100 Y-1.070
G1 X-10.913 Y-1.145
G1 X-9.790 Y-1.357
G1 X-8.581 Y-1.750
G1 X-7.613 Y-2.201
G1 X-6.675 Y-2.790
G1 X-5.840 Y-3.475
G1 X-4.807 Y-4.563
G1 X-3.475 Y-5.840
G1 X-2.790 Y-6.674
G1 X-2.607 Y-6.957
G1 X-2.201 Y-7.613
G1 X-1.733 Y-8.614
G1 X-1.385 Y-9.681
G1 X-1.145 Y-10.912
G1 X-1.070 Y-12.100
G1 X-1.070 Y-30.425
G22 ; retract
G1 X0.777 Y-7.819 F9000.000
G23 ; unretract
M700 P0.125664
G1 X-0.654 Y-9.249 F7200.000
G1 X-3.395 Y-4.882
G1 X4.884 Y3.397
G1 X1.564 Y7.186
G1 X-7.186 Y-1.564
M700 P0.000000
G1 X7.825 Y-0.771 F9000.000
M700 P0.125664
G1 X9.254 Y0.659 F7200.000
G22 ; retract
G1 Z1.300 F9000.000
G1 X-1.070 Y-30.485 F9000.000
G23 ; unretract
M700 P0.019463
G1 X1.070 Y-30.485 F2400.000
G1 X1.070 Y-12.123
G1 X1.146 Y-10.934
G1 X1.402 Y-9.651
G1 X1.750 Y-8.606
G1 X2.203 Y-7.634
G1 X2.793 Y-6.696
G1 X3.479 Y-5.860
G1 X4.822 Y-4.576
G1 X5.953 Y-3.400
G1 X6.695 Y-2.793
G1 X7.006 Y-2.592
G1 X7.634 Y-2.203
G1 X8.639 Y-1.733
G1 X9.870 Y-1.346
G1 X10.935 Y-1.146
G1 X12.123 Y-1.070
G1 X30.485 Y-1.070
G1 X30.485 Y1.070
G1 X12.123 Y1.070
G1 X10.935 Y1.146
G1 X9.807 Y1.359
G1 X8.607 Y1.749
G1 X7.634 Y2.203
G1 X6.696 Y2.793
G1 X5.860 Y3.480
G1 X4.821 Y4.577
G1 X3.479 Y5.860
G1 X2.793 Y6.696
G1 X2.203 Y7.634
G1 X1.734 Y8.638
G1 X1.383 Y9.714
G1 X1.146 Y10.934
G1 X1.070 Y12.123
G1 X1.070 Y30.485
G1 X-1.070 Y30.485
G1 X-1.070 Y12.123
G1 X-1.146 Y10.935
G1 X-1.359 Y9.807
G1 X-1.749 Y8.607
G1 X-2.203 Y7.634
G1 X-2.793 Y6.696
G1 X-3.479 Y5.860
G1 X-4.821 Y4.577
G1 X-5.860 Y3.480
G1 X-6.696 Y2.793
G1 X-7.634 Y2.203
G1 X-8.638 Y1.734
G1 X-9.714 Y1.383
G1 X-10.934 Y1.146
G1 X-12.123 Y1.070
G1 X-30.485 Y1.070
G1 X-30.485 Y-1.070
G1 X-12.123 Y-1.070
G1 X-10.935 Y-1.146
G1 X-9.807 Y-1.359
G1 X-8.607 Y-1.749
G1 X-7.634 Y-2.203
G1 X-6.696 Y-2.793
G1 X-5.860 Y-3.480
G1 X-4.821 Y-4.577
G1 X-3.479 Y-5.860
G1 X-2.794 Y-6.695
G1 X-2.592 Y-7.006
G1 X-2.203 Y-7.634
G1 X-1.734 Y-8.638
G1 X-1.383 Y-9.714
G1 X-1.146 Y-10.934
G1 X-1.070 Y-12.123
G1 X-1.070 Y-30.425
G22 ; retract
G1 X1.574 Y-7.195 F9000.000
G23 ; unretract
M700 P0.125664
G1 X-7.195 Y1.574 F7200.000
G1 X-3.408 Y4.895
G1 X4.902 Y-3.415
G1 X9.255 Y-0.660
G1 X7.804 Y0.791
M700 P0.000000
G1 X0.783 Y7.812 F9000.000
M700 P0.125664
G1 X-0.665 Y9.260 F7200.000
G22 ; retract
G1 Z1.350 F9000.000
G1 X-1.070 Y-30.485 F9000.000
G23 ; unretract
M700 P0.019463
G1 X1.070 Y-30.485 F2400.000
G1 X1.070 Y-12.147
G1 X1.146 Y-10.956
G1 X1.396 Y-9.695
G1 X1.749 Y-8.632
G1 X2.205 Y-7.655
G1 X2.796 Y-6.716
G1 X3.484 Y-5.881
G1 X4.836 Y-4.590
G1 X5.879 Y-3.486
G1 X6.716 Y-2.796
G1 X7.054 Y-2.577
G1 X7.655 Y-2.205
G1 X8.652 Y-1.737
G1 X9.875 Y-1.350
G1 X10.957 Y-1.146
G1 X12.147 Y-1.070
G1 X30.485 Y-1.070
G1 X30.485 Y1.070
G1 X12.147 Y1.070
G1 X10.957 Y1.146
G1 X9.823 Y1.361
G1 X8.632 Y1.749
G1 X7.655 Y2.205
G1 X6.716 Y2.796
G1 X5.880 Y3.484
G1 X4.836 Y4.590
G1 X3.484 Y5.881
G1 X2.796 Y6.716
G1 X2.205 Y7.655
G1 X1.738 Y8.651
G1 X1.380 Y9.747
G1 X1.146 Y10.957
G1 X1.070 Y12.147
G1 X1.070 Y30.485
G1 X-1.070 Y30.485
G1 X-1.070 Y12.147
G1 X-1.146 Y10.957
G1 X-1.361 Y9.823
G1 X-1.749 Y8.632
G1 X-2.205 Y7.655
G1 X-2.796 Y6.716
G1 X-3.484 Y5.881
G1 X-4.836 Y4.590
G1 X-5.880 Y3.484
G1 X-6.716 Y2.796
G1 X-7.655 Y2.205
G1 X-8.651 Y1.738
G1 X-9.747 Y1.380
G1 X-10.957 Y1.146
G1 X-12.147 Y1.070
G1 X-30.485 Y1.070
G1 X-30.485 Y-1.070
G1 X-12.147 Y-1.070
G1 X-10.957 Y-1.146
G1 X-9.823 Y-1.361
G1 X-8.633 Y-1.749
G1 X-7.655 Y-2.205
G1 X-6.716 Y-2.796
G1 X-5.880 Y-3.484
G1 X-4.836 Y-4.590
G1 X-3.484 Y-5.881
G1 X-2.797 Y-6.715
G1 X-2.577 Y-7.054
G1 X-2.205 Y-7.655
G1 X-1.734 Y-8.661
G1 X-1.380 Y-9.747
G1 X-1.146 Y-10.957
G1 X-1.070 Y-12.147
G1 X-1.070 Y-30.425
G22 ; retract
G1 X0.801 Y-7.794 F9000.000
G23 ; unretract
M700 P0.125664
G1 X-0.663 Y-9.259 F7200.000
G1 X-3.421 Y-4.908
G1 X4.910 Y3.423
G1 X1.583 Y7.205
G1 X-7.205 Y-1.583
M700 P0.000000
G1 X7.798 Y-0.797 F9000.000
M700 P0.125664
G1 X9.266 Y0.670 F7200.000
G22 ; retract
G1 Z1.400 F9000.000
G1 X-1.070 Y-30.485 F9000.000
G23 ; unretract
M700 P0.019463
G1 X1.070 Y-30.485 F2400.000
G1 X1.070 Y-12.170
G1 X1.146 Y-10.979
G1 X1.391 Y-9.739
G1 X1.748 Y-8.658
G1 X2.207 Y-7.676
G1 X2.799 Y-6.737
G1 X3.488 Y-5.901
G1 X4.850 Y-4.604
G1 X5.899 Y-3.490
G1 X6.737 Y-2.799
G1 X7.676 Y-2.207
G1 X8.686 Y-1.734
G1 X9.881 Y-1.355
G1 X10.979 Y-1.146
G1 X12.170 Y-1.070
G1 X30.485 Y-1.070
G1 X30.485 Y1.070
G1 X12.170 Y1.070
G1 X10.979 Y1.146
G1 X9.840 Y1.363
G1 X8.658 Y1.748
G1 X7.676 Y2.207
G1 X6.737 Y2.799
G1 X5.901 Y3.488
G1 X4.850 Y4.604
G1 X3.488 Y5.901
G1 X2.799 Y6.737
G1 X2.207 Y7.676
G1 X1.735 Y8.685
G1 X1.378 Y9.779
G1 X1.146 Y10.979
G1 X1.070 Y12.170
G1 X1.070 Y30.485
G1 X-1.070 Y30.485
G1 X-1.070 Y12.170
G1 X-1.146 Y10.979
G1 X-1.363 Y9.840
G1 X-1.748 Y8.658
G1 X-2.207 Y7.676
G1 X-2.799 Y6.737
G1 X-3.488 Y5.901
G1 X-4.850 Y4.604
G1 X-5.901 Y3.488
G1 X-6.737 Y2.799
G1 X-7.676 Y2.207
G1 X-8.685 Y1.735
G1 X-9.779 Y1.378
G1 X-10.979 Y1.146
G1 X-12.170 Y1.070
G1 X-30.485 Y1.070
G1 X-30.485 Y-1.070
G1 X-12.170 Y-1.070
G1 X-10.979 Y-1.146
G1 X-9.840 Y-1.363
G1 X-8.658 Y-1.748
G1 X-7.676 Y-2.207
G1 X-6.737 Y-2.799
G1 X-5.901 Y-3.488
G1 X-4.850 Y-4.604
G1 X-3.488 Y-5.901
G1 X-2.800 Y-6.736
G1 X-2.563 Y-7.103
G1 X-2.207 Y-7.677
G1 X-1.735 Y-8.685
G1 X-1.378 Y-9.779
G1 X-1.146 Y-10.979
G1 X-1.070 Y-12.170
G1 X-1.070 Y-30.425
G22 ; retract
G1 X1.593 Y-7.214 F9000.000
G23 ; unretract
M700 P0.125664
G1 X-7.214 Y1.593 F7200.000
G1 X-3.434 Y4.920
G1 X4.923 Y-3.436
G1 X9.262 Y-0.667
G1 X7.781 Y0.814
M700 P0.000000
G1 X0.808 Y7.788 F9000.000
M700 P0.125664
G1 X-0.676 Y9.272 F7200.000
G22 ; retract
G1 Z1.450 F9000.000
G1 X-1.070 Y-30.485 F9000.000
G23 ; unretract
M700 P0.019463
G1 X1.070 Y-30.485 F2400.000
G1 X1.070 Y-12.193
G1 X1.146 Y-11.001
G1 X1.385 Y-9.782
G1 X1.748 Y-8.684
G1 X2.209 Y-7.697
G1 X2.802 Y-6.757
G1 X3.493 Y-5.921
G1 X4.864 Y-4.617
G1 X5.919 Y-3.494
G1 X6.758 Y-2.802
G1 X7.697 Y-2.209
G1 X8.709 Y-1.735
G1 X9.812 Y-1.376
G1 X11.001 Y-1.146
G1 X12.193 Y-1.070
G1 X30.485 Y-1.070
G1 X30.485 Y1.070
G1 X12.193 Y1.070
G1 X11.002 Y1.146
G1 X9.856 Y1.365
G1 X8.684 Y1.748
G1 X7.697 Y2.209
G1 X6.757 Y2.802
G1 X5.921 Y3.493
G1 X4.864 Y4.617
G1 X3.493 Y5.921
G1 X2.802 Y6.757
G1 X2.209 Y7.697
G1 X1.735 Y8.709
G1 X1.376 Y9.812
G1 X1.146 Y11.001
G1 X1.070 Y12.193
G1 X1.070 Y30.485
G1 X-1.070 Y30.485
G1 X-1.070 Y12.193
G1 X-1.146 Y11.002
G1 X-1.365 Y9.856
G1 X-1.748 Y8.684
G1 X-2.209 Y7.697
G1 X-2.802 Y6.757
G1 X-3.493 Y5.921
G1 X-4.864 Y4.617
G1 X-5.921 Y3.493
G1 X-6.757 Y2.802
G1 X-7.697 Y2.209
G1 X-8.709 Y1.735
G1 X-9.812 Y1.376
G1 X-11.001 Y1.146
G1 X-12.193 Y1.070
G1 X-30.485 Y1.070
G1 X-30.485 Y-1.070
G1 X-12.193 Y-1.070
G1 X-11.002 Y-1.146
G1 X-9.856 Y-1.365
G1 X-8.684 Y-1.748
G1 X-7.697 Y-2.209
G1 X-6.757 Y-2.802
G1 X-5.921 Y-3.493
G1 X-4.864 Y-4.617
G1 X-3.493 Y-5.921
G1 X-2.803 Y-6.756
G1 X-2.548 Y-7.152
G1 X-2.209 Y-7.698
G1 X-1.735 Y-8.709
G1 X-1.376 Y-9.812
G1 X-1.146 Y-11.001
G1 X-1.070 Y-12.193
G1 X-1.070 Y-30.425
G22 ; retract
G1 X0.826 Y-7.770 F9000.000
G23 ; unretract
M700 P0.125664
G1 X-0.671 Y-9.267 F7200.000
G1 X-3.447 Y-4.933
G1 X4.936 Y3.449
G1 X1.602 Y7.224
G1 X-7.224 Y-1.602
M700 P0.000000
G1 X7.776 Y-0.820 F9000.000
M700 P0.125664
G1 X9.277 Y0.682 F7200.000
G22 ; retract
G1 Z1.500 F9000.000
G1 X-1.070 Y-30.485 F9000.000
G23 ; unretract
M700 P0.019463
G1 X1.070 Y-30.485 F2400.000
G1 X1.070 Y-12.216
G1 X1.146 Y-11.024
G1 X1.380 Y-9.826
G1 X1.747 Y-8.710
G1 X2.211 Y-7.718
G1 X2.805 Y-6.778
G1 X3.497 Y-5.942
G1 X4.878 Y-4.631
G1 X5.940 Y-3.499
G1 X6.778 Y-2.805
G1 X7.718 Y-2.212
G1 X8.732 Y-1.736
G1 X9.845 Y-1.374
G1 X11.024 Y-1.146
G1 X12.216 Y-1.070
G1 X30.485 Y-1.070
G1 X30.485 Y1.070
G1 X12.216 Y1.070
G1 X11.024 Y1.146
G1 X9.872 Y1.367
G1 X8.710 Y1.747
G1 X7.718 Y2.211
G1 X6.778 Y2.805
G1 X5.941 Y3.497
G1 X4.878 Y4.631
G1 X3.497 Y5.942
G1 X2.805 Y6.778
G1 X2.212 Y7.718
G1 X1.736 Y8.732
G1 X1.374 Y9.845
G1 X1.146 Y11.024
G1 X1.070 Y12.216
G1 X1.070 Y30.485
G1 X-1.070 Y30.485
G1 X-1.070 Y12.216
G1 X-1.146 Y11.024
G1 X-1.367 Y9.872
G1 X-1.747 Y8.710
G1 X-2.211 Y7.718
G1 X-2.805 Y6.778
G1 X-3.497 Y5.942
G1 X-4.878 Y4.631
G1 X-5.941 Y3.497
G1 X-6.778 Y2.805
G1 X-7.718 Y2.212
G1 X-8.732 Y1.736
G1 X-9.845 Y1.374
G1 X-11.024 Y1.146
G1 X-12.216 Y1.070
G1 X-30.485 Y1.070
G1 X-30.485 Y-1.070
G1 X-12.216 Y-1.070
G1 X-11.024 Y-1.146
G1 X-9.872 Y-1.367
G1 X-8.710 Y-1.747
G1 X-7.718 Y-2.211
G1 X-6.778 Y-2.805
G1 X-5.941 Y-3.497
G1 X-4.878 Y-4.631
G1 X-3.497 Y-5.942
G1 X-2.806 Y-6.777
G1 X-2.533 Y-7.200
G1 X-2.211 Y-7.719
G1 X-1.736 Y-8.732
G1 X-1.374 Y-9.845
G1 X-1.146 Y-11.024
G1 X-1.070 Y-12.216
G1 X-1.070 Y-30.425
G22 ; retract
G1 X1.612 Y-7.234 F9000.000
G23 ; unretract
M700 P0.125664
G1 X-7.234 Y1.612 F7200.000
G1 X-3.460 Y4.946
G1 X4.949 Y-3.462
G1 X9.270 Y-0.674
G1 X7.758 Y0.838
M700 P0.000000
G1 X0.832 Y7.764 F9000.000
M700 P0.125664
G1 X-0.688 Y9.283 F7200.000
G22 ; retract
G1 Z1.550 F9000.000
G1 X-1.070 Y-30.485 F9000.000
G23 ; unretract
M700 P0.019463
G1 X1.070 Y-30.485 F2400.000
G1 X1.070 Y-12.239
G1 X1.146 Y-11.046
G1 X1.374 Y-9.870
G1 X1.746 Y-8.736
G1 X2.214 Y-7.739
G1 X2.809 Y-6.798
G1 X3.501 Y-5.962
G1 X4.892 Y-4.644
G1 X5.960 Y-3.503
G1 X6.799 Y-2.808
G1 X7.739 Y-2.214
G1 X8.756 Y-1.736
G1 X9.878 Y-1.372
G1 X11.046 Y-1.146
G1 X12.239 Y-1.070
G1 X30.485 Y-1.070
G1 X30.485 Y1.070
G1 X12.239 Y1.070
G1 X11.046 Y1.146
G1 X9.889 Y1.369
G1 X8.736 Y1.746
G1 X7.739 Y2.214
G1 X6.798 Y2.809
G1 X5.961 Y3.502
G1 X4.892 Y4.644
G1 X3.501 Y5.962
G1 X2.809 Y6.798
G1 X2.214 Y7.739
G1 X1.736 Y8.756
G1 X1.372 Y9.878
G1 X1.146 Y11.046
G1 X1.070 Y12.239
G1 X1.070 Y30.485
G1 X-1.070 Y30.485
G1 X-1.070 Y12.239
G1 X-1.146 Y11.046
G1 X-1.369 Y9.889
G1 X-1.746 Y8.736
G1 X-2.214 Y7.739
G1 X-2.809 Y6.798
G1 X-3.501 Y5.962
G1 X-4.892 Y4.644
G1 X-5.961 Y3.502
G1 X-6.798 Y2.809
G1 X-7.739 Y2.214
G1 X-8.756 Y1.736
G1 X-9.878 Y1.372
G1 X-11.046 Y1.146
G1 X-12.239 Y1.070
G1 X-30.485 Y1.070
G1 X-30.485 Y-1.070
G1 X-12.239 Y-1.070
G1 X-11.046 Y-1.146
G1 X-9.889 Y-1.369
G1 X-8.736 Y-1.746
G1 X-7.739 Y-2.214
G1 X-6.798 Y-2.809
G1 X-5.961 Y-3.502
G1 X-4.892 Y-4.644
G1 X-3.501 Y-5.962
G1 X-2.809 Y-6.798
G1 X-2.518 Y-7.249
G1 X-2.213 Y-7.740
G1 X-1.736 Y-8.756
G1 X-1.372 Y-9.878
G1 X-1.146 Y-11.046
G1 X-1.070 Y-12.239
G1 X-1.070 Y-30.425
G22 ; retract
G1 X0.849 Y-7.746 F9000.000
G23 ; unretract
M700 P0.125664
G1 X-0.679 Y-9.274 F7200.000
G1 X-3.473 Y-4.959
G1 X4.962 Y3.475
G1 X1.621 Y7.243
G1 X-7.243 Y-1.621
M700 P0.000000
G1 X7.752 Y-0.844 F9000.000
M700 P0.125664
G1 X9.289 Y0.693 F7200.000
G22 ; retract
G1 Z1.600 F9000.000
G1 X-1.070 Y-30.485 F9000.000
G23 ; unretract
M700 P0.019463
G1 X1.070 Y-30.485 F2400.000
G1 X1.070 Y-12.262
G1 X1.146 Y-11.068
G1 X1.371 Y-9.907
G1 X1.746 Y-8.762
G1 X2.216 Y-7.760
G1 X2.812 Y-6.819
G1 X3.506 Y-5.982
G1 X4.906 Y-4.658
G1 X5.980 Y-3.508
G1 X6.820 Y-2.811
G1 X7.760 Y-2.216
G1 X8.780 Y-1.737
G1 X9.907 Y-1.370
G1 X11.068 Y-1.146
G1 X12.262 Y-1.070
G1 X30.485 Y-1.070
G1 X30.485 Y1.070
G1 X12.262 Y1.070
G1 X11.068 Y1.146
G1 X9.907 Y1.371
G1 X8.762 Y1.746
G1 X7.760 Y2.216
G1 X6.819 Y2.812
G1 X5.982 Y3.506
G1 X4.906 Y4.658
G1 X3.506 Y5.982
G1 X2.812 Y6.819
G1 X2.216 Y7.760
G1 X1.737 Y8.780
G1 X1.370 Y9.907
G1 X1.146 Y11.068
G1 X1.070 Y12.262
G1 X1.070 Y30.485
G1 X-1.070 Y30.485
G1 X-1.070 Y12.262
G1 X-1.146 Y11.068
G1 X-1.371 Y9.907
G1 X-1.746 Y8.762
G1 X-2.216 Y7.760
G1 X-2.812 Y6.819
G1 X-3.506 Y5.982
G1 X-4.906 Y4.658
G1 X-5.982 Y3.506
G1 X-6.819 Y2.812
G1 X-7.760 Y2.216
G1 X-8.780 Y1.737
G1 X-9.907 Y1.370
G1 X-11.068 Y1.146
G1 X-12.262 Y1.070
G1 X-30.485 Y1.070
G1 X-30.485 Y-1.070
G1 X-12.262 Y-1.070
G1 X-11.068 Y-1.146
G1 X-9.907 Y-1.371
G1 X-8.762 Y-1.746
G1 X-7.760 Y-2.216
G1 X-6.819 Y-2.812
G1 X-5.982 Y-3.506
G1 X-4.906 Y-4.658
G1 X-3.506 Y-5.982
G1 X-2.812 Y-6.818
G1 X-2.503 Y-7.298
G1 X-2.215 Y-7.761
G1 X-1.737 Y-8.780
G1 X-1.370 Y-9.907
G1 X-1.146 Y-11.068
G1 X-1.070 Y-12.262
G1 X-1.070 Y-30.425
G22 ; retract
G1 X1.631 Y-7.253 F9000.000
G23 ; unretract
M700 P0.125664
G1 X-7.253 Y1.631 F7200.000
G1 X-3.486 Y4.972
G1 X4.975 Y-3.488
G1 X9.278 Y-0.683
G1 X7.735 Y0.861
M700 P0.000000
G1 X0.856 Y7.739 F9000.000
M700 P0.125664
G1 X-0.699 Y9.295 F7200.000
G22 ; retract
G1 Z1.650 F9000.000
G1 X-1.070 Y-30.485 F9000.000
G23 ; unretract
M700 P0.019463
G1 X1.070 Y-30.485 F2400.000
G1 X1.070 Y-12.286
G1 X1.146 Y-11.091
G1 X1.363 Y-9.950
G1 X1.745 Y-8.787
G1 X2.218 Y-7.782
G1 X2.815 Y-6.840
G1 X3.511 Y-6.002
G1 X4.321 Y-5.254
G1 X4.919 Y-4.672
G1 X6.001 Y-3.512
G1 X6.840 Y-2.814
G1 X7.782 Y-2.218
G1 X8.803 Y-1.737
G1 X9.950 Y-1.364
G1 X11.091 Y-1.146
G1 X12.286 Y-1.070
G1 X30.485 Y-1.070
G1 X30.485 Y1.070
G1 X12.286 Y1.070
G1 X11.091 Y1.146
G1 X9.950 Y1.363
G1 X8.787 Y1.745
G1 X7.782 Y2.218
G1 X6.840 Y2.815
G1 X6.002 Y3.511
G1 X4.919 Y4.672
G1 X4.321 Y5.254
G1 X3.511 Y6.002
G1 X2.815 Y6.840
G1 X2.218 Y7.782
G1 X1.737 Y8.803
G1 X1.364 Y9.950
G1 X1.146 Y11.091
G1 X1.070 Y12.286
G1 X1.070 Y30.485
G1 X-1.070 Y30.485
G1 X-1.070 Y12.286
G1 X-1.146 Y11.091
G1 X-1.363 Y9.950
G1 X-1.745 Y8.787
G1 X-2.218 Y7.782
G1 X-2.815 Y6.840
G1 X-3.511 Y6.002
G1 X-4.321 Y5.254
G1 X-4.919 Y4.672
G1 X-6.002 Y3.511
G1 X-6.840 Y2.815
G1 X-7.782 Y2.218
G1 X-8.803 Y1.737
G1 X-9.950 Y1.364
G1 X-11.091 Y1.146
G1 X-12.286 Y1.070
G1 X-30.485 Y1.070
G1 X-30.485 Y-1.070
G1 X-12.286 Y-1.070
G1 X-11.091 Y-1.146
G1 X-9.950 Y-1.363
G1 X-8.787 Y-1.745
G1 X-7.782 Y-2.218
G1 X-6.840 Y-2.815
G1 X-6.002 Y-3.511
G1 X-4.919 Y-4.672
G1 X-4.321 Y-5.254
G1 X-3.511 Y-6.002
G1 X-2.815 Y-6.839
G1 X-2.488 Y-7.346
G1 X-2.217 Y-7.782
G1 X-1.737 Y-8.803
G1 X-1.364 Y-9.950
G1 X-1.146 Y-11.091
G1 X-1.070 Y-12.286
G1 X-1.070 Y-30.425
G22 ; retract
G1 X0.873 Y-7.723 F9000.000
G23 ; unretract
M700 P0.125664
G1 X-0.686 Y-9.282 F7200.000
G1 X-3.504 Y-4.991
G1 X4.988 Y3.501
G1 X1.641 Y7.262
G1 X-7.262 Y-1.641
M700 P0.000000
G1 X7.727 Y-0.868 F9000.000
M700 P0.125664
G1 X9.297 Y0.701 F7200.000
G22 ; retract
G1 Z1.700 F9000.000
G1 X-1.070 Y-30.485 F9000.000
G23 ; unretract
M700 P0.019463
G1 X1.070 Y-30.485 F2400.000
G1 X1.070 Y-12.309
G1 X1.146 Y-11.113
G1 X1.371 Y-9.950
G1 X1.745 Y-8.813
G1 X2.220 Y-7.803
G1 X2.818 Y-6.860
G1 X3.516 Y-6.022
G1 X4.335 Y-5.268
G1 X4.933 Y-4.686
G1 X6.021 Y-3.516
G1 X6.861 Y-2.818
G1 X7.803 Y-2.220
G1 X8.827 Y-1.738
G1 X9.950 Y-1.371
G1 X11.113 Y-1.146
G1 X12.309 Y-1.070
G1 X30.485 Y-1.070
G1 X30.485 Y1.070
G1 X12.309 Y1.070
G1 X11.113 Y1.146
G1 X9.950 Y1.371
G1 X8.813 Y1.745
G1 X7.803 Y2.220
G1 X6.860 Y2.818
G1 X6.022 Y3.515
G1 X4.933 Y4.686
G1 X4.335 Y5.268
G1 X3.516 Y6.022
G1 X2.818 Y6.860
G1 X2.220 Y7.803
G1 X1.738 Y8.827
G1 X1.371 Y9.950
G1 X1.146 Y11.113
G1 X1.070 Y12.309
G1 X1.070 Y30.485
G1 X-1.070 Y30.485
G1 X-1.070 Y12.309
G1 X-1.146 Y11.113
G1 X-1.371 Y9.950
G1 X-1.745 Y8.813
G1 X-2.220 Y7.803
G1 X-2.818 Y6.860
G1 X-3.516 Y6.022
G1 X-4.335 Y5.268
G1 X-4.933 Y4.686
G1 X-6.022 Y3.515
G1 X-6.860 Y2.818
G1 X-7.803 Y2.220
G1 X-8.827 Y1.738
G1 X-9.950 Y1.371
G1 X-11.113 Y1.146
G1 X-12.309 Y1.070
G1 X-30.485 Y1.070
G1 X-30.485 Y-1.070
G1 X-12.309 Y-1.070
G1 X-11.113 Y-1.146
G1 X-9.950 Y-1.371
G1 X-8.813 Y-1.745
G1 X-7.803 Y-2.220
G1 X-6.860 Y-2.818
G1 X-6.022 Y-3.515
G1 X-4.933 Y-4.686
G1 X-4.335 Y-5.268
G1 X-3.516 Y-6.022
G1 X-2.819 Y-6.860
G1 X-2.473 Y-7.395
G1 X-2.219 Y-7.804
G1 X-1.738 Y-8.827
G1 X-1.371 Y-9.950
G1 X-1.146 Y-11.113
G1 X-1.070 Y-12.309
G1 X-1.070 Y-30.425
G22 ; retract
G1 X1.650 Y-7.272 F9000.000
G23 ; unretract
M700 P0.125664
G1 X-7.272 Y1.650 F7200.000
G1 X-3.517 Y5.004
G1 X5.002 Y-3.515
G1 X9.286 Y-0.690
G1 X7.707 Y0.888
M700 P0.000000
G1 X0.887 Y7.708 F9000.000
M700 P0.125664
G1 X-0.701 Y9.297 F7200.000
G22 ; retract
G1 Z1.750 F9000.000
G1 X-1.070 Y-30.485 F9000.000
G23 ; unretract
M700 P0.019463
G1 X1.070 Y-30.485 F2400.000
G1 X1.070 Y-12.332
G1 X1.147 Y-11.135
G1 X1.376 Y-9.949
G1 X1.744 Y-8.839
G1 X2.222 Y-7.824
G1 X2.821 Y-6.881
G1 X3.520 Y-6.042
G1 X4.349 Y-5.281
G1 X4.948 Y-4.699
G1 X6.042 Y-3.521
G1 X6.882 Y-2.821
G1 X7.824 Y-2.222
G1 X8.850 Y-1.738
G1 X9.950 Y-1.376
G1 X11.135 Y-1.147
G1 X12.332 Y-1.070
G1 X30.485 Y-1.070
G1 X30.485 Y1.070
G1 X12.332 Y1.070
G1 X11.135 Y1.147
G1 X9.949 Y1.376
G1 X8.839 Y1.744
G1 X7.824 Y2.222
G1 X6.881 Y2.821
G1 X6.043 Y3.520
G1 X4.948 Y4.699
G1 X4.349 Y5.281
G1 X3.520 Y6.042
G1 X2.821 Y6.881
G1 X2.222 Y7.824
G1 X1.738 Y8.850
G1 X1.376 Y9.950
G1 X1.147 Y11.135
G1 X1.070 Y12.332
G1 X1.070 Y30.485
G1 X-1.070 Y30.485
G1 X-1.070 Y12.332
G1 X-1.147 Y11.135
G1 X-1.376 Y9.949
G1 X-1.744 Y8.839
G1 X-2.222 Y7.824
G1 X-2.821 Y6.881
G1 X-3.520 Y6.042
G1 X-4.349 Y5.281
G1 X-4.948 Y4.699
G1 X-6.043 Y3.520
G1 X-6.881 Y2.821
G1 X-7.824 Y2.222
G1 X-8.850 Y1.738
G1 X-9.950 Y1.376
G1 X-11.135 Y1.147
G1 X-12.332 Y1.070
G1 X-30.485 Y1.070
G1 X-30.485 Y-1.070
G1 X-12.332 Y-1.070
G1 X-11.135 Y-1.147
G1 X-9.949 Y-1.376
G1 X-8.839 Y-1.744
G1 X-7.824 Y-2.222
G1 X-6.881 Y-2.821
G1 X-6.043 Y-3.520
G1 X-4.948 Y-4.699
G1 X-4.349 Y-5.281
G1 X-3.520 Y-6.042
G1 X-2.822 Y-6.880
G1 X-2.458 Y-7.444
G1 X-2.221 Y-7.825
G1 X-1.738 Y-8.850
G1 X-1.376 Y-9.950
G1 X-1.147 Y-11.135
G1 X-1.070 Y-12.332
G1 X-1.070 Y-30.425
G22 ; retract
G1 X0.910 Y-7.686 F9000.000
G23 ; unretract
M700 P0.125664
G1 X-0.694 Y-9.289 F7200.000
G1 X-3.530 Y-5.017
G1 X5.015 Y3.528
G1 X1.660 Y7.281
G1 X-7.281 Y-1.660
M700 P0.000000
G1 X7.686 Y-0.909 F9000.000
M700 P0.125664
G1 X9.297 Y0.701 F7200.000
G22 ; retract
G1 Z1.800 F9000.000
G1 X-1.070 Y-30.485 F9000.000
G23 ; unretract
M700 P0.019463
G1 X1.070 Y-30.485 F2400.000
G1 X1.070 Y-12.355
G1 X1.147 Y-11.157
G1 X1.381 Y-9.949
G1 X1.744 Y-8.864
G1 X2.224 Y-7.845
G1 X2.824 Y-6.901
G1 X3.524 Y-6.062
G1 X4.363 Y-5.294
G1 X4.962 Y-4.713
G1 X6.062 Y-3.525
G1 X6.902 Y-2.824
G1 X7.845 Y-2.224
G1 X8.874 Y-1.739
G1 X9.949 Y-1.381
G1 X11.157 Y-1.147
G1 X12.355 Y-1.070
G1 X30.485 Y-1.070
G1 X30.485 Y1.070
G1 X12.355 Y1.070
G1 X11.157 Y1.147
G1 X9.949 Y1.381
G1 X8.864 Y1.744
G1 X7.845 Y2.224
G1 X6.901 Y2.824
G1 X6.063 Y3.524
G1 X4.962 Y4.713
G1 X4.363 Y5.294
G1 X3.524 Y6.062
G1 X2.824 Y6.901
G1 X2.224 Y7.845
G1 X1.739 Y8.874
G1 X1.381 Y9.949
G1 X1.147 Y11.157
G1 X1.070 Y12.355
G1 X1.070 Y30.485
G1 X-1.070 Y30.485
G1 X-1.070 Y12.355
G1 X-1.147 Y11.157
G1 X-1.381 Y9.949
G1 X-1.744 Y8.864
G1 X-2.224 Y7.845
G1 X-2.824 Y6.901
G1 X-3.524 Y6.062
G1 X-4.363 Y5.294
G1 X-4.962 Y4.713
G1 X-6.063 Y3.524
G1 X-6.901 Y2.824
G1 X-7.845 Y2.224
G1 X-8.874 Y1.739
G1 X-9.949 Y1.381
G1 X-11.157 Y1.147
G1 X-12.355 Y1.070
G1 X-30.485 Y1.070
G1 X-30.485 Y-1.070
G1 X-12.355 Y-1.070
G1 X-11.157 Y-1.147
G1 X-9.949 Y-1.381
G1 X-8.864 Y-1.744
G1 X-7.845 Y-2.224
G1 X-6.901 Y-2.824
G1 X-6.063 Y-3.524
G1 X-4.962 Y-4.713
G1 X-4.363 Y-5.294
G1 X-3.524 Y-6.062
G1 X-2.825 Y-6.901
G1 X-2.443 Y-7.492
G1 X-2.223 Y-7.846
G1 X-1.739 Y-8.874
G1 X-1.381 Y-9.949
G1 X-1.147 Y-11.157
G1 X-1.070 Y-12.355
G1 X-1.070 Y-30.425
G22 ; retract
G1 X1.669 Y-7.291 F9000.000
G23 ; unretract
M700 P0.125664
G1 X-7.291 Y1.669 F7200.000
G1 X-3.544 Y5.031
G1 X5.028 Y-3.541
G1 X9.293 Y-0.697
G1 X7.664 Y0.932
M700 P0.000000
G1 X0.931 Y7.664 F9000.000
M700 P0.125664
G1 X-0.701 Y9.297 F7200.000
G22 ; retract
G1 Z1.850 F9000.000
G1 X-1.070 Y-30.485 F9000.000
G23 ; unretract
M700 P0.019463
G1 X1.070 Y-30.485 F2400.000
G1 X1.070 Y-12.378
G1 X1.147 Y-11.180
G1 X1.373 Y-10.014
G1 X1.743 Y-8.891
G1 X2.226 Y-7.866
G1 X2.828 Y-6.922
G1 X3.529 Y-6.083
G1 X4.377 Y-5.308
G1 X4.976 Y-4.726
G1 X6.082 Y-3.530
G1 X6.923 Y-2.827
G1 X7.866 Y-2.226
G1 X8.898 Y-1.739
G1 X10.014 Y-1.373
G1 X11.180 Y-1.147
G1 X12.378 Y-1.070
G1 X30.485 Y-1.070
G1 X30.485 Y1.070
G1 X12.378 Y1.070
G1 X11.180 Y1.147
G1 X10.014 Y1.373
G1 X8.891 Y1.743
G1 X7.866 Y2.226
G1 X6.922 Y2.828
G1 X6.083 Y3.529
G1 X4.976 Y4.726
G1 X4.377 Y5.308
G1 X3.529 Y6.083
G1 X2.828 Y6.922
G1 X2.226 Y7.866
G1 X1.739 Y8.898
G1 X1.373 Y10.014
G1 X1.147 Y11.180
G1 X1.070 Y12.378
G1 X1.070 Y30.485
G1 X-1.070 Y30.485
G1 X-1.070 Y12.378
G1 X-1.147 Y11.180
G1 X-1.373 Y10.014
G1 X-1.743 Y8.891
G1 X-2.226 Y7.866
G1 X-2.828 Y6.922
G1 X-3.529 Y6.083
G1 X-4.377 Y5.308
G1 X-4.976 Y4.726
G1 X-6.083 Y3.529
G1 X-6.922 Y2.828
G1 X-7.866 Y2.226
G1 X-8.898 Y1.739
G1 X-10.014 Y1.373
G1 X-11.180 Y1.147
G1 X-12.378 Y1.070
G1 X-30.485 Y1.070
G1 X-30.485 Y-1.070
G1 X-12.378 Y-1.070
G1 X-11.180 Y-1.147
G1 X-10.014 Y-1.373
G1 X-8.891 Y-1.743
G1 X-7.866 Y-2.226
G1 X-6.922 Y-2.828
G1 X-6.083 Y-3.529
G1 X-4.976 Y-4.726
G1 X-4.377 Y-5.308
G1 X-3.529 Y-6.083
G1 X-2.828 Y-6.922
G1 X-2.226 Y-7.866
G1 X-1.739 Y-8.898
G1 X-1.373 Y-10.014
G1 X-1.147 Y-11.180
G1 X-1.070 Y-12.378
G1 X-1.070 Y-30.425
G22 ; retract
G1 X0.954 Y-7.642 F9000.000
G23 ; unretract
M700 P0.125664
G1 X-0.701 Y-9.297 F7200.000
G1 X-3.557 Y-5.044
G1 X5.041 Y3.554
G1 X1.679 Y7.301
G1 X-7.301 Y-1.679
M700 P0.000000
G1 X7.642 Y-0.953 F9000.000
M700 P0.125664
G1 X9.297 Y0.701 F7200.000
G22 ; retract
G1 Z1.900 F9000.000
G1 X-1.070 Y-30.485 F9000.000
G23 ; unretract
M700 P0.019463
G1 X1.070 Y-30.485 F2400.000
G1 X1.070 Y-12.401
G1 X1.147 Y-11.202
G1 X1.373 Y-10.035
G1 X1.742 Y-8.916
G1 X2.228 Y-7.887
G1 X2.831 Y-6.943
G1 X3.533 Y-6.103
G1 X4.391 Y-5.321
G1 X4.990 Y-4.740
G1 X6.103 Y-3.534
G1 X6.944 Y-2.830
G1 X7.887 Y-2.228
G1 X8.921 Y-1.740
G1 X10.035 Y-1.373
G1 X11.202 Y-1.147
G1 X12.401 Y-1.070
G1 X30.485 Y-1.070
G1 X30.485 Y1.070
G1 X12.401 Y1.070
G1 X11.202 Y1.147
G1 X10.035 Y1.373
G1 X8.916 Y1.742
G1 X7.887 Y2.228
G1 X6.943 Y2.831
G1 X6.103 Y3.533
G1 X4.990 Y4.740
G1 X4.391 Y5.321
G1 X3.533 Y6.103
G1 X2.831 Y6.943
G1 X2.228 Y7.887
G1 X1.740 Y8.921
G1 X1.373 Y10.035
G1 X1.147 Y11.202
G1 X1.070 Y12.401
G1 X1.070 Y30.485
G1 X-1.070 Y30.485
G1 X-1.070 Y12.401
G1 X-1.147 Y11.202
G1 X-1.373 Y10.035
G1 X-1.742 Y8.916
G1 X-2.228 Y7.887
G1 X-2.831 Y6.943
G1 X-3.533 Y6.103
G1 X-4.391 Y5.321
G1 X-4.990 Y4.740
G1 X-6.103 Y3.533
G1 X-6.943 Y2.831
G1 X-7.887 Y2.228
G1 X-8.921 Y1.740
G1 X-10.035 Y1.373
G1 X-11.202 Y1.147
G1 X-12.401 Y1.070
G1 X-30.485 Y1.070
G1 X-30.485 Y-1.070
G1 X-12.401 Y-1.070
G1 X-11.202 Y-1.147
G1 X-10.035 Y-1.373
G1 X-8.916 Y-1.742
G1 X-7.887 Y-2.228
G1 X-6.943 Y-2.831
G1 X-6.103 Y-3.533
G1 X-4.990 Y-4.740
G1 X-4.391 Y-5.321
G1 X-3.533 Y-6.103
G1 X-2.831 Y-6.943
G1 X-2.228 Y-7.887
G1 X-1.740 Y-8.921
G1 X-1.373 Y-10.035
G1 X-1.147 Y-11.202
G1 X-1.070 Y-12.401
G1 X-1.070 Y-30.425
G22 ; retract
G1 X1.689 Y-7.310 F9000.000
G23 ; unretract
M700 P0.125664
G1 X-7.310 Y1.689 F7200.000
G1 X-3.570 Y5.057
G1 X5.054 Y-3.567
G1 X9.297 Y-0.701
G1 X7.620 Y0.976
M700 P0.000000
G1 X0.975 Y7.620 F9000.000
M700 P0.125664
G1 X-0.701 Y9.297 F7200.000
G22 ; retract
G1 Z1.950 F9000.000
G1 X-1.070 Y-30.485 F9000.000
G23 ; unretract
M700 P0.019463
G1 X1.070 Y-30.485 F2400.000
G1 X1.070 Y-12.425
G1 X1.147 Y-11.224
G1 X1.374 Y-10.057
G1 X1.742 Y-8.942
G1 X2.230 Y-7.908
G1 X2.834 Y-6.963
G1 X3.538 Y-6.123
G1 X4.406 Y-5.334
G1 X5.004 Y-4.753
G1 X6.123 Y-3.538
G1 X6.964 Y-2.833
G1 X7.908 Y-2.230
G1 X8.945 Y-1.740
G1 X10.057 Y-1.374
G1 X11.224 Y-1.147
G1 X12.425 Y-1.070
G1 X30.485 Y-1.070
G1 X30.485 Y1.070
G1 X12.425 Y1.070
G1 X11.224 Y1.147
G1 X10.057 Y1.374
G1 X8.942 Y1.742
G1 X7.908 Y2.230
G1 X6.963 Y2.834
G1 X6.124 Y3.537
G1 X5.004 Y4.753
G1 X4.406 Y5.334
G1 X3.538 Y6.123
G1 X2.834 Y6.963
G1 X2.230 Y7.908
G1 X1.740 Y8.945
G1 X1.374 Y10.057
G1 X1.147 Y11.224
G1 X1.070 Y12.425
G1 X1.070 Y30.485
G1 X-1.070 Y30.485
G1 X-1.070 Y12.425
G1 X-1.147 Y11.224
G1 X-1.374 Y10.057
G1 X-1.742 Y8.942
G1 X-2.230 Y7.908
G1 X-2.834 Y6.963
G1 X-3.538 Y6.123
G1 X-4.406 Y5.334
G1 X-5.004 Y4.753
G1 X-6.124 Y3.537
G1 X-6.963 Y2.834
G1 X-7.908 Y2.230
G1 X-8.945 Y1.740
G1 X-10.057 Y1.374
G1 X-11.224 Y1.147
G1 X-12.425 Y1.070
G1 X-30.485 Y1.070
G1 X-30.485 Y-1.070
G1 X-12.425 Y-1.070
G1 X-11.224 Y-1.147
G1 X-10.057 Y-1.374
G1 X-8.942 Y-1.742
G1 X-7.908 Y-2.230
G1 X-6.963 Y-2.834
G1 X-6.124 Y-3.537
G1 X-5.004 Y-4.753
G1 X-4.406 Y-5.334
G1 X-3.538 Y-6.123
G1 X-2.834 Y-6.963
G1 X-2.398 Y-7.638
G1 X-2.230 Y-7.910
G1 X-1.740 Y-8.945
G1 X-1.374 Y-10.057
G1 X-1.147 Y-11.224
G1 X-1.070 Y-12.425
G1 X-1.070 Y-30.425
G22 ; retract
G1 X0.998 Y-7.598 F9000.000
G23 ; unretract
M700 P0.125664
G1 X-0.701 Y-9.297 F7200.000
G1 X-3.584 Y-5.070
G1 X5.067 Y3.580
G1 X1.698 Y7.320
G1 X-7.320 Y-1.698
M700 P0.000000
G1 X7.598 Y-0.998 F9000.000
M700 P0.125664
G1 X9.297 Y0.701 F7200.000
G22 ; retract
G1 Z2.000 F9000.000
G1 X-1.070 Y-30.485 F9000.000
G23 ; unretract
M700 P0.019463
G1 X1.070 Y-30.485 F2400.000
G1 X1.070 Y-12.448
G1 X1.147 Y-11.246
G1 X1.374 Y-10.078
G1 X1.741 Y-8.968
G1 X2.232 Y-7.930
G1 X2.837 Y-6.984
G1 X3.542 Y-6.144
G1 X4.420 Y-5.348
G1 X5.018 Y-4.767
G1 X6.143 Y-3.543
G1 X6.985 Y-2.836
G1 X7.930 Y-2.232
G1 X8.969 Y-1.741
G1 X10.078 Y-1.374
G1 X11.246 Y-1.147
G1 X12.448 Y-1.070
G1 X30.485 Y-1.070
G1 X30.485 Y1.070
G1 X12.448 Y1.070
G1 X11.246 Y1.147
G1 X10.078 Y1.374
G1 X8.968 Y1.741
G1 X7.930 Y2.232
G1 X6.984 Y2.837
G1 X6.144 Y3.542
G1 X5.018 Y4.767
G1 X4.420 Y5.348
G1 X3.542 Y6.144
G1 X2.837 Y6.984
G1 X2.232 Y7.930
G1 X1.741 Y8.969
G1 X1.374 Y10.078
G1 X1.147 Y11.246
G1 X1.070 Y12.448
G1 X1.070 Y30.485
G1 X-1.070 Y30.485
G1 X-1.070 Y12.448
G1 X-1.147 Y11.246
G1 X-1.374 Y10.078
G1 X-1.741 Y8.968
G1 X-2.232 Y7.930
G1 X-2.837 Y6.984
G1 X-3.542 Y6.144
G1 X-4.420 Y5.348
G1 X-5.018 Y4.767
G1 X-6.144 Y3.542
G1 X-6.984 Y2.837
G1 X-7.930 Y2.232
G1 X-8.969 Y1.741
G1 X-10.078 Y1.374
G1 X-11.246 Y1.147
G1 X-12.448 Y1.070
G1 X-30.485 Y1.070
G1 X-30.485 Y-1.070
G1 X-12.448 Y-1.070
G1 X-11.246 Y-1.147
G1 X-10.078 Y-1.374
G1 X-8.968 Y-1.741
G1 X-7.930 Y-2.232
G1 X-6.984 Y-2.837
G1 X-6.144 Y-3.542
G1 X-5.018 Y-4.767
G1 X-4.420 Y-5.348
G1 X-3.542 Y-6.144
G1 X-2.837 Y-6.984
G1 X-2.232 Y-7.930
G1 X-1.741 Y-8.969
G1 X-1.374 Y-10.078
G1 X-1.147 Y-11.246
G1 X-1.070 Y-12.448
G1 X-1.070 Y-30.425
G22 ; retract
G1 X1.708 Y-7.330 F9000.000
G23 ; unretract
M700 P0.125664
G1 X-7.330 Y1.708 F7200.000
G1 X-3.597 Y5.084
G1 X5.080 Y-3.594
G1 X9.297 Y-0.701
G1 X7.576 Y1.020
M700 P0.000000
G1 X1.020 Y7.576 F9000.000
M700 P0.125664
G1 X-0.701 Y9.297 F7200.000
G22 ; retract
G1 Z2.050 F9000.000
G1 X-1.070 Y-30.485 F9000.000
G23 ; unretract
M700 P0.019463
G1 X1.070 Y-30.485 F2400.000
G1 X1.070 Y-12.471
G1 X1.147 Y-11.269
G1 X1.375 Y-10.099
G1 X1.742 Y-8.990
G1 X2.234 Y-7.951
G1 X2.840 Y-7.004
G1 X3.547 Y-6.164
G1 X4.434 Y-5.361
G1 X5.032 Y-4.780
G1 X6.164 Y-3.547
G1 X7.006 Y-2.840
G1 X7.951 Y-2.234
G1 X8.990 Y-1.742
G1 X10.099 Y-1.375
G1 X11.269 Y-1.147
G1 X12.471 Y-1.070
G1 X30.485 Y-1.070
G1 X30.485 Y1.070
G1 X12.471 Y1.070
G1 X11.269 Y1.147
G1 X10.099 Y1.375
G1 X8.990 Y1.742
G1 X7.951 Y2.234
G1 X7.004 Y2.840
G1 X6.164 Y3.546
G1 X5.032 Y4.780
G1 X4.434 Y5.361
G1 X3.547 Y6.164
G1 X2.840 Y7.004
G1 X2.234 Y7.951
G1 X1.742 Y8.990
G1 X1.375 Y10.099
G1 X1.147 Y11.269
G1 X1.070 Y12.471
G1 X1.070 Y30.485
G1 X-1.070 Y30.485
G1 X-1.070 Y12.471
G1 X-1.147 Y11.269
G1 X-1.375 Y10.099
G1 X-1.742 Y8.990
G1 X-2.234 Y7.951
G1 X-2.840 Y7.004
G1 X-3.547 Y6.164
G1 X-4.434 Y5.361
G1 X-5.032 Y4.780
G1 X-6.164 Y3.546
G1 X-7.004 Y2.840
G1 X-7.951 Y2.234
G1 X-8.990 Y1.742
G1 X-10.099 Y1.375
G1 X-11.269 Y1.147
G1 X-12.471 Y1.070
G1 X-30.485 Y1.070
G1 X-30.485 Y-1.070
G1 X-12.471 Y-1.070
G1 X-11.269 Y-1.147
G1 X-10.099 Y-1.375
G1 X-8.990 Y-1.742
G1 X-7.951 Y-2.234
G1 X-7.004 Y-2.840
G1 X-6.164 Y-3.546
G1 X-5.032 Y-4.780
G1 X-4.434 Y-5.361
G1 X-3.547 Y-6.164
G1 X-2.840 Y-7.004
G1 X-2.234 Y-7.951
G1 X-1.742 Y-8.990
G1 X-1.375 Y-10.099
G1 X-1.147 Y-11.269
G1 X-1.070 Y-12.471
G1 X-1.070 Y-30.425
G22 ; retract
G1 X1.041 Y-7.554 F9000.000
G23 ; unretract
M700 P0.125664
G1 X-0.701 Y-9.297 F7200.000
G1 X-3.610 Y-5.097
G1 X5.094 Y3.607
G1 X1.718 Y7.339
G1 X-7.339 Y-1.718
M700 P0.000000
G1 X7.554 Y-1.041 F9000.000
M700 P0.125664
G1 X9.297 Y0.701 F7200.000
G22 ; retract
G1 Z2.100 F9000.000
G1 X-1.070 Y-30.485 F9000.000
G23 ; unretract
M700 P0.019463
G1 X1.070 Y-30.485 F2400.000
G1 X1.070 Y-12.494
G1 X1.147 Y-11.291
G1 X1.375 Y-10.121
G1 X1.743 Y-9.011
G1 X2.236 Y-7.972
G1 X2.843 Y-7.025
G1 X3.551 Y-6.184
G1 X4.448 Y-5.374
G1 X5.046 Y-4.794
G1 X6.184 Y-3.551
G1 X7.026 Y-2.843
G1 X7.972 Y-2.236
G1 X9.011 Y-1.743
G1 X10.121 Y-1.375
G1 X11.291 Y-1.147
G1 X12.494 Y-1.070
G1 X30.485 Y-1.070
G1 X30.485 Y1.070
G1 X12.494 Y1.070
G1 X11.291 Y1.147
G1 X10.121 Y1.375
G1 X9.011 Y1.743
G1 X7.972 Y2.236
G1 X7.025 Y2.843
G1 X6.185 Y3.551
G1 X5.046 Y4.794
G1 X4.448 Y5.374
G1 X3.551 Y6.184
G1 X2.843 Y7.025
G1 X2.236 Y7.972
G1 X1.743 Y9.011
G1 X1.375 Y10.121
G1 X1.147 Y11.291
G1 X1.070 Y12.494
G1 X1.070 Y30.485
G1 X-1.070 Y30.485
G1 X-1.070 Y12.494
G1 X-1.147 Y11.291
G1 X-1.375 Y10.121
G1 X-1.743 Y9.011
G1 X-2.236 Y7.972
G1 X-2.843 Y7.025
G1 X-3.551 Y6.184
G1 X-4.448 Y5.374
G1 X-5.046 Y4.794
G1 X-6.185 Y3.551
G1 X-7.025 Y2.843
G1 X-7.972 Y2.236
G1 X-9.011 Y1.743
G1 X-10.121 Y1.375
G1 X-11.291 Y1.147
G1 X-12.494 Y1.070
G1 X-30.485 Y1.070
G1 X-30.485 Y-1.070
G1 X-12.494 Y-1.070
G1 X-11.291 Y-1.147
G1 X-10.121 Y-1.375
G1 X-9.011 Y-1.743
G1 X-7.972 Y-2.236
G1 X-7.025 Y-2.843
G1 X-6.185 Y-3.551
G1 X-5.046 Y-4.794
G1 X-4.448 Y-5.374
G1 X-3.551 Y-6.184
G1 X-2.843 Y-7.025
G1 X-2.236 Y-7.972
G1 X-1.743 Y-9.011
G1 X-1.375 Y-10.121
G1 X-1.147 Y-11.291
G1 X-1.070 Y-12.494
G1 X-1.070 Y-30.425
G22 ; retract
G1 X1.727 Y-7.349 F9000.000
G23 ; unretract
M700 P0.125664
G1 X-7.349 Y1.727 F7200.000
G1 X-3.624 Y5.110
G1 X5.107 Y-3.620
G1 X9.297 Y-0.701
G1 X7.533 Y1.063
M700 P0.000000
G1 X1.063 Y7.533 F9000.000
M700 P0.125664
G1 X-0.701 Y9.297 F7200.000
G22 ; retract
G1 Z2.150 F9000.000
G1 X-1.070 Y-30.485 F9000.000
G23 ; unretract
M700 P0.019463
G1 X1.070 Y-30.485 F2400.000
G1 X1.070 Y-12.517
G1 X1.147 Y-11.313
G1 X1.376 Y-10.142
G1 X1.744 Y-9.032
G1 X2.238 Y-7.993
G1 X2.847 Y-7.046
G1 X3.556 Y-6.204
G1 X4.462 Y-5.388
G1 X5.060 Y-4.807
G1 X6.204 Y-3.556
G1 X7.047 Y-2.846
G1 X7.993 Y-2.238
G1 X9.032 Y-1.744
G1 X10.142 Y-1.376
G1 X11.313 Y-1.147
G1 X12.517 Y-1.070
G1 X30.485 Y-1.070
G1 X30.485 Y1.070
G1 X12.517 Y1.070
G1 X11.313 Y1.147
G1 X10.142 Y1.376
G1 X9.032 Y1.744
G1 X7.993 Y2.238
G1 X7.046 Y2.847
G1 X6.205 Y3.555
G1 X5.060 Y4.807
G1 X4.462 Y5.388
G1 X3.556 Y6.204
G1 X2.847 Y7.046
G1 X2.238 Y7.993
G1 X1.744 Y9.032
G1 X1.376 Y10.142
G1 X1.147 Y11.313
G1 X1.070 Y12.517
G1 X1.070 Y30.485
G1 X-1.070 Y30.485
G1 X-1.070 Y12.517
G1 X-1.148 Y11.313
G1 X-1.376 Y10.142
G1 X-1.744 Y9.032
G1 X-2.238 Y7.993
G1 X-2.847 Y7.046
G1 X-3.556 Y6.204
G1 X-4.462 Y5.388
G1 X-5.060 Y4.807
G1 X-6.205 Y3.555
G1 X-7.046 Y2.847
G1 X-7.993 Y2.238
G1 X-9.032 Y1.744
G1 X-10.142 Y1.376
G1 X-11.313 Y1.147
G1 X-12.517 Y1.070
G1 X-30.485 Y1.070
G1 X-30.485 Y-1.070
G1 X-12.517 Y-1.070
G1 X-11.313 Y-1.147
G1 X-10.142 Y-1.376
G1 X-9.032 Y-1.744
G1 X-7.993 Y-2.238
G1 X-7.046 Y-2.847
G1 X-6.205 Y-3.555
G1 X-5.060 Y-4.807
G1 X-4.462 Y-5.388
G1 X-3.556 Y-6.204
G1 X-2.847 Y-7.046
G1 X-2.238 Y-7.993
G1 X-1.744 Y-9.032
G1 X-1.376 Y-10.142
G1 X-1.148 Y-11.313
G1 X-1.070 Y-12.517
G1 X-1.070 Y-30.425
G22 ; retract
G1 X1.084 Y-7.511 F9000.000
G23 ; unretract
M700 P0.125664
G1 X-0.701 Y-9.297 F7200.000
G1 X-3.637 Y-5.124
G1 X5.120 Y3.633
G1 X1.737 Y7.359
G1 X-7.359 Y-1.737
M700 P0.000000
G1 X7.511 Y-1.084 F9000.000
M700 P0.125664
G1 X9.297 Y0.701 F7200.000
G22 ; retract
G1 Z2.200 F9000.000
G1 X-1.070 Y-30.485 F9000.000
G23 ; unretract
M700 P0.019463
G1 X1.070 Y-30.485 F2400.000
G1 X1.070 Y-12.540
G1 X1.148 Y-11.336
G1 X1.376 Y-10.164
G1 X1.745 Y-9.052
G1 X2.241 Y-8.014
G1 X2.850 Y-7.066
G1 X3.560 Y-6.225
G1 X4.476 Y-5.401
G1 X5.074 Y-4.821
G1 X6.225 Y-3.560
G1 X7.066 Y-2.850
G1 X7.882 Y-2.323
G1 X8.015 Y-2.240
G1 X9.052 Y-1.745
G1 X10.163 Y-1.376
G1 X11.336 Y-1.148
G1 X12.540 Y-1.070
G1 X30.485 Y-1.070
G1 X30.485 Y1.070
G1 X12.540 Y1.070
G1 X11.336 Y1.148
G1 X10.164 Y1.376
G1 X9.052 Y1.745
G1 X8.014 Y2.241
G1 X7.066 Y2.850
G1 X6.225 Y3.560
G1 X5.074 Y4.821
G1 X4.476 Y5.401
G1 X3.560 Y6.225
G1 X2.850 Y7.066
G1 X2.241 Y8.014
G1 X1.745 Y9.052
G1 X1.376 Y10.164
G1 X1.148 Y11.336
G1 X1.070 Y12.540
G1 X1.070 Y30.485
G1 X-1.070 Y30.485
G1 X-1.070 Y12.540
G1 X-1.148 Y11.336
G1 X-1.376 Y10.164
G1 X-1.745 Y9.052
G1 X-2.241 Y8.014
G1 X-2.850 Y7.066
G1 X-3.560 Y6.225
G1 X-4.476 Y5.401
G1 X-5.074 Y4.821
G1 X-6.225 Y3.560
G1 X-7.066 Y2.850
G1 X-8.014 Y2.241
G1 X-9.052 Y1.745
G1 X-10.164 Y1.376
G1 X-11.336 Y1.148
G1 X-12.540 Y1.070
G1 X-30.485 Y1.070
G1 X-30.485 Y-1.070
G1 X-12.540 Y-1.070
G1 X-11.336 Y-1.148
G1 X-10.164 Y-1.376
G1 X-9.052 Y-1.745
G1 X-8.014 Y-2.241
G1 X-7.066 Y-2.850
G1 X-6.225 Y-3.560
G1 X-5.074 Y-4.821
G1 X-4.476 Y-5.401
G1 X-3.560 Y-6.225
G1 X-2.850 Y-7.066
G1 X-2.241 Y-8.014
G1 X-1.745 Y-9.052
G1 X-1.376 Y-10.164
G1 X-1.148 Y-11.336
G1 X-1.070 Y-12.540
G1 X-1.070 Y-30.425
G22 ; retract
G1 X1.747 Y-7.368 F9000.000
G23 ; unretract
M700 P0.125664
G1 X-7.368 Y1.747 F7200.000
G1 X-3.650 Y5.137
G1 X5.133 Y-3.646
G1 X9.297 Y-0.701
G1 X7.490 Y1.106
M700 P0.000000
G1 X1.106 Y7.490 F9000.000
M700 P0.125664
G1 X-0.701 Y9.297 F7200.000
G22 ; retract
G1 Z2.250 F9000.000
G1 X-1.070 Y-30.485 F9000.000
G23 ; unretract
M700 P0.019463
G1 X1.070 Y-30.485 F2400.000
G1 X1.070 Y-12.563
G1 X1.148 Y-11.358
G1 X1.377 Y-10.185
G1 X1.746 Y-9.073
G1 X2.243 Y-8.035
G1 X2.853 Y-7.087
G1 X3.565 Y-6.245
G1 X4.490 Y-5.414
G1 X5.089 Y-4.834
G1 X6.246 Y-3.564
G1 X7.087 Y-2.853
G1 X7.938 Y-2.302
G1 X9.072 Y-1.746
G1 X10.185 Y-1.377
G1 X11.358 Y-1.148
G1 X12.563 Y-1.070
G1 X30.485 Y-1.070
G1 X30.485 Y1.070
G1 X12.563 Y1.070
G1 X11.358 Y1.148
G1 X10.185 Y1.377
G1 X9.073 Y1.746
G1 X8.035 Y2.243
G1 X7.087 Y2.853
G1 X6.246 Y3.564
G1 X5.089 Y4.834
G1 X4.490 Y5.414
G1 X3.565 Y6.245
G1 X2.853 Y7.087
G1 X2.243 Y8.035
G1 X1.746 Y9.073
G1 X1.377 Y10.185
G1 X1.148 Y11.358
G1 X1.070 Y12.563
G1 X1.070 Y30.485
G1 X-1.070 Y30.485
G1 X-1.070 Y12.563
G1 X-1.148 Y11.358
G1 X-1.377 Y10.185
G1 X-1.746 Y9.073
G1 X-2.243 Y8.035
G1 X-2.853 Y7.087
G1 X-3.565 Y6.245
G1 X-4.490 Y5.414
G1 X-5.089 Y4.834
G1 X-6.246 Y3.564
G1 X-7.087 Y2.853
G1 X-8.035 Y2.243
G1 X-9.073 Y1.746
G1 X-10.185 Y1.377
G1 X-11.358 Y1.148
G1 X-12.563 Y1.070
G1 X-30.485 Y1.070
G1 X-30.485 Y-1.070
G1 X-12.563 Y-1.070
G1 X-11.358 Y-1.148
G1 X-10.185 Y-1.377
G1 X-9.073 Y-1.746
G1 X-8.035 Y-2.243
G1 X-7.087 Y-2.853
G1 X-6.246 Y-3.564
G1 X-5.089 Y-4.834
G1 X-4.490 Y-5.414
G1 X-3.565 Y-6.245
G1 X-2.853 Y-7.087
G1 X-2.302 Y-7.938
G1 X-1.746 Y-9.072
G1 X-1.377 Y-10.185
G1 X-1.148 Y-11.358
G1 X-1.070 Y-12.563
G1 X-1.070 Y-30.425
G22 ; retract
G1 X1.128 Y-7.468 F9000.000
G23 ; unretract
M700 P0.125664
G1 X-0.701 Y-9.297 F7200.000
G1 X-3.664 Y-5.150
G1 X5.147 Y3.660
G1 X1.756 Y7.378
G1 X-7.378 Y-1.756
M700 P0.000000
G1 X7.458 Y-1.137 F9000.000
M700 P0.125664
G1 X9.297 Y0.701 F7200.000
G22 ; retract
G1 Z2.300 F9000.000
G1 X-1.070 Y-30.485 F9000.000
G23 ; unretract
M700 P0.019463
G1 X1.070 Y-30.485 F2400.000
G1 X1.070 Y-12.587
G1 X1.148 Y-11.380
G1 X1.377 Y-10.207
G1 X1.747 Y-9.093
G1 X2.245 Y-8.056
G1 X2.856 Y-7.107
G1 X3.569 Y-6.265
G1 X4.504 Y-5.428
G1 X5.103 Y-4.848
G1 X6.266 Y-3.569
G1 X7.107 Y-2.856
G1 X7.987 Y-2.287
G1 X9.093 Y-1.747
G1 X10.206 Y-1.377
G1 X11.380 Y-1.148
G1 X12.587 Y-1.070
G1 X30.485 Y-1.070
G1 X30.485 Y1.070
G1 X12.587 Y1.070
G1 X11.380 Y1.148
G1 X10.207 Y1.377
G1 X9.093 Y1.747
G1 X8.056 Y2.245
G1 X7.107 Y2.856
G1 X6.266 Y3.569
G1 X5.103 Y4.848
G1 X4.504 Y5.428
G1 X3.569 Y6.265
G1 X2.856 Y7.107
G1 X2.245 Y8.056
G1 X1.747 Y9.093
G1 X1.377 Y10.207
G1 X1.148 Y11.380
G1 X1.070 Y12.587
G1 X1.070 Y30.485
G1 X-1.070 Y30.485
G1 X-1.070 Y12.587
G1 X-1.148 Y11.380
G1 X-1.377 Y10.207
G1 X-1.747 Y9.093
G1 X-2.245 Y8.056
G1 X-2.856 Y7.107
G1 X-3.569 Y6.265
G1 X-4.504 Y5.428
G1 X-5.103 Y4.848
G1 X-6.266 Y3.569
G1 X-7.107 Y2.856
G1 X-8.056 Y2.245
G1 X-9.093 Y1.747
G1 X-10.207 Y1.377
G1 X-11.380 Y1.148
G1 X-12.587 Y1.070
G1 X-30.485 Y1.070
G1 X-30.485 Y-1.070
G1 X-12.587 Y-1.070
G1 X-11.380 Y-1.148
G1 X-10.207 Y-1.377
G1 X-9.093 Y-1.747
G1 X-8.056 Y-2.245
G1 X-7.107 Y-2.856
G1 X-6.266 Y-3.569
G1 X-5.103 Y-4.848
G1 X-4.504 Y-5.428
G1 X-3.569 Y-6.265
G1 X-2.856 Y-7.107
G1 X-2.287 Y-7.987
G1 X-1.747 Y-9.093
G1 X-1.377 Y-10.207
G1 X-1.148 Y-11.380
G1 X-1.070 Y-12.587
G1 X-1.070 Y-30.425
G22 ; retract
G1 X1.766 Y-7.388 F9000.000
G23 ; unretract
M700 P0.125664
G1 X-7.388 Y1.766 F7200.000
G1 X-3.677 Y5.164
G1 X5.160 Y-3.673
G1 X9.297 Y-0.701
G1 X7.446 Y1.150
M700 P0.000000
G1 X1.150 Y7.446 F9000.000
M700 P0.125664
G1 X-0.701 Y9.297 F7200.000
G22 ; retract
G1 Z2.350 F9000.000
G1 X-1.070 Y-30.485 F9000.000
G23 ; unretract
M700 P0.019463
G1 X1.070 Y-30.485 F2400.000
G1 X1.070 Y-12.610
G1 X1.148 Y-11.402
G1 X1.377 Y-10.228
G1 X1.748 Y-9.114
G1 X2.247 Y-8.077
G1 X2.859 Y-7.128
G1 X3.573 Y-6.286
G1 X4.518 Y-5.441
G1 X5.117 Y-4.861
G1 X6.286 Y-3.573
G1 X7.128 Y-2.859
G1 X8.036 Y-2.272
G1 X9.114 Y-1.748
G1 X10.228 Y-1.378
G1 X11.403 Y-1.148
G1 X12.610 Y-1.070
G1 X30.485 Y-1.070
G1 X30.485 Y1.070
G1 X12.610 Y1.070
G1 X11.402 Y1.148
G1 X10.228 Y1.377
G1 X9.114 Y1.748
G1 X8.077 Y2.247
G1 X7.128 Y2.859
G1 X6.286 Y3.573
G1 X5.117 Y4.861
G1 X4.518 Y5.441
G1 X3.573 Y6.286
G1 X2.859 Y7.128
G1 X2.247 Y8.077
G1 X1.748 Y9.114
G1 X1.377 Y10.228
G1 X1.148 Y11.402
G1 X1.070 Y12.610
G1 X1.070 Y30.485
G1 X-1.070 Y30.485
G1 X-1.070 Y12.610
G1 X-1.148 Y11.402
G1 X-1.377 Y10.228
G1 X-1.748 Y9.114
G1 X-2.247 Y8.077
G1 X-2.859 Y7.128
G1 X-3.573 Y6.286
G1 X-4.518 Y5.441
G1 X-5.117 Y4.861
G1 X-6.286 Y3.573
G1 X-7.128 Y2.859
G1 X-8.077 Y2.247
G1 X-9.114 Y1.748
G1 X-10.228 Y1.377
G1 X-11.402 Y1.148
G1 X-12.610 Y1.070
G1 X-30.485 Y1.070
G1 X-30.485 Y-1.070
G1 X-12.610 Y-1.070
G1 X-11.402 Y-1.148
G1 X-10.228 Y-1.377
G1 X-9.114 Y-1.748
G1 X-8.077 Y-2.247
G1 X-7.128 Y-2.859
G1 X-6.286 Y-3.573
G1 X-5.117 Y-4.861
G1 X-4.518 Y-5.441
G1 X-3.573 Y-6.286
G1 X-2.859 Y-7.128
G1 X-2.247 Y-8.077
G1 X-1.748 Y-9.114
G1 X-1.377 Y-10.228
G1 X-1.148 Y-11.402
G1 X-1.070 Y-12.610
G1 X-1.070 Y-30.425
G22 ; retract
G1 X1.172 Y-7.424 F9000.000
G23 ; unretract
M700 P0.125664
G1 X-0.701 Y-9.297 F7200.000
G1 X-3.690 Y-5.177
G1 X5.173 Y3.686
G1 X1.776 Y7.398
G1 X-7.398 Y-1.776
M700 P0.000000
G1 X7.418 Y-1.177 F9000.000
M700 P0.125664
G1 X9.297 Y0.701 F7200.000
G22 ; retract
G1 Z2.400 F9000.000
G1 X-1.070 Y-30.485 F9000.000
G23 ; unretract
M700 P0.019463
G1 X1.070 Y-30.485 F2400.000
G1 X1.070 Y-12.633
G1 X1.148 Y-11.425
G1 X1.378 Y-10.249
G1 X1.749 Y-9.135
G1 X2.249 Y-8.098
G1 X2.862 Y-7.148
G1 X3.578 Y-6.306
G1 X4.532 Y-5.454
G1 X5.131 Y-4.875
G1 X6.306 Y-3.577
G1 X7.148 Y-2.862
G1 X8.098 Y-2.249
G1 X9.135 Y-1.749
G1 X10.249 Y-1.378
G1 X11.425 Y-1.148
G1 X12.633 Y-1.070
G1 X30.485 Y-1.070
G1 X30.485 Y1.070
G1 X12.633 Y1.070
G1 X11.425 Y1.148
G1 X10.249 Y1.378
G1 X9.135 Y1.749
G1 X8.098 Y2.249
G1 X7.148 Y2.862
G1 X6.306 Y3.577
G1 X5.131 Y4.875
G1 X4.532 Y5.454
G1 X3.578 Y6.306
G1 X2.862 Y7.148
G1 X2.249 Y8.098
G1 X1.749 Y9.135
G1 X1.378 Y10.249
G1 X1.148 Y11.425
G1 X1.070 Y12.633
G1 X1.070 Y30.485
G1 X-1.070 Y30.485
G1 X-1.070 Y12.633
G1 X-1.148 Y11.425
G1 X-1.378 Y10.249
G1 X-1.749 Y9.135
G1 X-2.249 Y8.098
G1 X-2.862 Y7.148
G1 X-3.578 Y6.306
G1 X-4.532 Y5.454
G1 X-5.131 Y4.875
G1 X-6.306 Y3.577
G1 X-7.148 Y2.862
G1 X-8.098 Y2.249
G1 X-9.135 Y1.749
G1 X-10.249 Y1.378
G1 X-11.425 Y1.148
G1 X-12.633 Y1.070
G1 X-30.485 Y1.070
G1 X-30.485 Y-1.070
G1 X-12.633 Y-1.070
G1 X-11.425 Y-1.148
G1 X-10.249 Y-1.378
G1 X-9.135 Y-1.749
G1 X-8.098 Y-2.249
G1 X-7.148 Y-2.862
G1 X-6.306 Y-3.577
G1 X-5.131 Y-4.875
G1 X-4.532 Y-5.454
G1 X-3.578 Y-6.306
G1 X-2.862 Y-7.148
G1 X-2.249 Y-8.098
G1 X-1.749 Y-9.135
G1 X-1.378 Y-10.249
G1 X-1.148 Y-11.425
G1 X-1.070 Y-12.633
G1 X-1.070 Y-30.425
G22 ; retract
G1 X-0.395 Y-8.616 F9000.000
G23 ; unretract
M700 P0.128915
G1 X-0.153 Y-8.859 F7200.000
G1 X0.406 Y-8.774
G1 X-0.946 Y-7.422
M700 P0.000000
G1 X-7.422 Y-0.946 F9000.000
M700 P0.128915
G1 X-8.774 Y0.406 F7200.000
G1 X-8.326 Y0.602
G1 X0.602 Y-8.326
G1 X0.811 Y-7.892
G1 X-7.892 Y0.811
G1 X-7.457 Y1.021
G1 X1.021 Y-7.457
G1 X1.271 Y-7.064
G1 X-7.064 Y1.271
G1 X-6.673 Y1.523
G1 X1.523 Y-6.673
G1 X1.781 Y-6.286
G1 X-6.286 Y1.781
G1 X-5.938 Y2.076
G1 X2.076 Y-5.938
G1 X2.371 Y-5.590
G1 X-5.590 Y2.371
G1 X-5.253 Y2.678
G1 X2.678 Y-5.253
G1 X3.018 Y-4.949
G1 X-4.947 Y3.016
G1 X-4.640 Y3.353
G1 X3.358 Y-4.645
G1 X3.694 Y-4.337
G1 X-4.334 Y3.690
G1 X-4.021 Y4.021
G1 X4.021 Y-4.021
G1 X4.334 Y-3.690
G1 X-3.694 Y4.337
G1 X-3.358 Y4.645
G1 X4.640 Y-3.353
G1 X4.947 Y-3.016
G1 X-3.018 Y4.949
G1 X-2.678 Y5.253
G1 X5.253 Y-2.678
G1 X5.590 Y-2.371
G1 X-2.371 Y5.590
G1 X-2.076 Y5.938
G1 X5.938 Y-2.076
G1 X6.286 Y-1.781
G1 X-1.781 Y6.286
G1 X-1.523 Y6.673
G1 X6.673 Y-1.523
G1 X7.064 Y-1.271
G1 X-1.271 Y7.064
G1 X-1.021 Y7.457
G1 X7.461 Y-1.024
G1 X7.894 Y-0.814
G1 X-0.811 Y7.892
G1 X-0.602 Y8.326
G1 X8.327 Y-0.603
M700 P0.000000
G1 X8.616 Y0.395 F9000.000
M700 P0.128915
G1 X8.859 Y0.152 F7200.000
G1 X8.774 Y-0.406
G1 X7.422 Y0.946
M700 P0.000000
G1 X0.946 Y7.422 F9000.000
M700 P0.128915
G1 X-0.406 Y8.774 F7200.000
G1 X0.152 Y8.859
G1 X0.395 Y8.616
M700 P0.000000
G1 X-8.616 Y-0.395 F9000.000
M700 P0.128915
G1 X-8.859 Y-0.153 F7200.000
G22 ; retract
G1 Z2.450 F9000.000
G1 X-1.070 Y-30.485 F9000.000
G23 ; unretract
M700 P0.019463
G1 X1.070 Y-30.485 F2400.000
G1 X1.070 Y-12.656
G1 X1.148 Y-11.447
G1 X1.378 Y-10.271
G1 X1.750 Y-9.155
G1 X2.251 Y-8.119
G1 X2.866 Y-7.169
G1 X3.582 Y-6.326
G1 X4.546 Y-5.468
G1 X5.145 Y-4.888
G1 X6.327 Y-3.582
G1 X7.169 Y-2.866
G1 X8.119 Y-2.251
G1 X9.155 Y-1.750
G1 X10.271 Y-1.378
G1 X11.447 Y-1.148
G1 X12.656 Y-1.070
G1 X30.485 Y-1.070
G1 X30.485 Y1.070
G1 X12.656 Y1.070
G1 X11.447 Y1.148
G1 X10.271 Y1.378
G1 X9.155 Y1.750
G1 X8.119 Y2.251
G1 X7.169 Y2.866
G1 X6.327 Y3.582
G1 X5.145 Y4.888
G1 X4.546 Y5.468
G1 X3.582 Y6.326
G1 X2.866 Y7.169
G1 X2.251 Y8.119
G1 X1.750 Y9.155
G1 X1.378 Y10.271
G1 X1.148 Y11.447
G1 X1.070 Y12.656
G1 X1.070 Y30.485
G1 X-1.070 Y30.485
G1 X-1.070 Y12.656
G1 X-1.148 Y11.447
G1 X-1.378 Y10.271
G1 X-1.750 Y9.155
G1 X-2.251 Y8.119
G1 X-2.866 Y7.169
G1 X-3.582 Y6.326
G1 X-4.546 Y5.468
G1 X-5.145 Y4.888
G1 X-6.327 Y3.582
G1 X-7.169 Y2.866
G1 X-8.119 Y2.251
G1 X-9.155 Y1.750
G1 X-10.271 Y1.378
G1 X-11.447 Y1.148
G1 X-12.656 Y1.070
G1 X-30.485 Y1.070
G1 X-30.485 Y-1.070
G1 X-12.656 Y-1.070
G1 X-11.447 Y-1.148
G1 X-10.271 Y-1.378
G1 X-9.155 Y-1.750
G1 X-8.119 Y-2.251
G1 X-7.169 Y-2.866
G1 X-6.327 Y-3.582
G1 X-5.145 Y-4.888
G1 X-4.546 Y-5.468
G1 X-3.582 Y-6.326
G1 X-2.866 Y-7.169
G1 X-2.251 Y-8.119
G1 X-1.750 Y-9.155
G1 X-1.378 Y-10.271
G1 X-1.148 Y-11.447
G1 X-1.070 Y-12.656
G1 X-1.070 Y-30.425
G22 ; retract
G1 X1.463 Y-6.651 F9000.000
G23 ; unretract
M700 P0.033748
G1 X1.097 Y-7.016 F7200.000
G1 X0.665 Y-6.494
G1 X6.528 Y-0.631
G1 X6.985 Y-1.129
G1 X6.651 Y-1.463
M700 P0.000000
G1 X6.528 Y0.324 F9000.000
M700 P0.033748
G1 X-0.323 Y-6.528 F7200.000
G1 X-1.550 Y-6.800
G1 X6.800 Y1.550
G1 X6.242 Y1.946
G1 X-1.946 Y-6.242
G1 X-2.385 Y-5.726
G1 X5.726 Y2.385
G1 X5.236 Y2.849
G1 X-2.850 Y-5.236
G1 X-3.355 Y-4.787
G1 X4.782 Y3.350
G1 X4.329 Y3.852
G1 X-3.852 Y-4.329
G1 X-4.329 Y-3.852
G1 X3.852 Y4.329
G1 X3.355 Y4.787
G1 X-4.782 Y-3.350
G1 X-5.236 Y-2.849
G1 X2.850 Y5.236
G1 X2.385 Y5.726
G1 X-5.726 Y-2.385
G1 X-6.242 Y-1.946
G1 X1.946 Y6.242
G1 X1.550 Y6.800
G1 X-6.800 Y-1.550
G1 X-6.528 Y-0.324
G1 X0.323 Y6.528
G1 X-0.665 Y6.494
G1 X-6.528 Y0.631
G1 X-6.985 Y1.129
G1 X-6.651 Y1.463
M700 P0.000000
G1 X-1.463 Y6.651 F9000.000
M700 P0.033748
G1 X-1.097 Y7.016 F7200.000
G22 ; retract
G1 Z2.500 F9000.000
G1 X-1.070 Y-30.485 F9000.000
G23 ; unretract
M700 P0.019463
G1 X1.070 Y-30.485 F2400.000
G1 X1.070 Y-12.679
G1 X1.148 Y-11.469
G1 X1.379 Y-10.292
G1 X1.751 Y-9.176
G1 X2.253 Y-8.139
G1 X2.869 Y-7.190
G1 X3.587 Y-6.346
G1 X4.560 Y-5.481
G1 X5.159 Y-4.902
G1 X6.347 Y-3.586
G1 X7.190 Y-2.869
G1 X8.139 Y-2.253
G1 X9.176 Y-1.751
G1 X10.292 Y-1.379
G1 X11.469 Y-1.148
G1 X12.679 Y-1.070
G1 X30.485 Y-1.070
G1 X30.485 Y1.070
G1 X12.679 Y1.070
G1 X11.469 Y1.148
G1 X10.292 Y1.379
G1 X9.176 Y1.751
G1 X8.139 Y2.253
G1 X7.190 Y2.869
G1 X6.347 Y3.586
G1 X5.159 Y4.902
G1 X4.560 Y5.481
G1 X3.587 Y6.346
G1 X2.869 Y7.190
G1 X2.253 Y8.139
G1 X1.751 Y9.176
G1 X1.379 Y10.292
G1 X1.148 Y11.469
G1 X1.070 Y12.679
G1 X1.070 Y30.485
G1 X-1.070 Y30.485
G1 X-1.070 Y12.679
G1 X-1.148 Y11.469
G1 X-1.379 Y10.292
G1 X-1.751 Y9.176
G1 X-2.253 Y8.139
G1 X-2.869 Y7.190
G1 X-3.587 Y6.346
G1 X-4.560 Y5.481
G1 X-5.159 Y4.902
G1 X-6.347 Y3.586
G1 X-7.190 Y2.869
G1 X-8.139 Y2.253
G1 X-9.176 Y1.751
G1 X-10.292 Y1.379
G1 X-11.469 Y1.148
G1 X-12.679 Y1.070
G1 X-30.485 Y1.070
G1 X-30.485 Y-1.070
G1 X-12.679 Y-1.070
G1 X-11.469 Y-1.148
G1 X-10.292 Y-1.379
G1 X-9.176 Y-1.751
G1 X-8.139 Y-2.253
G1 X-7.190 Y-2.869
G1 X-6.347 Y-3.586
G1 X-5.159 Y-4.902
G1 X-4.560 Y-5.481
G1 X-3.587 Y-6.346
G1 X-2.869 Y-7.190
G1 X-2.253 Y-8.139
G1 X-1.751 Y-9.176
G1 X-1.379 Y-10.292
G1 X-1.148 Y-11.469
G1 X-1.070 Y-12.679
G1 X-1.070 Y-30.425
G22 ; retract
G1 X-0.270 Y-12.654 F9000.000
G1 X-0.001 Y-5.286 F9000.000
G1 X-1.631 Y-6.277 F9000.000
G23 ; unretract
M700 P0.034951
G1 X-2.060 Y-5.848 F5040.000
M700 P0.000000
G1 X-3.301 Y-4.608 F9000.000
M700 P0.034951
G1 X-4.484 Y-3.424 F5040.000
M700 P0.000000
G1 X-5.848 Y-2.060 F9000.000
M700 P0.034951
G1 X-6.287 Y-1.622 F5040.000
G1 X-6.505 Y-0.415
G1 X-0.413 Y-6.507
G1 X0.582 Y-6.514
G1 X-6.517 Y0.586
G1 X-6.393 Y1.450
G1 X1.455 Y-6.398
G1 X2.114 Y-6.069
G1 X-6.069 Y2.114
G1 X-5.535 Y2.569
G1 X2.569 Y-5.535
G1 X3.080 Y-5.057
G1 X-5.054 Y3.077
G1 X-4.585 Y3.597
G1 X3.602 Y-4.591
G1 X4.096 Y-4.096
G1 X-4.096 Y4.096
G1 X-3.602 Y4.590
G1 X4.585 Y-3.597
G1 X5.054 Y-3.077
G1 X-3.080 Y5.057
G1 X-2.569 Y5.535
G1 X5.535 Y-2.569
G1 X6.069 Y-2.114
G1 X-2.114 Y6.069
G1 X-1.455 Y6.398
G1 X6.393 Y-1.450
G1 X6.517 Y-0.586
G1 X-0.582 Y6.514
G1 X0.412 Y6.507
G1 X6.505 Y0.415
G1 X6.287 Y1.622
G1 X5.848 Y2.061
M700 P0.000000
G1 X4.485 Y3.424 F9000.000
M700 P0.034951
G1 X3.301 Y4.608 F5040.000
M700 P0.000000
G1 X2.061 Y5.848 F9000.000
M700 P0.034951
G1 X1.631 Y6.277 F5040.000
G22 ; retract
G1 Z2.550 F9000.000
G1 X0.000 Y-4.830 F9000.000
G23 ; unretract
M700 P0.019463
G1 X0.522 Y-4.802 F2880.000
G1 X1.038 Y-4.717
G1 X1.542 Y-4.577
G1 X2.028 Y-4.383
G1 X2.490 Y-4.139
G1 X2.923 Y-3.845
G1 X3.321 Y-3.506
G1 X3.681 Y-3.127
G1 X3.998 Y-2.710
G1 X4.267 Y-2.262
G1 X4.487 Y-1.788
G1 X4.654 Y-1.292
G1 X4.766 Y-0.781
G1 X4.823 Y-0.261
G1 X4.823 Y0.261
G1 X4.766 Y0.781
G1 X4.654 Y1.292
G1 X4.487 Y1.788
G1 X4.267 Y2.262
G1 X3.998 Y2.710
G1 X3.681 Y3.127
G1 X3.322 Y3.506
G1 X2.923 Y3.845
G1 X2.490 Y4.139
G1 X2.028 Y4.383
G1 X1.542 Y4.577
G1 X1.038 Y4.717
G1 X0.522 Y4.802
G1 X-0.000 Y4.830
G1 X-0.522 Y4.802
G1 X-1.038 Y4.717
G1 X-1.542 Y4.577
G1 X-2.028 Y4.383
G1 X-2.490 Y4.139
G1 X-2.923 Y3.845
G1 X-3.321 Y3.506
G1 X-3.681 Y3.127
G1 X-3.998 Y2.710
G1 X-4.267 Y2.262
G1 X-4.487 Y1.788
G1 X-4.654 Y1.292
G1 X-4.766 Y0.781
G1 X-4.823 Y0.261
G1 X-4.823 Y-0.261
G1 X-4.766 Y-0.781
G1 X-4.654 Y-1.292
G1 X-4.487 Y-1.788
G1 X-4.267 Y-2.262
G1 X-3.998 Y-2.710
G1 X-3.681 Y-3.127
G1 X-3.321 Y-3.506
G1 X-2.923 Y-3.845
G1 X-2.490 Y-4.139
G1 X-2.028 Y-4.383
G1 X-1.542 Y-4.577
G1 X-1.038 Y-4.717
G1 X-0.522 Y-4.802
M700 P0.019463
G1 X-0.060 Y-4.827 F2880.000
G22 ; retract
G1 X1.070 Y-30.485 F9000.000
G23 ; unretract
M700 P0.019463
G1 X1.070 Y-12.702 F2400.000
G1 X1.148 Y-11.491
G1 X1.379 Y-10.314
G1 X1.752 Y-9.197
G1 X2.255 Y-8.159
G1 X2.872 Y-7.210
G1 X3.591 Y-6.367
G1 X4.574 Y-5.494
G1 X5.173 Y-4.915
G1 X6.367 Y-3.591
G1 X7.210 Y-2.872
G1 X8.159 Y-2.255
G1 X9.197 Y-1.752
G1 X10.313 Y-1.379
G1 X11.492 Y-1.148
G1 X12.702 Y-1.070
G1 X30.485 Y-1.070
G1 X30.485 Y1.070
G1 X12.702 Y1.070
G1 X11.491 Y1.148
G1 X10.314 Y1.379
G1 X9.197 Y1.752
G1 X8.159 Y2.255
G1 X7.210 Y2.872
G1 X6.367 Y3.591
G1 X5.173 Y4.915
G1 X4.574 Y5.494
G1 X3.591 Y6.367
G1 X2.872 Y7.210
G1 X2.255 Y8.159
G1 X1.752 Y9.197
G1 X1.379 Y10.314
G1 X1.148 Y11.491
G1 X1.070 Y12.702
G1 X1.070 Y30.485
G1 X-1.070 Y30.485
G1 X-1.070 Y12.702
G1 X-1.148 Y11.491
G1 X-1.379 Y10.314
G1 X-1.752 Y9.197
G1 X-2.255 Y8.159
G1 X-2.872 Y7.210
G1 X-3.591 Y6.367
G1 X-4.574 Y5.494
G1 X-5.173 Y4.915
G1 X-6.367 Y3.591
G1 X-7.210 Y2.872
G1 X-8.159 Y2.255
G1 X-9.197 Y1.752
G1 X-10.314 Y1.379
G1 X-11.491 Y1.148
G1 X-12.702 Y1.070
G1 X-30.485 Y1.070
G1 X-30.485 Y-1.070
G1 X-12.702 Y-1.070
G1 X-11.491 Y-1.148
G1 X-10.314 Y-1.379
G1 X-9.197 Y-1.752
G1 X-8.159 Y-2.255
G1 X-7.210 Y-2.872
G1 X-6.367 Y-3.591
G1 X-5.173 Y-4.915
G1 X-4.574 Y-5.494
G1 X-3.591 Y-6.367
G1 X-2.872 Y-7.210
G1 X-2.255 Y-8.159
G1 X-1.752 Y-9.197
G1 X-1.379 Y-10.314
G1 X-1.148 Y-11.491
G1 X-1.070 Y-12.702
G1 X-1.070 Y-30.485
G1 X1.010 Y-30.485
G22 ; retract
G1 X-0.701 Y-9.297 F9000.000
G23 ; unretract
M700 P0.125664
G1 X1.260 Y-7.335 F7200.000
M700 P0.000000
G1 X7.335 Y-1.260 F9000.000
M700 P0.125664
G1 X9.297 Y0.701 F7200.000
M700 P0.000000
G1 X1.814 Y7.436 F9000.000
M700 P0.125664
G1 X0.142 Y5.764 F7200.000
M700 P0.000000
G1 X-3.133 Y5.163 F9000.000
G1 X-7.249 Y-0.001 F9000.000
G1 X-5.756 Y-0.134 F9000.000
M700 P0.125664
G1 X-7.436 Y-1.814 F7200.000
G22 ; retract
G1 Z2.600 F9000.000
G1 X-0.010 Y-4.848 F9000.000
G23 ; unretract
M700 P0.019463
G1 X0.524 Y-4.820 F2880.000
G1 X1.042 Y-4.735
G1 X1.548 Y-4.595
G1 X2.036 Y-4.401
G1 X2.500 Y-4.155
G1 X2.934 Y-3.860
G1 X3.335 Y-3.520
G1 X3.696 Y-3.139
G1 X4.013 Y-2.721
G1 X4.284 Y-2.271
G1 X4.504 Y-1.795
G1 X4.672 Y-1.297
G1 X4.785 Y-0.784
G1 X4.842 Y-0.263
G1 X4.842 Y0.263
G1 X4.785 Y0.784
G1 X4.672 Y1.297
G1 X4.504 Y1.795
G1 X4.284 Y2.271
G1 X4.013 Y2.721
G1 X3.696 Y3.139
G1 X3.335 Y3.520
G1 X2.934 Y3.860
G1 X2.500 Y4.155
G1 X2.036 Y4.401
G1 X1.557 Y4.591
G1 X1.043 Y4.735
G1 X0.524 Y4.820
G1 X-0.000 Y4.849
G1 X-0.524 Y4.820
G1 X-1.042 Y4.735
G1 X-1.548 Y4.595
G1 X-2.027 Y4.404
G1 X-2.500 Y4.155
G1 X-2.934 Y3.860
G1 X-3.335 Y3.520
G1 X-3.696 Y3.139
G1 X-4.013 Y2.721
G1 X-4.284 Y2.271
G1 X-4.504 Y1.795
G1 X-4.672 Y1.297
G1 X-4.785 Y0.784
G1 X-4.842 Y0.263
G1 X-4.842 Y-0.263
G1 X-4.785 Y-0.784
G1 X-4.672 Y-1.297
G1 X-4.504 Y-1.795
G1 X-4.284 Y-2.271
G1 X-4.018 Y-2.713
G1 X-3.696 Y-3.139
G1 X-3.335 Y-3.520
G1 X-2.934 Y-3.860
G1 X-2.500 Y-4.155
G1 X-2.036 Y-4.401
G1 X-1.548 Y-4.595
G1 X-1.042 Y-4.735
G1 X-0.524 Y-4.820
M700 P0.019463
G1 X-0.070 Y-4.845 F2880.000
G22 ; retract
G1 X-1.070 Y-30.485 F9000.000
G23 ; unretract
M700 P0.019463
G1 X1.070 Y-30.485 F2400.000
G1 X1.070 Y-12.726
G1 X1.149 Y-11.514
G1 X1.380 Y-10.335
G1 X1.753 Y-9.217
G1 X2.256 Y-8.179
G1 X2.875 Y-7.231
G1 X3.596 Y-6.387
G1 X4.588 Y-5.508
G1 X5.187 Y-4.929
G1 X6.388 Y-3.595
G1 X7.231 Y-2.875
G1 X8.179 Y-2.256
G1 X9.217 Y-1.753
G1 X10.335 Y-1.380
G1 X11.514 Y-1.149
G1 X12.726 Y-1.070
G1 X30.485 Y-1.070
G1 X30.485 Y1.070
G1 X12.726 Y1.070
G1 X11.514 Y1.149
G1 X10.335 Y1.380
G1 X9.217 Y1.753
G1 X8.179 Y2.256
G1 X7.231 Y2.875
G1 X6.388 Y3.595
G1 X5.187 Y4.929
G1 X4.588 Y5.508
G1 X3.596 Y6.387
G1 X2.875 Y7.231
G1 X2.256 Y8.179
G1 X1.753 Y9.217
G1 X1.380 Y10.335
G1 X1.149 Y11.514
G1 X1.070 Y12.726
G1 X1.070 Y30.485
G1 X-1.070 Y30.485
G1 X-1.070 Y12.726
G1 X-1.149 Y11.514
G1 X-1.380 Y10.335
G1 X-1.753 Y9.217
G1 X-2.256 Y8.179
G1 X-2.875 Y7.231
G1 X-3.596 Y6.387
G1 X-4.588 Y5.508
G1 X-5.187 Y4.929
G1 X-6.388 Y3.595
G1 X-7.231 Y2.875
G1 X-8.179 Y2.256
G1 X-9.217 Y1.753
G1 X-10.335 Y1.380
G1 X-11.514 Y1.149
G1 X-12.726 Y1.070
G1 X-30.485 Y1.070
G1 X-30.485 Y-1.070
G1 X-12.726 Y-1.070
G1 X-11.514 Y-1.149
G1 X-10.335 Y-1.380
G1 X-9.217 Y-1.753
G1 X-8.179 Y-2.256
G1 X-7.231 Y-2.875
G1 X-6.388 Y-3.595
G1 X-5.187 Y-4.929
G1 X-4.588 Y-5.508
G1 X-3.596 Y-6.387
G1 X-2.875 Y-7.231
G1 X-2.256 Y-8.179
G1 X-1.753 Y-9.217
G1 X-1.380 Y-10.335
G1 X-1.149 Y-11.514
G1 X-1.070 Y-12.726
G1 X-1.070 Y-30.425
G22 ; retract
G1 X1.824 Y-7.445 F9000.000
G23 ; unretract
M700 P0.125664
G1 X0.159 Y-5.781 F7200.000
M700 P0.000000
G1 X-3.139 Y-5.175 F9000.000
G1 X-7.219 Y0.078 F9000.000
G1 X-5.773 Y0.151 F9000.000
M700 P0.125664
G1 X-7.445 Y1.824 F7200.000
M700 P0.000000
G1 X-0.701 Y9.297 F9000.000
M700 P0.125664
G1 X1.282 Y7.313 F7200.000
M700 P0.000000
G1 X7.313 Y1.282 F9000.000
M700 P0.125664
G1 X9.297 Y-0.701 F7200.000
G22 ; retract
G1 Z2.650 F9000.000
G1 X-0.017 Y-4.867 F9000.000
G23 ; unretract
M700 P0.019463
G1 X0.526 Y-4.839 F2880.000
G1 X1.046 Y-4.754
G1 X1.554 Y-4.613
G1 X2.044 Y-4.418
G1 X2.510 Y-4.171
G1 X2.946 Y-3.875
G1 X3.348 Y-3.534
G1 X3.710 Y-3.151
G1 X4.019 Y-2.745
G1 X4.301 Y-2.280
G1 X4.522 Y-1.802
G1 X4.690 Y-1.302
G1 X4.804 Y-0.788
G1 X4.861 Y-0.264
G1 X4.861 Y0.264
G1 X4.804 Y0.788
G1 X4.690 Y1.302
G1 X4.522 Y1.802
G1 X4.301 Y2.280
G1 X4.029 Y2.732
G1 X3.710 Y3.151
G1 X3.348 Y3.534
G1 X2.946 Y3.875
G1 X2.510 Y4.171
G1 X2.044 Y4.418
G1 X1.554 Y4.613
G1 X1.046 Y4.754
G1 X0.526 Y4.839
G1 X-0.000 Y4.868
G1 X-0.526 Y4.839
G1 X-1.046 Y4.754
G1 X-1.554 Y4.613
G1 X-2.028 Y4.424
G1 X-2.509 Y4.171
G1 X-2.946 Y3.875
G1 X-3.348 Y3.534
G1 X-3.710 Y3.151
G1 X-4.029 Y2.732
G1 X-4.301 Y2.280
G1 X-4.522 Y1.802
G1 X-4.690 Y1.302
G1 X-4.804 Y0.788
G1 X-4.861 Y0.264
G1 X-4.861 Y-0.264
G1 X-4.806 Y-0.771
G1 X-4.691 Y-1.302
G1 X-4.522 Y-1.802
G1 X-4.301 Y-2.280
G1 X-4.029 Y-2.732
G1 X-3.710 Y-3.151
G1 X-3.348 Y-3.534
G1 X-2.946 Y-3.875
G1 X-2.510 Y-4.171
G1 X-2.044 Y-4.418
G1 X-1.554 Y-4.613
G1 X-1.046 Y-4.754
G1 X-0.526 Y-4.839
M700 P0.019463
G1 X-0.077 Y-4.864 F2880.000
G22 ; retract
G1 X-1.070 Y-30.485 F9000.000
G23 ; unretract
M700 P0.019463
G1 X1.070 Y-30.485 F2400.000
G1 X1.070 Y-12.749
G1 X1.149 Y-11.536
G1 X1.380 Y-10.357
G1 X1.754 Y-9.238
G1 X2.258 Y-8.199
G1 X2.878 Y-7.251
G1 X3.600 Y-6.407
G1 X4.602 Y-5.521
G1 X5.201 Y-4.942
G1 X6.408 Y-3.600
G1 X7.251 Y-2.878
G1 X8.199 Y-2.258
G1 X9.238 Y-1.754
G1 X10.356 Y-1.380
G1 X11.536 Y-1.149
G1 X12.749 Y-1.070
G1 X30.485 Y-1.070
G1 X30.485 Y1.070
G1 X12.749 Y1.070
G1 X11.536 Y1.149
G1 X10.357 Y1.380
G1 X9.238 Y1.754
G1 X8.199 Y2.258
G1 X7.251 Y2.878
G1 X6.408 Y3.600
G1 X5.201 Y4.942
G1 X4.602 Y5.521
G1 X3.600 Y6.407
G1 X2.878 Y7.251
G1 X2.258 Y8.199
G1 X1.754 Y9.238
G1 X1.380 Y10.357
G1 X1.149 Y11.536
G1 X1.070 Y12.749
G1 X1.070 Y30.485
G1 X-1.070 Y30.485
G1 X-1.070 Y12.749
G1 X-1.149 Y11.536
G1 X-1.380 Y10.357
G1 X-1.754 Y9.238
G1 X-2.258 Y8.199
G1 X-2.878 Y7.251
G1 X-3.600 Y6.407
G1 X-4.602 Y5.521
G1 X-5.201 Y4.942
G1 X-6.408 Y3.600
G1 X-7.251 Y2.878
G1 X-8.199 Y2.258
G1 X-9.238 Y1.754
G1 X-10.357 Y1.380
G1 X-11.536 Y1.149
G1 X-12.749 Y1.070
G1 X-30.485 Y1.070
G1 X-30.485 Y-1.070
G1 X-12.749 Y-1.070
G1 X-11.536 Y-1.149
G1 X-10.357 Y-1.380
G1 X-9.238 Y-1.754
G1 X-8.199 Y-2.258
G1 X-7.251 Y-2.878
G1 X-6.408 Y-3.600
G1 X-5.201 Y-4.942
G1 X-4.602 Y-5.521
G1 X-3.600 Y-6.407
G1 X-2.878 Y-7.251
G1 X-2.258 Y-8.199
G1 X-1.754 Y-9.238
G1 X-1.380 Y-10.356
G1 X-1.149 Y-11.536
G1 X-1.070 Y-12.749
G1 X-1.070 Y-30.425
G22 ; retract
G1 X-0.701 Y-9.297 F9000.000
G23 ; unretract
M700 P0.125664
G1 X1.304 Y-7.291 F7200.000
M700 P0.000000
G1 X7.291 Y-1.304 F9000.000
M700 P0.125664
G1 X9.297 Y0.701 F7200.000
M700 P0.000000
G1 X1.833 Y7.455 F9000.000
M700 P0.125664
G1 X0.176 Y5.798 F7200.000
M700 P0.000000
G1 X-3.152 Y5.196 F9000.000
G1 X-7.289 Y-0.001 F9000.000
G1 X-5.790 Y-0.168 F9000.000
M700 P0.125664
G1 X-7.455 Y-1.833 F7200.000
G22 ; retract
G1 Z2.700 F9000.000
G1 X-0.024 Y-4.886 F9000.000
G23 ; unretract
M700 P0.019463
G1 X0.528 Y-4.858 F2880.000
G1 X1.051 Y-4.773
G1 X1.560 Y-4.631
G1 X2.052 Y-4.435
G1 X2.519 Y-4.187
G1 X2.957 Y-3.890
G1 X3.361 Y-3.548
G1 X3.725 Y-3.164
G1 X4.045 Y-2.742
G1 X4.318 Y-2.289
G1 X4.540 Y-1.809
G1 X4.709 Y-1.307
G1 X4.822 Y-0.791
G1 X4.880 Y-0.265
G1 X4.880 Y0.265
G1 X4.822 Y0.791
G1 X4.709 Y1.307
G1 X4.540 Y1.809
G1 X4.318 Y2.289
G1 X4.045 Y2.742
G1 X3.725 Y3.164
G1 X3.361 Y3.548
G1 X2.957 Y3.890
G1 X2.519 Y4.187
G1 X2.052 Y4.435
G1 X1.560 Y4.631
G1 X1.051 Y4.773
G1 X0.528 Y4.858
G1 X-0.000 Y4.887
G1 X-0.528 Y4.858
G1 X-1.051 Y4.773
G1 X-1.560 Y4.631
G1 X-2.052 Y4.435
G1 X-2.519 Y4.187
G1 X-2.938 Y3.904
G1 X-3.360 Y3.548
G1 X-3.725 Y3.164
G1 X-4.045 Y2.742
G1 X-4.318 Y2.289
G1 X-4.540 Y1.809
G1 X-4.709 Y1.307
G1 X-4.817 Y0.814
G1 X-4.880 Y0.265
G1 X-4.880 Y-0.265
G1 X-4.825 Y-0.767
G1 X-4.709 Y-1.307
G1 X-4.540 Y-1.809
G1 X-4.318 Y-2.289
G1 X-4.045 Y-2.742
G1 X-3.725 Y-3.164
G1 X-3.361 Y-3.548
G1 X-2.957 Y-3.890
G1 X-2.519 Y-4.187
G1 X-2.052 Y-4.435
G1 X-1.560 Y-4.631
G1 X-1.051 Y-4.773
G1 X-0.528 Y-4.858
M700 P0.019463
G1 X-0.084 Y-4.882 F2880.000
G22 ; retract
G1 X-1.070 Y-30.485 F9000.000
G23 ; unretract
M700 P0.019463
G1 X1.070 Y-30.485 F2400.000
G1 X1.070 Y-12.772
G1 X1.149 Y-11.558
G1 X1.381 Y-10.378
G1 X1.755 Y-9.259
G1 X2.260 Y-8.219
G1 X2.882 Y-7.272
G1 X3.605 Y-6.428
G1 X4.616 Y-5.534
G1 X5.215 Y-4.956
G1 X6.428 Y-3.604
G1 X7.272 Y-2.882
G1 X8.219 Y-2.260
G1 X9.259 Y-1.755
G1 X10.378 Y-1.381
G1 X11.559 Y-1.149
G1 X12.772 Y-1.070
G1 X30.485 Y-1.070
G1 X30.485 Y1.070
G1 X12.772 Y1.070
G1 X11.558 Y1.149
G1 X10.378 Y1.381
G1 X9.259 Y1.755
G1 X8.219 Y2.260
G1 X7.272 Y2.882
G1 X6.428 Y3.604
G1 X5.215 Y4.956
G1 X4.616 Y5.534
G1 X3.605 Y6.428
G1 X2.882 Y7.272
G1 X2.261 Y8.218
G1 X1.755 Y9.259
G1 X1.381 Y10.378
G1 X1.149 Y11.558
G1 X1.070 Y12.772
G1 X1.070 Y30.485
G1 X-1.070 Y30.485
G1 X-1.070 Y12.772
G1 X-1.149 Y11.558
G1 X-1.381 Y10.378
G1 X-1.755 Y9.259
G1 X-2.260 Y8.219
G1 X-2.882 Y7.272
G1 X-3.605 Y6.428
G1 X-4.616 Y5.534
G1 X-5.215 Y4.956
G1 X-6.428 Y3.604
G1 X-7.272 Y2.882
G1 X-8.218 Y2.261
G1 X-9.259 Y1.755
G1 X-10.378 Y1.381
G1 X-11.558 Y1.149
G1 X-12.772 Y1.070
G1 X-30.485 Y1.070
G1 X-30.485 Y-1.070
G1 X-12.772 Y-1.070
G1 X-11.558 Y-1.149
G1 X-10.378 Y-1.381
G1 X-9.259 Y-1.755
G1 X-8.219 Y-2.260
G1 X-7.272 Y-2.882
G1 X-6.428 Y-3.604
G1 X-5.215 Y-4.956
G1 X-4.616 Y-5.534
